; generated by PrusaSlicer 2.5.2+linux-x64-GTK3 on 2023-05-15 at 19:25:45 UTC


;
;

;
;
; 

; external perimeters extrusion width = 0.45mm
; perimeters extrusion width = 0.45mm
; infill extrusion width = 0.45mm
; solid infill extrusion width = 0.45mm
; top infill extrusion width = 0.40mm
; support material extrusion width = 0.35mm
; first layer extrusion width = 0.42mm

M73 P0 R85
M201 X2500 Y2500 Z400 E5000 ; sets maximum accelerations, mm/sec^2
M203 X180 Y180 Z12 E80 ; sets maximum feedrates, mm / sec
M204 P2000 R1250 T2500 ; sets acceleration (P, T) and retract acceleration (R), mm/sec^2
M205 X8.00 Y8.00 Z2.00 E10.00 ; sets the jerk limits, mm/sec
M205 S0 T0 ; sets the minimum extruding and travel feed rate, mm/sec
M107
;TYPE:Custom
M862.3 P "MINI" ; printer model check
G90 ; use absolute coordinates
M83 ; extruder relative mode
M104 S170 ; set extruder temp for bed leveling
M140 S60 ; set bed temp
M109 R170 ; wait for bed leveling temp
M190 S60 ; wait for bed temp
M204 T1250 ; set travel acceleration
G28 ; home all without mesh bed level
G29 ; mesh bed leveling 
M204 T2500 ; restore travel acceleration
M104 S215 ; set extruder temp
G92 E0
G1 Y-2 X179 F2400
G1 Z3 F720
M109 S215 ; wait for extruder temp

; intro line
G1 X170 F1000
G1 Z0.2 F720
G1 X110 E8 F900
G1 X40 E10 F700
G92 E0

M221 S95 ; set flow
G21 ; set units to millimeters
G90 ; use absolute coordinates
M83 ; use relative distances for extrusion
M900 K0.2 ; Filament gcode LA 1.5
; ; Filament gcode LA 1.0
M107
;LAYER_CHANGE
;Z:0.2
;HEIGHT:0.2
;BEFORE_LAYER_CHANGE
G92 E0.0
;0.2


G1 E-3.2 F4200
M73 P0 R84
G1 Z.2 F720
;AFTER_LAYER_CHANGE
;0.2
G1 Z.4
G1 X70.435 Y35.958 F9000
G1 Z.2 F720
G1 E3.2 F2400
M204 P600
;TYPE:Skirt/Brim
;WIDTH:0.42
G1 F1200
G1 X71.36 Y34.955 E.04278
G1 X72.571 Y34.623 E.03939
G1 X93.571 Y34.623 E.65844
G1 X94.878 Y35.015 E.04278
G1 X95.907 Y36.555 E.05808
G1 X113.826 Y130.645 E3.00314
G1 X113.868 Y143.941 E.41688
G1 X113.477 Y145.248 E.04278
G1 X112.431 Y146.124 E.04278
G1 X111.707 Y146.308 E.02344
G1 X86.211 Y148.626 E.8027
G1 X68.509 Y148.636 E.55503
G1 X67.202 Y148.244 E.04278
G1 X66.325 Y147.198 E.04278
G1 X66.132 Y146.258 E.03008
G1 X66.132 Y45.331 E3.16452
G1 X66.372 Y44.289 E.03353
G1 X70.409 Y36.012 E.28873
M204 P1000
; printing object grinder_catchment_rails-Rail.stl id:0 copy 0
G1 E-2.24 F4200
;WIPE_START
G1 F7200
G1 X71.36 Y34.955 E-.78803
G1 X71.576 Y34.896 E-.12397
;WIPE_END
G1 E-.048 F4200
G1 Z.4 F720
G1 X72.091 Y50.199 F9000
G1 Z.2 F720
G1 E3.2 F2400
M204 P600
;TYPE:Support material
G1 F1200
G1 X72.373 Y50.48 E.01247
G1 X80.091 Y50.48 E.24202
G1 X80.092 Y142.031 E2.87052
G1 X80.128 Y142.328 E.00937
G1 X80.221 Y142.602 E.00908
G1 X80.406 Y142.912 E.01132
G1 X80.687 Y143.185 E.01228
G1 X80.924 Y143.331 E.00872
G1 X81.217 Y143.437 E.00977
G1 X81.558 Y143.48 E.01079
G1 X85.995 Y143.48 E.13913
G1 X85.995 Y146.258 E.08712
G1 X68.509 Y146.258 E.54828
G1 X68.509 Y45.331 E3.16452
G1 X72.091 Y45.331 E.11233
G1 X72.091 Y50.142 E.15087
M204 P1000
G1 E-2.24 F4200
;WIPE_START
G1 F7200
G1 X72.091 Y48.497 E-.912
;WIPE_END
G1 E-.048 F4200
G1 Z.4 F720
G1 X85.391 Y146.089 F9000
G1 Z.2 F720
G1 E3.2 F2400
M204 P600
G1 F1200
G1 X85.391 Y143.819 E.07116
G1 X84.972 Y143.819 E.01314
G1 X84.972 Y145.919 E.06583
G1 X84.553 Y145.919 E.01314
G1 X84.553 Y143.819 E.06583
G1 X84.134 Y143.819 E.01314
G1 X84.134 Y145.919 E.06583
G1 X83.715 Y145.919 E.01314
G1 X83.715 Y143.819 E.06583
G1 X83.296 Y143.819 E.01314
G1 X83.296 Y145.919 E.06583
G1 X82.877 Y145.919 E.01314
G1 X82.877 Y143.819 E.06583
G1 X82.458 Y143.819 E.01314
G1 X82.458 Y145.919 E.06583
G1 X82.039 Y145.919 E.01314
G1 X82.039 Y143.819 E.06583
G1 X81.62 Y143.819 E.01314
G1 X81.62 Y145.919 E.06583
G1 X81.201 Y145.919 E.01314
G1 X81.201 Y143.782 E.06702
G1 X80.783 Y143.64 E.01387
G1 X80.783 Y145.919 E.07147
G1 X80.364 Y145.919 E.01314
G1 X80.364 Y143.356 E.08036
G1 X80.134 Y143.116 E.01041
G1 X79.945 Y142.814 E.01118
G1 X79.945 Y145.919 E.09736
G1 X79.526 Y145.919 E.01314
G1 X79.526 Y50.819 E2.98178
G1 X79.107 Y50.819 E.01314
M73 P1 R84
G1 X79.107 Y145.919 E2.98178
G1 X78.688 Y145.919 E.01314
G1 X78.688 Y50.819 E2.98178
G1 X78.269 Y50.819 E.01314
G1 X78.269 Y145.919 E2.98178
G1 X77.85 Y145.919 E.01314
G1 X77.85 Y50.819 E2.98178
G1 X77.431 Y50.819 E.01314
M73 P1 R83
G1 X77.431 Y145.919 E2.98178
G1 X77.012 Y145.919 E.01314
G1 X77.012 Y50.819 E2.98178
G1 X76.593 Y50.819 E.01314
G1 X76.593 Y145.919 E2.98178
G1 X76.174 Y145.919 E.01314
G1 X76.174 Y50.819 E2.98178
G1 X75.755 Y50.819 E.01314
G1 X75.755 Y145.919 E2.98178
G1 X75.336 Y145.919 E.01314
G1 X75.336 Y50.819 E2.98178
G1 X74.917 Y50.819 E.01314
G1 X74.917 Y145.919 E2.98178
G1 X74.498 Y145.919 E.01314
M73 P2 R83
G1 X74.498 Y50.819 E2.98178
G1 X74.079 Y50.819 E.01314
G1 X74.079 Y145.919 E2.98178
G1 X73.66 Y145.919 E.01314
G1 X73.66 Y50.819 E2.98178
G1 X73.241 Y50.819 E.01314
G1 X73.241 Y145.919 E2.98178
G1 X72.822 Y145.919 E.01314
G1 X72.822 Y50.819 E2.98178
G1 X72.403 Y50.819 E.01314
G1 X72.403 Y145.919 E2.98178
G1 X71.984 Y145.919 E.01314
M73 P2 R82
G1 X71.984 Y50.571 E2.98956
G1 X71.752 Y50.339 E.01028
G1 X71.752 Y45.67 E.14641
G1 X71.565 Y45.67 E.00587
G1 X71.565 Y145.919 E3.14324
G1 X71.146 Y145.919 E.01314
G1 X71.146 Y45.67 E3.14324
G1 X70.727 Y45.67 E.01314
G1 X70.727 Y145.919 E3.14324
G1 X70.308 Y145.919 E.01314
G1 X70.308 Y45.67 E3.14324
G1 X69.889 Y45.67 E.01314
M73 P3 R82
G1 X69.889 Y145.919 E3.14324
G1 X69.47 Y145.919 E.01314
G1 X69.47 Y45.67 E3.14324
G1 X69.051 Y45.67 E.01314
G1 X69.051 Y146.089 E3.14856
M204 P1000
G1 E-2.24 F4200
;WIPE_START
G1 F7200
G1 X69.051 Y144.443 E-.912
;WIPE_END
G1 E-.048 F4200
G1 Z.4 F720
G1 X111.491 Y143.941 F9000
G1 Z.2 F720
G1 E3.2 F2400
M204 P600
G1 F1200
G1 X92.926 Y143.941 E.58209
G1 X92.926 Y143.48 E.01444
G1 X93.77 Y143.48 E.02646
G1 X94.051 Y143.199 E.01247
G1 X94.051 Y133.407 E.307
G1 X98.64 Y133.407 E.14388
G1 X98.64 Y131.09 E.07267
G1 X111.491 Y131.09 E.40294
G1 X111.491 Y143.884 E.40116
M204 P1000
G1 X110.949 Y143.771 F9000
M204 P600
G1 F1200
G1 X110.949 Y131.429 E.38697
G1 X110.53 Y131.429 E.01314
G1 X110.53 Y143.601 E.38165
G1 X110.111 Y143.601 E.01314
G1 X110.111 Y131.429 E.38165
G1 X109.692 Y131.429 E.01314
G1 X109.692 Y143.601 E.38165
G1 X109.273 Y143.601 E.01314
G1 X109.273 Y131.429 E.38165
G1 X108.854 Y131.429 E.01314
G1 X108.854 Y143.601 E.38165
G1 X108.435 Y143.601 E.01314
G1 X108.435 Y131.429 E.38165
G1 X108.016 Y131.429 E.01314
G1 X108.016 Y143.601 E.38165
G1 X107.597 Y143.601 E.01314
G1 X107.597 Y131.429 E.38165
G1 X107.178 Y131.429 E.01314
G1 X107.178 Y143.601 E.38165
G1 X106.759 Y143.601 E.01314
G1 X106.759 Y131.429 E.38165
G1 X106.34 Y131.429 E.01314
G1 X106.34 Y143.601 E.38165
G1 X105.921 Y143.601 E.01314
G1 X105.921 Y131.429 E.38165
G1 X105.502 Y131.429 E.01314
G1 X105.502 Y143.601 E.38165
G1 X105.083 Y143.601 E.01314
G1 X105.083 Y131.429 E.38165
G1 X104.664 Y131.429 E.01314
G1 X104.664 Y143.601 E.38165
G1 X104.245 Y143.601 E.01314
G1 X104.245 Y131.429 E.38165
G1 X103.826 Y131.429 E.01314
G1 X103.826 Y143.601 E.38165
G1 X103.407 Y143.601 E.01314
G1 X103.407 Y131.429 E.38165
G1 X102.988 Y131.429 E.01314
M73 P3 R81
G1 X102.988 Y143.601 E.38165
G1 X102.569 Y143.601 E.01314
G1 X102.569 Y131.429 E.38165
G1 X102.15 Y131.429 E.01314
G1 X102.15 Y143.601 E.38165
G1 X101.731 Y143.601 E.01314
G1 X101.731 Y131.429 E.38165
G1 X101.312 Y131.429 E.01314
G1 X101.312 Y143.601 E.38165
G1 X100.893 Y143.601 E.01314
G1 X100.893 Y131.429 E.38165
G1 X100.474 Y131.429 E.01314
G1 X100.474 Y143.601 E.38165
G1 X100.055 Y143.601 E.01314
G1 X100.055 Y131.429 E.38165
G1 X99.636 Y131.429 E.01314
G1 X99.636 Y143.601 E.38165
G1 X99.217 Y143.601 E.01314
G1 X99.217 Y131.429 E.38165
G1 X98.98 Y131.429 E.00746
G1 X98.98 Y133.747 E.07267
G1 X98.799 Y133.747 E.00568
G1 X98.799 Y143.601 E.30898
G1 X98.38 Y143.601 E.01314
G1 X98.38 Y133.747 E.30898
G1 X97.961 Y133.747 E.01314
G1 X97.961 Y143.601 E.30898
G1 X97.542 Y143.601 E.01314
G1 X97.542 Y133.747 E.30898
G1 X97.123 Y133.747 E.01314
G1 X97.123 Y143.601 E.30898
G1 X96.704 Y143.601 E.01314
G1 X96.704 Y133.747 E.30898
G1 X96.285 Y133.747 E.01314
G1 X96.285 Y143.601 E.30898
G1 X95.866 Y143.601 E.01314
G1 X95.866 Y133.747 E.30898
G1 X95.447 Y133.747 E.01314
G1 X95.447 Y143.601 E.30898
G1 X95.028 Y143.601 E.01314
G1 X95.028 Y133.747 E.30898
G1 X94.609 Y133.747 E.01314
G1 X94.609 Y143.601 E.30898
G1 X94.19 Y143.601 E.01314
G1 X94.19 Y143.3 E.00943
M204 P1000
G1 E-2.24 F4200
;WIPE_START
G1 F7200
G1 X94.19 Y143.601 E-.16669
G1 X94.609 Y143.601 E-.23218
G1 X94.609 Y142.675 E-.51313
;WIPE_END
G1 E-.048 F4200
G1 Z.4 F720
G1 X80.878 Y49.235 F9000
G1 Z.2 F720
G1 E3.2 F2400
M204 P600
;TYPE:Perimeter
;WIDTH:0.419999
G1 F1200
G1 X80.793 Y49.213 E.00276
G1 X73.359 Y49.213 E.2331
G1 X73.359 Y37.787 E.35825
G1 X92.784 Y37.787 E.60908
G1 X92.784 Y142.213 E3.27419
M73 P4 R81
G1 X81.682 Y142.213 E.3481
G1 X81.612 Y142.205 E.00223
G1 X81.417 Y142.123 E.00661
G1 X81.359 Y141.956 E.00555
G1 X81.359 Y49.779 E2.89015
G1 X81.354 Y49.706 E.00229
G1 X81.252 Y49.448 E.00871
G1 X81.07 Y49.285 E.00765
G1 X80.936 Y49.25 E.00432
M204 P1000
G1 X80.793 Y49.59 F9000
M204 P600
;TYPE:External perimeter
G1 F1200
G1 X72.981 Y49.59 E.24492
G1 X72.981 Y37.41 E.38189
G1 X93.161 Y37.41 E.63273
G1 X93.161 Y142.59 E3.29784
G1 X81.682 Y142.59 E.35992
G1 X81.318 Y142.526 E.0116
G1 X81.115 Y142.364 E.00813
G1 X81.059 Y142.248 E.00405
G1 X80.981 Y141.977 E.00883
G1 X80.981 Y49.779 E2.89081
G1 X80.932 Y49.651 E.00427
G1 X80.848 Y49.614 E.00289
M204 P1000
G1 X80.689 Y49.204 F9000
G1 E-2.24 F4200
;WIPE_START
G1 F7200
G1 X79.202 Y49.609 E-.912
;WIPE_END
G1 E-.048 F4200
G1 Z.4 F720
G1 X79.308 Y43.615 F9000
G1 Z.2 F720
G1 E3.2 F2400
M204 P600
;TYPE:Perimeter
G1 F1200
G1 X78.941 Y43.948 E.01553
G1 X78.481 Y44.205 E.01653
G1 X77.927 Y44.359 E.01803
G1 X77.352 Y44.375 E.01803
G1 X76.79 Y44.254 E.01803
G1 X76.273 Y44.001 E.01803
G1 X75.832 Y43.632 E.01803
G1 X75.492 Y43.169 E.01803
G1 X75.272 Y42.637 E.01803
G1 X75.187 Y42.068 E.01803
G1 X75.24 Y41.495 E.01803
G1 X75.428 Y40.952 E.01803
G1 X75.741 Y40.47 E.01803
G1 X76.161 Y40.076 E.01803
G1 X76.662 Y39.795 E.01803
G1 X77.216 Y39.641 E.01803
G1 X77.791 Y39.625 E.01803
G1 X78.353 Y39.746 E.01803
G1 X78.87 Y39.999 E.01803
G1 X79.311 Y40.368 E.01803
G1 X79.651 Y40.831 E.01803
G1 X79.87 Y41.363 E.01803
G1 X79.956 Y41.932 E.01803
G1 X79.903 Y42.504 E.01803
G1 X79.715 Y43.048 E.01803
G1 X79.401 Y43.53 E.01804
G1 X79.352 Y43.575 E.00208
M204 P1000
G1 X79.042 Y43.366 F9000
M204 P600
;TYPE:External perimeter
G1 F1200
G1 X78.662 Y43.685 E.01556
G1 X78.263 Y43.888 E.01402
G1 X77.791 Y43.998 E.0152
G1 X77.307 Y43.993 E.0152
G1 X76.837 Y43.872 E.0152
G1 X76.411 Y43.641 E.0152
G1 X76.052 Y43.316 E.0152
G1 X75.781 Y42.914 E.0152
G1 X75.614 Y42.459 E.0152
G1 X75.561 Y42.023 E.01378
G1 X75.625 Y41.497 E.01661
G1 X75.802 Y41.046 E.0152
G1 X76.082 Y40.65 E.0152
G1 X76.448 Y40.333 E.0152
G1 X76.88 Y40.112 E.0152
G1 X77.352 Y40.002 E.0152
G1 X77.836 Y40.007 E.0152
G1 X78.306 Y40.128 E.0152
G1 X78.732 Y40.359 E.0152
G1 X79.091 Y40.684 E.0152
G1 X79.362 Y41.086 E.0152
G1 X79.529 Y41.541 E.01519
G1 X79.582 Y42.023 E.0152
G1 X79.518 Y42.503 E.0152
G1 X79.341 Y42.954 E.0152
G1 X79.081 Y43.321 E.01409
M204 P1000
G1 X79.159 Y43.749 F9000
G1 E-2.24 F4200
;WIPE_START
G1 F7200
G1 X78.662 Y43.685 E-.30756
G1 X78.263 Y43.888 E-.24787
G1 X77.791 Y43.998 E-.26858
G1 X77.632 Y43.997 E-.08799
;WIPE_END
G1 E-.048 F4200
G1 Z.4 F720
G1 X89.881 Y64.645 F9000
G1 Z.2 F720
G1 E3.2 F2400
M204 P600
;TYPE:Perimeter
G1 F1200
G1 X89.481 Y64.872 E.01442
G1 X88.927 Y65.026 E.01803
G1 X88.352 Y65.042 E.01803
G1 X87.789 Y64.92 E.01804
G1 X87.236 Y64.638 E.01949
G1 X86.832 Y64.299 E.01653
G1 X86.492 Y63.835 E.01803
G1 X86.272 Y63.304 E.01803
G1 X86.187 Y62.735 E.01803
G1 X86.24 Y62.162 E.01803
G1 X86.428 Y61.619 E.01803
G1 X86.741 Y61.136 E.01803
G1 X87.161 Y60.743 E.01803
G1 X87.662 Y60.461 E.01803
G1 X88.216 Y60.308 E.01803
G1 X88.791 Y60.291 E.01803
G1 X89.353 Y60.413 E.01803
G1 X89.87 Y60.665 E.01803
G1 X90.311 Y61.034 E.01803
G1 X90.651 Y61.498 E.01803
G1 X90.87 Y62.03 E.01803
G1 X90.956 Y62.598 E.01803
G1 X90.903 Y63.171 E.01803
G1 X90.715 Y63.714 E.01803
G1 X90.423 Y64.166 E.01686
G1 X89.99 Y64.583 E.01884
G1 X89.933 Y64.616 E.00206
M204 P1000
G1 X89.675 Y64.344 F9000
M204 P600
;TYPE:External perimeter
G1 F1200
G1 X89.263 Y64.554 E.01452
G1 X88.791 Y64.665 E.0152
G1 X88.307 Y64.66 E.0152
G1 X87.834 Y64.536 E.01531
G1 X87.383 Y64.283 E.01622
G1 X87.052 Y63.983 E.01402
G1 X86.781 Y63.581 E.0152
G1 X86.614 Y63.126 E.0152
G1 X86.561 Y62.689 E.01378
G1 X86.625 Y62.163 E.01661
G1 X86.802 Y61.712 E.0152
G1 X87.082 Y61.317 E.0152
G1 X87.448 Y60.999 E.0152
G1 X87.88 Y60.779 E.0152
G1 X88.352 Y60.668 E.0152
G1 X88.836 Y60.674 E.0152
G1 X89.306 Y60.795 E.0152
G1 X89.732 Y61.025 E.0152
G1 X90.091 Y61.351 E.0152
G1 X90.362 Y61.753 E.0152
G1 X90.529 Y62.208 E.0152
G1 X90.582 Y62.689 E.0152
G1 X90.518 Y63.17 E.0152
G1 X90.341 Y63.621 E.0152
G1 X90.085 Y63.984 E.01392
G1 X89.723 Y64.308 E.01524
M204 P1000
G1 X89.702 Y64.743 F9000
G1 E-2.24 F4200
;WIPE_START
G1 F7200
G1 X89.263 Y64.554 E-.28918
G1 X88.791 Y64.665 E-.26857
G1 X88.307 Y64.66 E-.26857
G1 X88.157 Y64.621 E-.08567
;WIPE_END
G1 E-.048 F4200
G1 Z.4 F720
G1 X86.278 Y123.985 F9000
G1 Z.2 F720
G1 E3.2 F2400
M204 P600
;TYPE:Perimeter
G1 F1200
G1 X86.428 Y123.552 E.01436
G1 X86.741 Y123.07 E.01803
G1 X87.161 Y122.676 E.01803
G1 X87.662 Y122.395 E.01803
G1 X88.216 Y122.241 E.01803
G1 X88.791 Y122.225 E.01803
G1 X89.353 Y122.346 E.01803
G1 X89.87 Y122.599 E.01803
G1 X90.311 Y122.968 E.01803
G1 X90.651 Y123.431 E.01803
G1 X90.87 Y123.963 E.01803
G1 X90.956 Y124.532 E.01803
G1 X90.903 Y125.104 E.01803
G1 X90.715 Y125.648 E.01803
G1 X90.402 Y126.13 E.01803
G1 X89.982 Y126.524 E.01803
G1 X89.481 Y126.805 E.01803
G1 X88.927 Y126.959 E.01803
G1 X88.352 Y126.975 E.01803
G1 X87.79 Y126.854 E.01803
G1 X87.273 Y126.601 E.01803
G1 X86.832 Y126.232 E.01803
G1 X86.492 Y125.769 E.01803
G1 X86.272 Y125.237 E.01803
G1 X86.187 Y124.668 E.01803
G1 X86.259 Y124.042 E.01977
M204 P1000
G1 X86.633 Y124.077 F9000
M204 P600
;TYPE:External perimeter
G1 F1200
G1 X86.802 Y123.646 E.01451
G1 X87.082 Y123.25 E.01519
G1 X87.448 Y122.933 E.0152
G1 X87.88 Y122.712 E.0152
G1 X88.352 Y122.602 E.0152
G1 X88.836 Y122.607 E.0152
G1 X89.306 Y122.728 E.0152
G1 X89.732 Y122.958 E.0152
G1 X90.091 Y123.284 E.0152
G1 X90.362 Y123.686 E.0152
G1 X90.529 Y124.141 E.0152
G1 X90.582 Y124.623 E.01519
G1 X90.518 Y125.103 E.0152
G1 X90.341 Y125.554 E.0152
G1 X90.061 Y125.95 E.0152
G1 X89.695 Y126.267 E.0152
G1 X89.263 Y126.488 E.0152
G1 X88.791 Y126.598 E.0152
G1 X88.307 Y126.593 E.0152
G1 X87.837 Y126.472 E.0152
G1 X87.411 Y126.241 E.0152
G1 X87.052 Y125.916 E.0152
G1 X86.781 Y125.514 E.0152
G1 X86.614 Y125.059 E.0152
G1 X86.561 Y124.623 E.01378
G1 X86.62 Y124.135 E.01541
M204 P1000
G1 X86.348 Y123.795 F9000
G1 E-2.24 F4200
;WIPE_START
G1 F7200
G1 X86.802 Y123.646 E-.28912
G1 X87.082 Y123.25 E-.26856
G1 X87.448 Y122.933 E-.26859
G1 X87.586 Y122.862 E-.08573
;WIPE_END
G1 E-.048 F4200
G1 Z.4 F720
G1 X92.615 Y38.719 F9000
G1 Z.2 F720
G1 E3.2 F2400
M204 P600
;TYPE:Solid infill
;WIDTH:0.420084
G1 F1200
G1 X92.022 Y38.126 E.02629
G1 X91.489 Y38.126 E.01673
G1 X92.445 Y39.083 E.04242
G1 X92.445 Y39.616 E.01673
G1 X90.955 Y38.126 E.06608
G1 X90.422 Y38.126 E.01673
G1 X92.445 Y40.15 E.08973
G1 X92.445 Y40.683 E.01673
G1 X89.888 Y38.126 E.11339
G1 X89.355 Y38.126 E.01673
G1 X92.445 Y41.216 E.13705
G1 X92.445 Y41.75 E.01673
G1 X88.822 Y38.126 E.1607
G1 X88.288 Y38.126 E.01673
G1 X92.445 Y42.283 E.18436
G1 X92.445 Y42.817 E.01673
G1 X87.755 Y38.126 E.20802
G1 X87.221 Y38.126 E.01673
G1 X92.445 Y43.35 E.23167
G1 X92.445 Y43.883 E.01673
G1 X86.688 Y38.126 E.25533
G1 X86.155 Y38.126 E.01673
G1 X92.445 Y44.417 E.27899
G1 X92.445 Y44.95 E.01673
G1 X85.621 Y38.126 E.30264
G1 X85.088 Y38.126 E.01673
G1 X92.445 Y45.484 E.3263
G1 X92.445 Y46.017 E.01673
G1 X84.554 Y38.126 E.34996
G1 X84.021 Y38.126 E.01673
G1 X92.445 Y46.55 E.37362
G1 X92.445 Y47.084 E.01673
G1 X83.488 Y38.126 E.39727
G1 X82.954 Y38.126 E.01673
