; generated by PrusaSlicer 2.5.2+linux-x64-GTK3 on 2023-05-15 at 19:28:04 UTC


;
;

;
;
; 

; external perimeters extrusion width = 0.45mm
; perimeters extrusion width = 0.45mm
; infill extrusion width = 0.45mm
; solid infill extrusion width = 0.45mm
; top infill extrusion width = 0.40mm
; support material extrusion width = 0.35mm
; first layer extrusion width = 0.42mm

M73 P0 R84
M201 X2500 Y2500 Z400 E5000 ; sets maximum accelerations, mm/sec^2
M203 X180 Y180 Z12 E80 ; sets maximum feedrates, mm / sec
M204 P2000 R1250 T2500 ; sets acceleration (P, T) and retract acceleration (R), mm/sec^2
M205 X8.00 Y8.00 Z2.00 E10.00 ; sets the jerk limits, mm/sec
M205 S0 T0 ; sets the minimum extruding and travel feed rate, mm/sec
M107
;TYPE:Custom
M862.3 P "MINI" ; printer model check
G90 ; use absolute coordinates
M83 ; extruder relative mode
M104 S170 ; set extruder temp for bed leveling
M140 S60 ; set bed temp
M109 R170 ; wait for bed leveling temp
M190 S60 ; wait for bed temp
M204 T1250 ; set travel acceleration
G28 ; home all without mesh bed level
G29 ; mesh bed leveling 
M204 T2500 ; restore travel acceleration
M104 S215 ; set extruder temp
G92 E0
G1 Y-2 X179 F2400
G1 Z3 F720
M109 S215 ; wait for extruder temp

; intro line
G1 X170 F1000
G1 Z0.2 F720
G1 X110 E8 F900
G1 X40 E10 F700
G92 E0

M221 S95 ; set flow
G21 ; set units to millimeters
G90 ; use absolute coordinates
M83 ; use relative distances for extrusion
M900 K0.2 ; Filament gcode LA 1.5
; ; Filament gcode LA 1.0
M107
;LAYER_CHANGE
;Z:0.2
;HEIGHT:0.2
;BEFORE_LAYER_CHANGE
G92 E0.0
;0.2


G1 E-3.2 F4200
G1 Z.2 F720
;AFTER_LAYER_CHANGE
;0.2
G1 Z.4
G1 X84.093 Y36.555 F9000
G1 Z.2 F720
G1 E3.2 F2400
M204 P600
;TYPE:Skirt/Brim
;WIDTH:0.42
G1 F1200
G1 X84.723 Y35.345 E.04278
G1 X86.429 Y34.623 E.05808
G1 X107.429 Y34.623 E.65844
G1 X108.736 Y35.015 E.04278
G1 X109.565 Y35.958 E.03939
G1 X113.628 Y44.289 E.29061
G1 X113.868 Y45.331 E.03353
G1 X113.868 Y146.258 E3.16452
G1 X113.477 Y147.565 E.04278
G1 X112.431 Y148.442 E.04278
G1 X111.491 Y148.636 E.03008
G1 X94.005 Y148.636 E.54828
G1 X68.294 Y146.308 E.80945
G1 X67.027 Y145.8 E.04278
G1 X66.249 Y144.679 E.04278
G1 X66.132 Y143.941 E.02344
G1 X66.174 Y130.645 E.41688
G1 X84.082 Y36.614 E3.00126
M204 P1000
; printing object grinder_catchment_rails-Rail.stl id:0 copy 0
G1 E-2.24 F4200
;WIPE_START
G1 F7200
G1 X84.723 Y35.345 E-.78803
G1 X84.929 Y35.257 E-.12397
;WIPE_END
G1 E-.048 F4200
G1 Z.4 F720
G1 X81.36 Y133.407 F9000
G1 Z.2 F720
G1 E3.2 F2400
M204 P600
;TYPE:Support material
G1 F1200
G1 X85.949 Y133.407 E.14388
G1 X85.949 Y143.199 E.307
G1 X86.23 Y143.48 E.01247
G1 X87.074 Y143.48 E.02646
G1 X87.074 Y143.941 E.01444
G1 X68.509 Y143.941 E.58209
G1 X68.509 Y131.09 E.40294
G1 X81.36 Y131.09 E.40294
G1 X81.36 Y133.351 E.0709
M204 P1000
G1 X85.81 Y143.771 F9000
M204 P600
G1 F1200
G1 X85.81 Y143.54 E.00723
G1 X85.609 Y143.339 E.00891
G1 X85.609 Y133.747 E.30077
G1 X85.391 Y133.747 E.00683
G1 X85.391 Y143.601 E.30898
G1 X84.972 Y143.601 E.01314
G1 X84.972 Y133.747 E.30898
G1 X84.553 Y133.747 E.01314
G1 X84.553 Y143.601 E.30898
G1 X84.134 Y143.601 E.01314
G1 X84.134 Y133.747 E.30898
G1 X83.715 Y133.747 E.01314
G1 X83.715 Y143.601 E.30898
G1 X83.296 Y143.601 E.01314
G1 X83.296 Y133.747 E.30898
G1 X82.877 Y133.747 E.01314
G1 X82.877 Y143.601 E.30898
G1 X82.458 Y143.601 E.01314
G1 X82.458 Y133.747 E.30898
G1 X82.039 Y133.747 E.01314
G1 X82.039 Y143.601 E.30898
G1 X81.62 Y143.601 E.01314
G1 X81.62 Y133.747 E.30898
G1 X81.201 Y133.747 E.01314
G1 X81.201 Y143.601 E.30898
G1 X80.783 Y143.601 E.01314
G1 X80.783 Y131.429 E.38165
G1 X80.364 Y131.429 E.01314
G1 X80.364 Y143.601 E.38165
G1 X79.945 Y143.601 E.01314
G1 X79.945 Y131.429 E.38165
G1 X79.526 Y131.429 E.01314
G1 X79.526 Y143.601 E.38165
G1 X79.107 Y143.601 E.01314
G1 X79.107 Y131.429 E.38165
G1 X78.688 Y131.429 E.01314
G1 X78.688 Y143.601 E.38165
G1 X78.269 Y143.601 E.01314
G1 X78.269 Y131.429 E.38165
G1 X77.85 Y131.429 E.01314
G1 X77.85 Y143.601 E.38165
G1 X77.431 Y143.601 E.01314
G1 X77.431 Y131.429 E.38165
G1 X77.012 Y131.429 E.01314
G1 X77.012 Y143.601 E.38165
G1 X76.593 Y143.601 E.01314
G1 X76.593 Y131.429 E.38165
G1 X76.174 Y131.429 E.01314
G1 X76.174 Y143.601 E.38165
G1 X75.755 Y143.601 E.01314
G1 X75.755 Y131.429 E.38165
G1 X75.336 Y131.429 E.01314
G1 X75.336 Y143.601 E.38165
G1 X74.917 Y143.601 E.01314
M73 P1 R83
G1 X74.917 Y131.429 E.38165
G1 X74.498 Y131.429 E.01314
G1 X74.498 Y143.601 E.38165
G1 X74.079 Y143.601 E.01314
G1 X74.079 Y131.429 E.38165
G1 X73.66 Y131.429 E.01314
G1 X73.66 Y143.601 E.38165
G1 X73.241 Y143.601 E.01314
G1 X73.241 Y131.429 E.38165
G1 X72.822 Y131.429 E.01314
G1 X72.822 Y143.601 E.38165
G1 X72.403 Y143.601 E.01314
G1 X72.403 Y131.429 E.38165
G1 X71.984 Y131.429 E.01314
G1 X71.984 Y143.601 E.38165
G1 X71.565 Y143.601 E.01314
G1 X71.565 Y131.429 E.38165
G1 X71.146 Y131.429 E.01314
G1 X71.146 Y143.601 E.38165
G1 X70.727 Y143.601 E.01314
G1 X70.727 Y131.429 E.38165
G1 X70.308 Y131.429 E.01314
G1 X70.308 Y143.601 E.38165
G1 X69.889 Y143.601 E.01314
G1 X69.889 Y131.429 E.38165
G1 X69.47 Y131.429 E.01314
G1 X69.47 Y143.601 E.38165
G1 X69.051 Y143.601 E.01314
G1 X69.051 Y131.259 E.38697
M204 P1000
G1 E-2.24 F4200
;WIPE_START
G1 F7200
G1 X69.051 Y132.905 E-.912
;WIPE_END
G1 E-.048 F4200
G1 Z.4 F720
G1 X111.491 Y146.258 F9000
G1 Z.2 F720
G1 E3.2 F2400
M204 P600
G1 F1200
G1 X94.005 Y146.258 E.54828
G1 X94.005 Y143.48 E.08712
G1 X98.443 Y143.48 E.13918
G1 X98.785 Y143.437 E.01079
G1 X99.076 Y143.331 E.00972
G1 X99.313 Y143.185 E.00872
G1 X99.594 Y142.912 E.01228
G1 X99.779 Y142.602 E.01132
G1 X99.872 Y142.328 E.00908
G1 X99.908 Y142.031 E.00937
G1 X99.909 Y50.48 E2.87051
G1 X107.627 Y50.48 E.24202
G1 X107.909 Y50.199 E.01247
G1 X107.909 Y45.331 E.15264
G1 X111.491 Y45.331 E.11233
G1 X111.491 Y146.202 E3.16275
M204 P1000
G1 X110.949 Y146.089 F9000
M204 P600
G1 F1200
G1 X110.949 Y45.67 E3.14856
G1 X110.53 Y45.67 E.01314
G1 X110.53 Y145.919 E3.14324
G1 X110.111 Y145.919 E.01314
G1 X110.111 Y45.67 E3.14324
G1 X109.692 Y45.67 E.01314
G1 X109.692 Y145.919 E3.14324
G1 X109.273 Y145.919 E.01314
G1 X109.273 Y45.67 E3.14324
G1 X108.854 Y45.67 E.01314
G1 X108.854 Y145.919 E3.14324
G1 X108.435 Y145.919 E.01314
M73 P2 R83
G1 X108.435 Y45.67 E3.14324
G1 X108.248 Y45.67 E.00587
G1 X108.248 Y50.339 E.14641
G1 X108.016 Y50.571 E.01028
G1 X108.016 Y145.919 E2.98956
G1 X107.597 Y145.919 E.01314
M73 P2 R82
G1 X107.597 Y50.819 E2.98178
G1 X107.178 Y50.819 E.01314
G1 X107.178 Y145.919 E2.98178
G1 X106.759 Y145.919 E.01314
G1 X106.759 Y50.819 E2.98178
G1 X106.34 Y50.819 E.01314
G1 X106.34 Y145.919 E2.98178
G1 X105.921 Y145.919 E.01314
G1 X105.921 Y50.819 E2.98178
G1 X105.502 Y50.819 E.01314
G1 X105.502 Y145.919 E2.98178
G1 X105.083 Y145.919 E.01314
G1 X105.083 Y50.819 E2.98178
G1 X104.664 Y50.819 E.01314
G1 X104.664 Y145.919 E2.98178
G1 X104.245 Y145.919 E.01314
G1 X104.245 Y50.819 E2.98178
G1 X103.826 Y50.819 E.01314
M73 P3 R82
G1 X103.826 Y145.919 E2.98178
G1 X103.407 Y145.919 E.01314
G1 X103.407 Y50.819 E2.98178
G1 X102.988 Y50.819 E.01314
G1 X102.988 Y145.919 E2.98178
G1 X102.569 Y145.919 E.01314
M73 P3 R81
G1 X102.569 Y50.819 E2.98178
G1 X102.15 Y50.819 E.01314
G1 X102.15 Y145.919 E2.98178
G1 X101.731 Y145.919 E.01314
G1 X101.731 Y50.819 E2.98178
G1 X101.312 Y50.819 E.01314
G1 X101.312 Y145.919 E2.98178
G1 X100.893 Y145.919 E.01314
G1 X100.893 Y50.819 E2.98178
G1 X100.474 Y50.819 E.01314
G1 X100.474 Y145.919 E2.98178
G1 X100.055 Y145.919 E.01314
G1 X100.055 Y142.814 E.09736
G1 X99.866 Y143.116 E.01118
G1 X99.636 Y143.356 E.01041
G1 X99.636 Y145.919 E.08036
G1 X99.217 Y145.919 E.01314
G1 X99.217 Y143.64 E.07147
G1 X98.799 Y143.782 E.01387
G1 X98.799 Y145.919 E.06702
G1 X98.38 Y145.919 E.01314
G1 X98.38 Y143.819 E.06584
G1 X97.961 Y143.819 E.01314
G1 X97.961 Y145.919 E.06584
G1 X97.542 Y145.919 E.01314
G1 X97.542 Y143.819 E.06584
G1 X97.123 Y143.819 E.01314
G1 X97.123 Y145.919 E.06584
G1 X96.704 Y145.919 E.01314
G1 X96.704 Y143.819 E.06584
G1 X96.285 Y143.819 E.01314
G1 X96.285 Y145.919 E.06584
G1 X95.866 Y145.919 E.01314
G1 X95.866 Y143.819 E.06584
G1 X95.447 Y143.819 E.01314
G1 X95.447 Y145.919 E.06584
G1 X95.028 Y145.919 E.01314
G1 X95.028 Y143.819 E.06584
G1 X94.609 Y143.819 E.01314
G1 X94.609 Y146.089 E.07116
M204 P1000
G1 E-2.24 F4200
;WIPE_START
G1 F7200
G1 X94.609 Y144.443 E-.912
;WIPE_END
G1 E-.048 F4200
G1 Z.4 F720
G1 X99.182 Y49.221 F9000
G1 Z.2 F720
G1 E3.2 F2400
M204 P600
;TYPE:Perimeter
;WIDTH:0.419999
G1 F1200
G1 X99.109 Y49.221 E.00227
G1 X98.895 Y49.307 E.00724
G1 X98.712 Y49.504 E.00843
G1 X98.641 Y49.779 E.00888
G1 X98.634 Y141.96 E2.89028
G1 X98.551 Y142.154 E.0066
M73 P4 R81
G1 X98.384 Y142.213 E.00556
G1 X87.216 Y142.213 E.35019
G1 X87.216 Y37.787 E3.27419
G1 X106.641 Y37.787 E.60908
G1 X106.641 Y49.213 E.35825
G1 X99.242 Y49.22 E.23202
M204 P1000
G1 X99.207 Y49.59 F9000
M204 P600
;TYPE:External perimeter
G1 F1200
G1 X99.085 Y49.635 E.00408
G1 X99.019 Y49.779 E.00496
G1 X99.019 Y141.889 E2.88806
G1 X98.954 Y142.254 E.0116
G1 X98.793 Y142.456 E.00813
G1 X98.677 Y142.512 E.00404
G1 X98.406 Y142.59 E.00884
G1 X86.839 Y142.59 E.36267
G1 X86.839 Y37.41 E3.29784
G1 X107.019 Y37.41 E.63273
G1 X107.019 Y49.59 E.38189
G1 X99.267 Y49.59 E.24304
M204 P1000
G1 X99.092 Y49.53 F9000
G1 E-2.24 F4200
;WIPE_START
G1 F7200
G1 X99.085 Y49.635 E-.10393
G1 X99.019 Y49.779 E-.08772
G1 X99.019 Y51.078 E-.72035
;WIPE_END
G1 E-.048 F4200
G1 Z.4 F720
G1 X102.666 Y44.362 F9000
G1 Z.2 F720
G1 E3.2 F2400
M204 P600
;TYPE:Perimeter
G1 F1200
G1 X102.209 Y44.375 E.01434
G1 X101.647 Y44.254 E.01803
G1 X101.13 Y44.001 E.01803
G1 X100.689 Y43.632 E.01803
G1 X100.349 Y43.169 E.01803
G1 X100.13 Y42.637 E.01803
G1 X100.048 Y42.105 E.01686
G1 X100.096 Y41.506 E.01884
G1 X100.285 Y40.952 E.01836
G1 X100.598 Y40.47 E.01803
G1 X101.018 Y40.076 E.01803
G1 X101.519 Y39.795 E.01803
G1 X102.073 Y39.641 E.01803
G1 X102.648 Y39.625 E.01803
G1 X103.21 Y39.746 E.01803
G1 X103.727 Y39.999 E.01803
G1 X104.168 Y40.368 E.01803
G1 X104.508 Y40.831 E.01803
G1 X104.728 Y41.363 E.01803
G1 X104.809 Y41.895 E.01686
G1 X104.761 Y42.494 E.01884
G1 X104.572 Y43.048 E.01836
G1 X104.259 Y43.53 E.01803
G1 X103.839 Y43.924 E.01803
G1 X103.338 Y44.205 E.01803
G1 X102.784 Y44.359 E.01803
G1 X102.726 Y44.361 E.00181
M204 P1000
G1 X102.626 Y43.998 F9000
M204 P600
;TYPE:External perimeter
G1 F1200
G1 X102.164 Y43.993 E.01451
G1 X101.694 Y43.872 E.0152
G1 X101.268 Y43.641 E.0152
G1 X100.909 Y43.316 E.0152
G1 X100.638 Y42.914 E.0152
G1 X100.471 Y42.459 E.01519
G1 X100.423 Y42.06 E.01261
G1 X100.471 Y41.545 E.01622
G1 X100.659 Y41.046 E.01672
G1 X100.939 Y40.65 E.0152
G1 X101.305 Y40.333 E.0152
G1 X101.737 Y40.112 E.0152
G1 X102.209 Y40.002 E.0152
G1 X102.693 Y40.007 E.0152
G1 X103.163 Y40.128 E.0152
G1 X103.589 Y40.359 E.0152
G1 X103.948 Y40.684 E.0152
G1 X104.219 Y41.086 E.0152
G1 X104.386 Y41.541 E.0152
G1 X104.435 Y41.982 E.01392
G1 X104.375 Y42.503 E.01644
G1 X104.198 Y42.954 E.0152
G1 X103.918 Y43.35 E.0152
G1 X103.552 Y43.667 E.0152
G1 X103.12 Y43.888 E.0152
G1 X102.685 Y43.99 E.014
M204 P1000
G1 X102.465 Y44.364 F9000
G1 E-2.24 F4200
;WIPE_START
G1 F7200
G1 X102.164 Y43.993 E-.28914
G1 X101.694 Y43.872 E-.26858
G1 X101.268 Y43.641 E-.26857
G1 X101.153 Y43.538 E-.08572
;WIPE_END
G1 E-.048 F4200
G1 Z.4 F720
G1 X90.119 Y60.688 F9000
G1 Z.2 F720
G1 E3.2 F2400
M204 P600
;TYPE:Perimeter
G1 F1200
M73 P4 R80
G1 X90.519 Y60.461 E.01442
G1 X91.073 Y60.308 E.01803
G1 X91.648 Y60.291 E.01803
G1 X92.21 Y60.413 E.01803
G1 X92.727 Y60.665 E.01803
G1 X93.168 Y61.034 E.01803
G1 X93.508 Y61.498 E.01803
G1 X93.728 Y62.03 E.01803
G1 X93.809 Y62.561 E.01686
G1 X93.761 Y63.16 E.01884
G1 X93.572 Y63.714 E.01836
G1 X93.259 Y64.197 E.01803
G1 X92.839 Y64.59 E.01803
G1 X92.338 Y64.872 E.01803
G1 X91.784 Y65.026 E.01803
G1 X91.209 Y65.042 E.01803
G1 X90.683 Y64.929 E.01686
G1 X90.14 Y64.673 E.01884
G1 X89.689 Y64.299 E.01837
G1 X89.349 Y63.835 E.01803
G1 X89.13 Y63.304 E.01803
G1 X89.044 Y62.735 E.01803
G1 X89.097 Y62.162 E.01803
G1 X89.285 Y61.619 E.01803
G1 X89.577 Y61.167 E.01686
G1 X90.01 Y60.75 E.01884
G1 X90.067 Y60.718 E.00206
M204 P1000
G1 X90.325 Y60.99 F9000
M204 P600
;TYPE:External perimeter
G1 F1200
G1 X90.737 Y60.779 E.01452
G1 X91.209 Y60.668 E.0152
G1 X91.693 Y60.674 E.0152
G1 X92.163 Y60.795 E.0152
G1 X92.589 Y61.025 E.0152
G1 X92.948 Y61.351 E.0152
G1 X93.219 Y61.753 E.0152
G1 X93.386 Y62.208 E.0152
G1 X93.435 Y62.649 E.01392
G1 X93.375 Y63.17 E.01644
G1 X93.198 Y63.621 E.0152
G1 X92.918 Y64.017 E.0152
G1 X92.552 Y64.334 E.0152
G1 X92.12 Y64.554 E.0152
G1 X91.648 Y64.665 E.0152
G1 X91.164 Y64.66 E.0152
G1 X90.734 Y64.549 E.01392
G1 X90.268 Y64.308 E.01644
G1 X89.909 Y63.983 E.0152
G1 X89.638 Y63.581 E.0152
G1 X89.471 Y63.126 E.0152
G1 X89.418 Y62.689 E.01378
G1 X89.482 Y62.164 E.01661
G1 X89.659 Y61.712 E.0152
G1 X89.915 Y61.35 E.01392
G1 X90.277 Y61.025 E.01524
M204 P1000
G1 X90.298 Y60.59 F9000
G1 E-2.24 F4200
;WIPE_START
G1 F7200
G1 X90.737 Y60.779 E-.28917
G1 X91.209 Y60.668 E-.26858
G1 X91.693 Y60.674 E-.26858
G1 X91.843 Y60.713 E-.08567
;WIPE_END
G1 E-.048 F4200
G1 Z.4 F720
G1 X93.745 Y124.079 F9000
G1 Z.2 F720
G1 E3.2 F2400
M204 P600
;TYPE:Perimeter
G1 F1200
G1 X93.809 Y124.495 E.01318
G1 X93.761 Y125.094 E.01884
G1 X93.572 Y125.648 E.01836
G1 X93.259 Y126.13 E.01803
G1 X92.839 Y126.524 E.01803
G1 X92.338 Y126.805 E.01803
G1 X91.784 Y126.959 E.01803
G1 X91.209 Y126.975 E.01803
G1 X90.647 Y126.854 E.01803
G1 X90.13 Y126.601 E.01803
G1 X89.689 Y126.232 E.01803
G1 X89.349 Y125.769 E.01803
G1 X89.13 Y125.237 E.01803
G1 X89.044 Y124.668 E.01803
G1 X89.097 Y124.096 E.01803
G1 X89.285 Y123.552 E.01803
G1 X89.598 Y123.07 E.01803
G1 X90.018 Y122.676 E.01803
G1 X90.519 Y122.395 E.01803
G1 X91.073 Y122.241 E.01803
G1 X91.648 Y122.225 E.01803
G1 X92.21 Y122.346 E.01803
G1 X92.727 Y122.599 E.01803
G1 X93.168 Y122.968 E.01803
G1 X93.508 Y123.431 E.01803
G1 X93.736 Y124.02 E.01978
M204 P1000
G1 X93.388 Y124.163 F9000
M204 P600
;TYPE:External perimeter
G1 F1200
G1 X93.435 Y124.582 E.01324
G1 X93.375 Y125.103 E.01644
G1 X93.198 Y125.554 E.0152
G1 X92.918 Y125.95 E.0152
G1 X92.552 Y126.267 E.0152
G1 X92.12 Y126.488 E.0152
G1 X91.648 Y126.598 E.0152
G1 X91.164 Y126.593 E.0152
G1 X90.694 Y126.472 E.0152
G1 X90.268 Y126.241 E.01519
G1 X89.909 Y125.916 E.0152
G1 X89.638 Y125.514 E.0152
G1 X89.471 Y125.059 E.0152
G1 X89.418 Y124.623 E.01378
G1 X89.482 Y124.097 E.01661
G1 X89.659 Y123.646 E.0152
G1 X89.939 Y123.25 E.0152
G1 X90.305 Y122.933 E.0152
G1 X90.737 Y122.712 E.0152
G1 X91.209 Y122.602 E.0152
G1 X91.693 Y122.607 E.0152
G1 X92.163 Y122.728 E.0152
G1 X92.589 Y122.958 E.0152
G1 X92.948 Y123.284 E.0152
G1 X93.219 Y123.686 E.0152
G1 X93.373 Y124.105 E.014
M204 P1000
G1 X93.771 Y124.279 F9000
G1 E-2.24 F4200
;WIPE_START
G1 F7200
G1 X93.435 Y124.582 E-.26661
G1 X93.375 Y125.103 E-.29052
G1 X93.198 Y125.554 E-.26868
G1 X93.108 Y125.681 E-.08619
;WIPE_END
G1 E-.048 F4200
G1 Z.4 F720
G1 X105.709 Y37.957 F9000
G1 Z.2 F720
G1 E3.2 F2400
M204 P600
;TYPE:Solid infill
;WIDTH:0.420191
G1 F1200
G1 X106.302 Y38.55 E.02631
G1 X106.302 Y39.083 E.01674
G1 X105.345 Y38.126 E.04245
G1 X104.812 Y38.126 E.01674
G1 X106.302 Y39.617 E.06612
G1 X106.302 Y40.15 E.01674
G1 X104.278 Y38.126 E.08979
G1 X103.745 Y38.126 E.01674
G1 X106.302 Y40.684 E.11346
G1 X106.302 Y41.217 E.01674
G1 X103.211 Y38.126 E.13713
G1 X102.678 Y38.126 E.01674
G1 X106.302 Y41.751 E.1608
G1 X106.302 Y42.285 E.01674
G1 X104.913 Y40.896 E.06162
G1 X104.793 Y40.646 E.00869
G1 X104.533 Y40.27 E.01435
G1 X104.404 Y40.123 E.00612
G1 X104.057 Y39.816 E.01452
G1 X103.893 Y39.703 E.00628
G1 X103.529 Y39.512 E.01288
G1 X102.144 Y38.126 E.06146
G1 X101.61 Y38.126 E.01674
G1 X102.785 Y39.301 E.05209
G1 X102.236 Y39.285 E.01723
G1 X101.077 Y38.126 E.05141
G1 X100.543 Y38.126 E.01674
G1 X101.781 Y39.364 E.05492
G1 X101.557 Y39.419 E.00724
G1 X101.372 Y39.489 E.0062
G1 X100.01 Y38.126 E.06044
G1 X99.476 Y38.126 E.01674
G1 X101.022 Y39.672 E.06858
G1 X100.711 Y39.895 E.012
G1 X98.943 Y38.126 E.07845
G1 X98.409 Y38.126 E.01674
G1 X100.431 Y40.149 E.08971
G1 X100.2 Y40.45 E.01194
