; generated by PrusaSlicer 2.5.2+linux-x64-GTK3 on 2023-05-14 at 19:07:35 UTC


;
;

;
;
; 

; external perimeters extrusion width = 0.45mm
; perimeters extrusion width = 0.45mm
; infill extrusion width = 0.45mm
; solid infill extrusion width = 0.45mm
; top infill extrusion width = 0.40mm
; support material extrusion width = 0.35mm
; first layer extrusion width = 0.42mm

; external perimeters extrusion width = 0.45mm
; perimeters extrusion width = 0.45mm
; infill extrusion width = 0.45mm
; solid infill extrusion width = 0.45mm
; top infill extrusion width = 0.40mm
; support material extrusion width = 0.35mm
; first layer extrusion width = 0.42mm

M73 P0 R99
M201 X2500 Y2500 Z400 E5000 ; sets maximum accelerations, mm/sec^2
M203 X180 Y180 Z12 E80 ; sets maximum feedrates, mm / sec
M204 P1250 R1250 T2500 ; sets acceleration (P, T) and retract acceleration (R), mm/sec^2
M205 X8.00 Y8.00 Z2.00 E10.00 ; sets the jerk limits, mm/sec
M205 S0 T0 ; sets the minimum extruding and travel feed rate, mm/sec
M107
;TYPE:Custom
M862.3 P "MINI" ; printer model check
G90 ; use absolute coordinates
M83 ; extruder relative mode
M104 S170 ; set extruder temp for bed leveling
M140 S60 ; set bed temp
M109 R170 ; wait for bed leveling temp
M190 S60 ; wait for bed temp
M204 T1250 ; set travel acceleration
G28 ; home all without mesh bed level
G29 ; mesh bed leveling 
M204 T2500 ; restore travel acceleration
M104 S215 ; set extruder temp
G92 E0
G1 Y-2 X179 F2400
G1 Z3 F720
M109 S215 ; wait for extruder temp

; intro line
G1 X170 F1000
G1 Z0.2 F720
G1 X110 E8 F900
G1 X40 E10 F700
G92 E0

M221 S95 ; set flow
G21 ; set units to millimeters
G90 ; use absolute coordinates
M83 ; use relative distances for extrusion
M900 K0.2 ; Filament gcode LA 1.5
; ; Filament gcode LA 1.0
M107
;LAYER_CHANGE
;Z:0.2
;HEIGHT:0.2
;BEFORE_LAYER_CHANGE
G92 E0.0
;0.2


G1 E-3.2 F4200
G1 Z.2 F720
;AFTER_LAYER_CHANGE
;0.2
G1 Z.4
G1 X83.687 Y38.049 F9000
G1 Z.2 F720
G1 E3.2 F2400
M204 P800
;TYPE:Skirt/Brim
;WIDTH:0.42
G1 F1200
G1 X84.342 Y36.852 E.04278
G1 X86.013 Y36.166 E.05662
G1 X107.013 Y36.166 E.65844
G1 X108.32 Y36.558 E.04278
G1 X109.302 Y37.904 E.05227
G1 X113.149 Y51.688 E.4487
G1 X113.236 Y52.327 E.02022
G1 X113.236 Y146.302 E2.9465
G1 X112.845 Y147.609 E.04278
G1 X111.799 Y148.485 E.04278
G1 X110.859 Y148.679 E.03008
G1 X67.877 Y148.679 E1.34769
G1 X66.569 Y148.287 E.04278
G1 X65.693 Y147.241 E.04278
G1 X65.499 Y146.302 E.03008
G1 X65.53 Y133.072 E.4148
G1 X71.948 Y93.294 E1.26333
G1 X83.675 Y38.108 E1.76897
M204 P1000
; printing object grinder_catchment_rail_V2.stl id:0 copy 0
G1 E-2.24 F4200
;WIPE_START
G1 F7200
G1 X84.342 Y36.852 E-.78803
G1 X84.549 Y36.767 E-.12397
;WIPE_END
G1 E-.048 F4200
G1 Z.4 F720
G1 X110.859 Y146.302 F9000
G1 Z.2 F720
G1 E3.2 F2400
M204 P800
;TYPE:Support material
G1 F1200
G1 X67.877 Y146.302 E1.34769
G1 X67.877 Y133.45 E.40294
M73 P0 R98
G1 X85.533 Y133.45 E.55359
G1 X85.533 Y141.742 E.25997
G1 X85.814 Y142.023 E.01247
G1 X98.053 Y142.022 E.38375
G1 X98.371 Y141.979 E.01005
G1 X98.65 Y141.879 E.00929
G1 X98.9 Y141.726 E.00921
G1 X99.162 Y141.475 E.01137
G1 X99.351 Y141.174 E.01116
G1 X99.459 Y140.859 E.01044
G1 X99.493 Y140.557 E.00953
G1 X99.493 Y56.023 E2.65049
G1 X107.211 Y56.023 E.24202
G1 X107.493 Y55.742 E.01247
G1 X107.493 Y52.327 E.10707
G1 X110.859 Y52.327 E.10555
G1 X110.859 Y146.245 E2.94473
M204 P1000
G1 X110.317 Y146.132 F9000
M204 P800
G1 F1200
G1 X110.317 Y52.666 E2.93054
G1 X109.898 Y52.666 E.01314
G1 X109.898 Y145.962 E2.92522
G1 X109.479 Y145.962 E.01314
G1 X109.479 Y52.666 E2.92522
G1 X109.06 Y52.666 E.01314
M73 P1 R98
G1 X109.06 Y145.962 E2.92522
G1 X108.641 Y145.962 E.01314
G1 X108.641 Y52.666 E2.92522
G1 X108.222 Y52.666 E.01314
G1 X108.222 Y145.962 E2.92522
G1 X107.803 Y145.962 E.01314
G1 X107.803 Y55.912 E2.82347
G1 X107.384 Y56.331 E.01858
G1 X107.384 Y145.962 E2.81033
G1 X106.965 Y145.962 E.01314
G1 X106.965 Y56.362 E2.80934
G1 X106.546 Y56.362 E.01314
G1 X106.546 Y145.962 E2.80934
G1 X106.127 Y145.962 E.01314
G1 X106.127 Y56.362 E2.80934
G1 X105.708 Y56.362 E.01314
M73 P1 R97
G1 X105.708 Y145.962 E2.80934
G1 X105.289 Y145.962 E.01314
G1 X105.289 Y56.362 E2.80934
G1 X104.87 Y56.362 E.01314
G1 X104.87 Y145.962 E2.80934
G1 X104.451 Y145.962 E.01314
G1 X104.451 Y56.362 E2.80934
G1 X104.032 Y56.362 E.01314
G1 X104.032 Y145.962 E2.80934
G1 X103.613 Y145.962 E.01314
M73 P2 R97
G1 X103.613 Y56.362 E2.80934
G1 X103.194 Y56.362 E.01314
G1 X103.194 Y145.962 E2.80934
G1 X102.775 Y145.962 E.01314
G1 X102.775 Y56.362 E2.80934
G1 X102.356 Y56.362 E.01314
G1 X102.356 Y145.962 E2.80934
G1 X101.937 Y145.962 E.01314
G1 X101.937 Y56.362 E2.80934
G1 X101.518 Y56.362 E.01314
G1 X101.518 Y145.962 E2.80934
G1 X101.099 Y145.962 E.01314
G1 X101.099 Y56.362 E2.80934
G1 X100.68 Y56.362 E.01314
G1 X100.68 Y145.962 E2.80934
G1 X100.261 Y145.962 E.01314
M73 P2 R96
G1 X100.261 Y56.362 E2.80934
G1 X99.842 Y56.362 E.01314
G1 X99.842 Y145.962 E2.80934
G1 X99.423 Y145.962 E.01314
G1 X99.423 Y141.692 E.13388
G1 X99.197 Y141.922 E.01011
G1 X99.004 Y142.061 E.00746
G1 X99.004 Y145.962 E.12231
G1 X98.585 Y145.962 E.01314
G1 X98.585 Y142.264 E.11597
G1 X98.385 Y142.325 E.00658
G1 X98.166 Y142.35 E.00689
G1 X98.166 Y145.962 E.11325
G1 X97.747 Y145.962 E.01314
G1 X97.747 Y142.362 E.11287
G1 X97.328 Y142.362 E.01314
G1 X97.328 Y145.962 E.11287
G1 X96.909 Y145.962 E.01314
G1 X96.909 Y142.362 E.11287
G1 X96.49 Y142.362 E.01314
G1 X96.49 Y145.962 E.11287
G1 X96.071 Y145.962 E.01314
G1 X96.071 Y142.362 E.11287
G1 X95.652 Y142.362 E.01314
G1 X95.652 Y145.962 E.11287
G1 X95.233 Y145.962 E.01314
G1 X95.233 Y142.362 E.11287
G1 X94.815 Y142.362 E.01314
G1 X94.815 Y145.962 E.11287
G1 X94.396 Y145.962 E.01314
G1 X94.396 Y142.362 E.11287
G1 X93.977 Y142.362 E.01314
G1 X93.977 Y145.962 E.11287
G1 X93.558 Y145.962 E.01314
G1 X93.558 Y142.362 E.11287
G1 X93.139 Y142.362 E.01314
G1 X93.139 Y145.962 E.11287
G1 X92.72 Y145.962 E.01314
G1 X92.72 Y142.362 E.11287
G1 X92.301 Y142.362 E.01314
G1 X92.301 Y145.962 E.11287
G1 X91.882 Y145.962 E.01314
G1 X91.882 Y142.362 E.11287
G1 X91.463 Y142.362 E.01314
G1 X91.463 Y145.962 E.11287
G1 X91.044 Y145.962 E.01314
G1 X91.044 Y142.362 E.11287
G1 X90.625 Y142.362 E.01314
G1 X90.625 Y145.962 E.11287
G1 X90.206 Y145.962 E.01314
G1 X90.206 Y142.362 E.11287
G1 X89.787 Y142.362 E.01314
G1 X89.787 Y145.962 E.11287
G1 X89.368 Y145.962 E.01314
G1 X89.368 Y142.362 E.11287
G1 X88.949 Y142.362 E.01314
G1 X88.949 Y145.962 E.11287
G1 X88.53 Y145.962 E.01314
G1 X88.53 Y142.362 E.11287
G1 X88.111 Y142.362 E.01314
G1 X88.111 Y145.962 E.11287
G1 X87.692 Y145.962 E.01314
G1 X87.692 Y142.362 E.11287
G1 X87.273 Y142.362 E.01314
G1 X87.273 Y145.962 E.11287
G1 X86.854 Y145.962 E.01314
G1 X86.854 Y142.362 E.11287
G1 X86.435 Y142.362 E.01314
G1 X86.435 Y145.962 E.11287
G1 X86.016 Y145.962 E.01314
G1 X86.016 Y142.362 E.11287
G1 X85.673 Y142.362 E.01075
G1 X85.597 Y142.286 E.00338
G1 X85.597 Y145.962 E.11526
G1 X85.178 Y145.962 E.01314
G1 X85.178 Y133.79 E.38165
G1 X84.759 Y133.79 E.01314
G1 X84.759 Y145.962 E.38165
G1 X84.34 Y145.962 E.01314
G1 X84.34 Y133.79 E.38165
G1 X83.921 Y133.79 E.01314
G1 X83.921 Y145.962 E.38165
G1 X83.502 Y145.962 E.01314
G1 X83.502 Y133.79 E.38165
G1 X83.083 Y133.79 E.01314
G1 X83.083 Y145.962 E.38165
G1 X82.664 Y145.962 E.01314
G1 X82.664 Y133.79 E.38165
G1 X82.245 Y133.79 E.01314
G1 X82.245 Y145.962 E.38165
G1 X81.826 Y145.962 E.01314
G1 X81.826 Y133.79 E.38165
G1 X81.407 Y133.79 E.01314
G1 X81.407 Y145.962 E.38165
G1 X80.988 Y145.962 E.01314
M73 P3 R96
G1 X80.988 Y133.79 E.38165
G1 X80.569 Y133.79 E.01314
G1 X80.569 Y145.962 E.38165
G1 X80.15 Y145.962 E.01314
G1 X80.15 Y133.79 E.38165
G1 X79.731 Y133.79 E.01314
G1 X79.731 Y145.962 E.38165
G1 X79.312 Y145.962 E.01314
G1 X79.312 Y133.79 E.38165
G1 X78.893 Y133.79 E.01314
G1 X78.893 Y145.962 E.38165
G1 X78.474 Y145.962 E.01314
G1 X78.474 Y133.79 E.38165
G1 X78.055 Y133.79 E.01314
G1 X78.055 Y145.962 E.38165
G1 X77.636 Y145.962 E.01314
G1 X77.636 Y133.79 E.38165
G1 X77.217 Y133.79 E.01314
G1 X77.217 Y145.962 E.38165
G1 X76.798 Y145.962 E.01314
G1 X76.798 Y133.79 E.38165
G1 X76.38 Y133.79 E.01314
G1 X76.38 Y145.962 E.38165
G1 X75.961 Y145.962 E.01314
G1 X75.961 Y133.79 E.38165
G1 X75.542 Y133.79 E.01314
G1 X75.542 Y145.962 E.38165
G1 X75.123 Y145.962 E.01314
G1 X75.123 Y133.79 E.38165
G1 X74.704 Y133.79 E.01314
G1 X74.704 Y145.962 E.38165
G1 X74.285 Y145.962 E.01314
G1 X74.285 Y133.79 E.38165
G1 X73.866 Y133.79 E.01314
G1 X73.866 Y145.962 E.38165
G1 X73.447 Y145.962 E.01314
G1 X73.447 Y133.79 E.38165
G1 X73.028 Y133.79 E.01314
G1 X73.028 Y145.962 E.38165
G1 X72.609 Y145.962 E.01314
G1 X72.609 Y133.79 E.38165
G1 X72.19 Y133.79 E.01314
G1 X72.19 Y145.962 E.38165
G1 X71.771 Y145.962 E.01314
G1 X71.771 Y133.79 E.38165
G1 X71.352 Y133.79 E.01314
G1 X71.352 Y145.962 E.38165
G1 X70.933 Y145.962 E.01314
G1 X70.933 Y133.79 E.38165
G1 X70.514 Y133.79 E.01314
G1 X70.514 Y145.962 E.38165
G1 X70.095 Y145.962 E.01314
G1 X70.095 Y133.79 E.38165
G1 X69.676 Y133.79 E.01314
G1 X69.676 Y145.962 E.38165
G1 X69.257 Y145.962 E.01314
G1 X69.257 Y133.79 E.38165
G1 X68.838 Y133.79 E.01314
G1 X68.838 Y145.962 E.38165
G1 X68.419 Y145.962 E.01314
G1 X68.419 Y133.62 E.38697
M204 P1000
G1 E-2.24 F4200
;WIPE_START
G1 F7200
G1 X68.419 Y135.266 E-.912
;WIPE_END
G1 E-.048 F4200
G1 Z.4 F720
G1 X98.693 Y54.777 F9000
G1 Z.2 F720
G1 E3.2 F2400
M204 P800
;TYPE:Perimeter
;WIDTH:0.419999
G1 F1200
G1 X98.487 Y54.844 E.0068
G1 X98.292 Y55.056 E.00902
G1 X98.226 Y55.322 E.0086
G1 X98.218 Y140.503 E2.6708
G1 X98.135 Y140.697 E.00661
G1 X97.968 Y140.756 E.00556
G1 X86.8 Y140.756 E.35018
G1 X86.8 Y39.33 E3.18013
G1 X106.226 Y39.33 E.60908
G1 X106.226 Y54.756 E.48367
G1 X98.75 Y54.759 E.23437
M204 P1000
G1 X98.791 Y55.133 F9000
M204 P800
;TYPE:External perimeter
G1 F1200
G1 X98.663 Y55.183 E.00431
G1 X98.603 Y55.322 E.00474
G1 X98.603 Y140.432 E2.66858
G1 X98.538 Y140.797 E.0116
M73 P3 R95
G1 X98.377 Y140.999 E.00813
G1 X98.26 Y141.055 E.00405
G1 X97.99 Y141.133 E.00883
G1 X86.423 Y141.133 E.36267
G1 X86.423 Y38.953 E3.20378
G1 X106.603 Y38.953 E.63273
G1 X106.603 Y55.133 E.50731
G1 X98.851 Y55.133 E.24304
M204 P1000
G1 X98.666 Y55.076 F9000
G1 E-2.24 F4200
;WIPE_START
G1 F7200
G1 X98.663 Y55.183 E-.10785
G1 X98.603 Y55.322 E-.0837
G1 X98.603 Y56.622 E-.72045
;WIPE_END
G1 E-.048 F4200
G1 Z.4 F720
G1 X102.348 Y41.193 F9000
G1 Z.2 F720
G1 E3.2 F2400
M204 P800
;TYPE:Perimeter
G1 F1200
G1 X102.794 Y41.289 E.01434
G1 X103.311 Y41.542 E.01803
G1 X103.752 Y41.911 E.01803
G1 X104.092 Y42.375 E.01803
G1 X104.312 Y42.906 E.01803
G1 X104.393 Y43.438 E.01686
G1 X104.345 Y44.037 E.01884
G1 X104.156 Y44.591 E.01836
G1 X103.843 Y45.073 E.01803
G1 X103.423 Y45.467 E.01803
G1 X102.922 Y45.749 E.01803
G1 X102.368 Y45.902 E.01803
G1 X101.807 Y45.918 E.0176
G1 X101.231 Y45.797 E.01846
G1 X100.714 Y45.544 E.01803
G1 X100.273 Y45.175 E.01803
G1 X99.933 Y44.712 E.01803
G1 X99.714 Y44.18 E.01803
G1 X99.633 Y43.648 E.01686
G1 X99.68 Y43.049 E.01884
G1 X99.869 Y42.495 E.01836
G1 X100.183 Y42.013 E.01803
G1 X100.602 Y41.619 E.01803
G1 X101.103 Y41.338 E.01803
G1 X101.658 Y41.184 E.01803
G1 X102.232 Y41.168 E.01803
G1 X102.289 Y41.18 E.00181
M204 P1000
G1 X102.299 Y41.556 F9000
M204 P800
;TYPE:External perimeter
G1 F1200
G1 X102.747 Y41.671 E.01451
G1 X103.173 Y41.902 E.0152
G1 X103.532 Y42.227 E.0152
G1 X103.803 Y42.629 E.0152
G1 X103.97 Y43.084 E.0152
G1 X104.019 Y43.525 E.01392
G1 X103.959 Y44.046 E.01644
G1 X103.782 Y44.497 E.0152
G1 X103.502 Y44.893 E.0152
G1 X103.136 Y45.21 E.0152
G1 X102.704 Y45.431 E.0152
G1 X102.232 Y45.541 E.0152
G1 X101.748 Y45.536 E.0152
G1 X101.197 Y45.372 E.01802
G1 X100.852 Y45.185 E.01231
G1 X100.493 Y44.859 E.0152
G1 X100.222 Y44.457 E.0152
G1 X100.055 Y44.002 E.01519
G1 X100.007 Y43.603 E.01261
G1 X100.055 Y43.088 E.01622
G1 X100.243 Y42.589 E.01672
G1 X100.523 Y42.193 E.0152
G1 X100.889 Y41.876 E.0152
G1 X101.321 Y41.655 E.0152
G1 X101.793 Y41.545 E.0152
G1 X102.239 Y41.55 E.014
M204 P1000
G1 X102.543 Y41.239 F9000
G1 E-2.24 F4200
;WIPE_START
G1 F7200
G1 X102.747 Y41.671 E-.28915
G1 X103.173 Y41.902 E-.26859
G1 X103.532 Y42.227 E-.26857
G1 X103.619 Y42.355 E-.0857
;WIPE_END
G1 E-.048 F4200
G1 Z.4 F720
G1 X88.683 Y64.641 F9000
G1 Z.2 F720
G1 E3.2 F2400
M204 P800
;TYPE:Perimeter
G1 F1200
G1 X88.628 Y64.278 E.0115
G1 X88.681 Y63.705 E.01803
G1 X88.869 Y63.162 E.01803
G1 X89.161 Y62.71 E.01686
G1 X89.594 Y62.293 E.01884
G1 X90.103 Y62.004 E.01836
G1 X90.657 Y61.851 E.01803
G1 X91.232 Y61.834 E.01803
G1 X91.794 Y61.956 E.01803
G1 X92.311 Y62.209 E.01803
G1 X92.752 Y62.577 E.01803
G1 X93.092 Y63.041 E.01803
G1 X93.312 Y63.573 E.01803
G1 X93.393 Y64.104 E.01686
G1 X93.345 Y64.703 E.01884
G1 X93.156 Y65.258 E.01836
G1 X92.843 Y65.74 E.01803
G1 X92.423 Y66.133 E.01803
G1 X91.922 Y66.415 E.01803
G1 X91.368 Y66.569 E.01803
G1 X90.793 Y66.585 E.01803
G1 X90.267 Y66.472 E.01686
G1 X89.724 Y66.216 E.01884
G1 X89.244 Y65.804 E.01982
G1 X88.933 Y65.378 E.01653
G1 X88.714 Y64.847 E.01803
G1 X88.692 Y64.7 E.00465
M204 P1000
G1 X89.005 Y64.213 F9000
M204 P800
;TYPE:External perimeter
G1 F1200
G1 X89.066 Y63.707 E.016
G1 X89.243 Y63.255 E.0152
G1 X89.499 Y62.893 E.01392
G1 X89.889 Y62.542 E.01644
G1 X90.321 Y62.322 E.0152
G1 X90.793 Y62.211 E.0152
G1 X91.277 Y62.217 E.0152
G1 X91.747 Y62.338 E.0152
G1 X92.173 Y62.568 E.0152
G1 X92.532 Y62.894 E.0152
G1 X92.803 Y63.296 E.0152
G1 X92.97 Y63.751 E.0152
G1 X93.019 Y64.192 E.01392
G1 X92.959 Y64.713 E.01644
G1 X92.782 Y65.164 E.0152
G1 X92.502 Y65.56 E.0152
G1 X92.136 Y65.877 E.0152
G1 X91.704 Y66.097 E.0152
G1 X91.232 Y66.208 E.0152
G1 X90.748 Y66.203 E.0152
G1 X90.318 Y66.092 E.01392
G1 X89.849 Y65.849 E.01655
G1 X89.472 Y65.495 E.01623
G1 X89.222 Y65.124 E.01403
G1 X89.055 Y64.669 E.0152
G1 X89.007 Y64.273 E.01251
M204 P1000
G1 X88.659 Y64.012 F9000
G1 E-2.24 F4200
;WIPE_START
G1 F7200
G1 X89.066 Y63.707 E-.31545
G1 X89.243 Y63.255 E-.26857
G1 X89.499 Y62.893 E-.24596
G1 X89.609 Y62.794 E-.08201
;WIPE_END
G1 E-.048 F4200
G1 Z.4 F720
G1 X88.719 Y125.528 F9000
G1 Z.2 F720
G1 E3.2 F2400
M204 P800
;TYPE:Perimeter
G1 F1200
G1 X88.869 Y125.095 E.01436
G1 X89.183 Y124.613 E.01803
G1 X89.602 Y124.219 E.01803
G1 X90.103 Y123.938 E.01803
G1 X90.658 Y123.784 E.01803
G1 X91.232 Y123.768 E.01803
G1 X91.794 Y123.889 E.01803
G1 X92.311 Y124.142 E.01803
G1 X92.752 Y124.511 E.01803
G1 X93.092 Y124.975 E.01803
G1 X93.312 Y125.506 E.01803
G1 X93.393 Y126.038 E.01686
G1 X93.345 Y126.637 E.01884
G1 X93.156 Y127.191 E.01836
G1 X92.843 Y127.673 E.01803
G1 X92.423 Y128.067 E.01803
G1 X91.922 Y128.349 E.01803
G1 X91.368 Y128.502 E.01803
G1 X90.793 Y128.518 E.01803
G1 X90.231 Y128.397 E.01803
G1 X89.714 Y128.144 E.01803
G1 X89.273 Y127.775 E.01803
G1 X88.933 Y127.312 E.01803
G1 X88.714 Y126.78 E.01803
G1 X88.628 Y126.211 E.01803
G1 X88.7 Y125.585 E.01977
M204 P1000
G1 X89.074 Y125.62 F9000
M204 P800
;TYPE:External perimeter
G1 F1200
G1 X89.243 Y125.189 E.01451
G1 X89.523 Y124.793 E.0152
G1 X89.889 Y124.476 E.0152
G1 X90.321 Y124.255 E.0152
G1 X90.793 Y124.145 E.0152
G1 X91.277 Y124.15 E.0152
G1 X91.747 Y124.271 E.0152
G1 X92.173 Y124.502 E.0152
G1 X92.532 Y124.827 E.0152
G1 X92.803 Y125.229 E.0152
G1 X92.97 Y125.684 E.0152
G1 X93.019 Y126.125 E.01392
G1 X92.959 Y126.646 E.01644
G1 X92.782 Y127.097 E.0152
G1 X92.502 Y127.493 E.0152
G1 X92.136 Y127.81 E.0152
G1 X91.704 Y128.031 E.0152
G1 X91.232 Y128.141 E.0152
G1 X90.748 Y128.136 E.0152
G1 X90.279 Y128.015 E.0152
G1 X89.852 Y127.785 E.01519
G1 X89.493 Y127.459 E.0152
G1 X89.222 Y127.057 E.0152
G1 X89.055 Y126.602 E.0152
G1 X89.002 Y126.166 E.01378
G1 X89.062 Y125.678 E.01541
M204 P1000
G1 X88.79 Y125.339 F9000
G1 E-2.24 F4200
;WIPE_START
G1 F7200
G1 X89.243 Y125.189 E-.28912
G1 X89.523 Y124.793 E-.26858
G1 X89.889 Y124.476 E-.26858
G1 X90.027 Y124.405 E-.08572
;WIPE_END
G1 E-.048 F4200
G1 Z.4 F720
G1 X105.347 Y39.443 F9000
G1 Z.2 F720
G1 E3.2 F2400
M204 P800
;TYPE:Solid infill
;WIDTH:0.421535
G1 F1200
G1 X105.943 Y40.039 E.02653
G1 X105.943 Y40.575 E.01686
G1 X104.981 Y39.613 E.04281
G1 X104.446 Y39.613 E.01686
G1 X105.943 Y41.11 E.06665
