; generated by PrusaSlicer 2.5.2+linux-x64-GTK3 on 2023-05-14 at 19:08:49 UTC


;
;

;
;
; 

; external perimeters extrusion width = 0.45mm
; perimeters extrusion width = 0.45mm
; infill extrusion width = 0.45mm
; solid infill extrusion width = 0.45mm
; top infill extrusion width = 0.40mm
; support material extrusion width = 0.35mm
; first layer extrusion width = 0.42mm

; external perimeters extrusion width = 0.45mm
; perimeters extrusion width = 0.45mm
; infill extrusion width = 0.45mm
; solid infill extrusion width = 0.45mm
; top infill extrusion width = 0.40mm
; support material extrusion width = 0.35mm
; first layer extrusion width = 0.42mm

M73 P0 R100
M201 X2500 Y2500 Z400 E5000 ; sets maximum accelerations, mm/sec^2
M203 X180 Y180 Z12 E80 ; sets maximum feedrates, mm / sec
M204 P1250 R1250 T2500 ; sets acceleration (P, T) and retract acceleration (R), mm/sec^2
M205 X8.00 Y8.00 Z2.00 E10.00 ; sets the jerk limits, mm/sec
M205 S0 T0 ; sets the minimum extruding and travel feed rate, mm/sec
M107
;TYPE:Custom
M862.3 P "MINI" ; printer model check
G90 ; use absolute coordinates
M83 ; extruder relative mode
M104 S170 ; set extruder temp for bed leveling
M140 S60 ; set bed temp
M109 R170 ; wait for bed leveling temp
M190 S60 ; wait for bed temp
M204 T1250 ; set travel acceleration
G28 ; home all without mesh bed level
G29 ; mesh bed leveling 
M204 T2500 ; restore travel acceleration
M104 S215 ; set extruder temp
G92 E0
G1 Y-2 X179 F2400
G1 Z3 F720
M109 S215 ; wait for extruder temp

; intro line
M73 P0 R99
G1 X170 F1000
G1 Z0.2 F720
G1 X110 E8 F900
G1 X40 E10 F700
G92 E0

M221 S95 ; set flow
G21 ; set units to millimeters
G90 ; use absolute coordinates
M83 ; use relative distances for extrusion
M900 K0.2 ; Filament gcode LA 1.5
; ; Filament gcode LA 1.0
M107
;LAYER_CHANGE
;Z:0.2
;HEIGHT:0.2
;BEFORE_LAYER_CHANGE
G92 E0.0
;0.2


G1 E-3.2 F4200
G1 Z.2 F720
;AFTER_LAYER_CHANGE
;0.2
G1 Z.4
G1 X89.49 Y37.436 F9000
G1 Z.2 F720
G1 E3.2 F2400
M204 P800
;TYPE:Skirt/Brim
;WIDTH:0.42
G1 F1200
G1 X90.219 Y36.283 E.04278
G1 X91.78 Y35.698 E.05227
G1 X112.78 Y35.698 E.65844
G1 X114.087 Y36.09 E.04278
G1 X115.094 Y37.53 E.05511
G1 X127.5 Y90.287 E1.69925
G1 X133.271 Y132.662 E1.34091
G1 X133.293 Y145.834 E.41299
G1 X132.901 Y147.141 E.04278
G1 X131.856 Y148.017 E.04278
G1 X130.916 Y148.211 E.03008
G1 X87.933 Y148.211 E1.34769
G1 X86.626 Y147.819 E.04278
G1 X85.75 Y146.773 E.04278
G1 X85.556 Y145.834 E.03008
G1 X85.556 Y51.859 E2.9465
G1 X85.644 Y51.22 E.02022
G1 X89.474 Y37.494 E.44682
M204 P1000
; printing object grinder_catchment_rail_V2.stl id:0 copy 0
G1 E-2.24 F4200
;WIPE_START
G1 F7200
G1 X90.219 Y36.283 E-.78803
G1 X90.428 Y36.204 E-.12397
;WIPE_END
G1 E-.048 F4200
G1 Z.4 F720
G1 X91.3 Y55.274 F9000
G1 Z.2 F720
G1 E3.2 F2400
M204 P800
;TYPE:Support material
G1 F1200
G1 X91.581 Y55.555 E.01247
G1 X99.3 Y55.555 E.24202
G1 X99.3 Y140.089 E2.65051
G1 X99.337 Y140.408 E.01005
G1 X99.441 Y140.706 E.0099
G1 X99.63 Y141.008 E.01116
G1 X99.892 Y141.258 E.01137
G1 X100.143 Y141.411 E.00921
G1 X100.422 Y141.511 E.00929
G1 X100.739 Y141.554 E.01005
G1 X112.979 Y141.555 E.38375
G1 X113.26 Y141.274 E.01247
G1 X113.26 Y132.983 E.25997
G1 X130.916 Y132.983 E.5536
G1 X130.916 Y145.834 E.40294
G1 X87.933 Y145.834 E1.34769
G1 X87.933 Y51.859 E2.9465
G1 X91.3 Y51.859 E.10555
G1 X91.3 Y55.217 E.10529
M204 P1000
G1 E-2.24 F4200
;WIPE_START
G1 F7200
G1 X91.3 Y53.572 E-.912
;WIPE_END
G1 E-.048 F4200
G1 Z.4 F720
G1 X130.373 Y145.664 F9000
G1 Z.2 F720
G1 E3.2 F2400
M204 P800
G1 F1200
G1 X130.373 Y133.322 E.38697
G1 X129.954 Y133.322 E.01314
G1 X129.954 Y145.494 E.38165
G1 X129.535 Y145.494 E.01314
G1 X129.535 Y133.322 E.38165
G1 X129.116 Y133.322 E.01314
G1 X129.116 Y145.494 E.38165
G1 X128.697 Y145.494 E.01314
G1 X128.697 Y133.322 E.38165
G1 X128.278 Y133.322 E.01314
G1 X128.278 Y145.494 E.38165
G1 X127.859 Y145.494 E.01314
G1 X127.859 Y133.322 E.38165
G1 X127.441 Y133.322 E.01314
G1 X127.441 Y145.494 E.38165
G1 X127.022 Y145.494 E.01314
G1 X127.022 Y133.322 E.38165
G1 X126.603 Y133.322 E.01314
G1 X126.603 Y145.494 E.38165
G1 X126.184 Y145.494 E.01314
G1 X126.184 Y133.322 E.38165
G1 X125.765 Y133.322 E.01314
G1 X125.765 Y145.494 E.38165
G1 X125.346 Y145.494 E.01314
G1 X125.346 Y133.322 E.38165
G1 X124.927 Y133.322 E.01314
G1 X124.927 Y145.494 E.38165
G1 X124.508 Y145.494 E.01314
G1 X124.508 Y133.322 E.38165
G1 X124.089 Y133.322 E.01314
G1 X124.089 Y145.494 E.38165
G1 X123.67 Y145.494 E.01314
G1 X123.67 Y133.322 E.38165
G1 X123.251 Y133.322 E.01314
G1 X123.251 Y145.494 E.38165
G1 X122.832 Y145.494 E.01314
G1 X122.832 Y133.322 E.38165
G1 X122.413 Y133.322 E.01314
G1 X122.413 Y145.494 E.38165
G1 X121.994 Y145.494 E.01314
M73 P1 R99
G1 X121.994 Y133.322 E.38165
G1 X121.575 Y133.322 E.01314
G1 X121.575 Y145.494 E.38165
G1 X121.156 Y145.494 E.01314
G1 X121.156 Y133.322 E.38165
G1 X120.737 Y133.322 E.01314
G1 X120.737 Y145.494 E.38165
G1 X120.318 Y145.494 E.01314
M73 P1 R98
G1 X120.318 Y133.322 E.38165
G1 X119.899 Y133.322 E.01314
G1 X119.899 Y145.494 E.38165
G1 X119.48 Y145.494 E.01314
G1 X119.48 Y133.322 E.38165
G1 X119.061 Y133.322 E.01314
G1 X119.061 Y145.494 E.38165
G1 X118.642 Y145.494 E.01314
G1 X118.642 Y133.322 E.38165
G1 X118.223 Y133.322 E.01314
G1 X118.223 Y145.494 E.38165
G1 X117.804 Y145.494 E.01314
G1 X117.804 Y133.322 E.38165
G1 X117.385 Y133.322 E.01314
G1 X117.385 Y145.494 E.38165
G1 X116.966 Y145.494 E.01314
G1 X116.966 Y133.322 E.38165
G1 X116.547 Y133.322 E.01314
G1 X116.547 Y145.494 E.38165
G1 X116.128 Y145.494 E.01314
G1 X116.128 Y133.322 E.38165
G1 X115.709 Y133.322 E.01314
G1 X115.709 Y145.494 E.38165
G1 X115.29 Y145.494 E.01314
G1 X115.29 Y133.322 E.38165
G1 X114.871 Y133.322 E.01314
G1 X114.871 Y145.494 E.38165
G1 X114.452 Y145.494 E.01314
G1 X114.452 Y133.322 E.38165
G1 X114.033 Y133.322 E.01314
G1 X114.033 Y145.494 E.38165
G1 X113.614 Y145.494 E.01314
G1 X113.614 Y133.322 E.38165
G1 X113.599 Y133.322 E.00048
G1 X113.599 Y141.414 E.25374
G1 X113.195 Y141.818 E.0179
G1 X113.195 Y145.494 E.11526
G1 X112.776 Y145.494 E.01314
G1 X112.776 Y141.894 E.11287
G1 X112.357 Y141.894 E.01314
G1 X112.357 Y145.494 E.11287
G1 X111.938 Y145.494 E.01314
G1 X111.938 Y141.894 E.11287
G1 X111.519 Y141.894 E.01314
G1 X111.519 Y145.494 E.11287
G1 X111.1 Y145.494 E.01314
G1 X111.1 Y141.894 E.11287
G1 X110.681 Y141.894 E.01314
G1 X110.681 Y145.494 E.11287
G1 X110.262 Y145.494 E.01314
G1 X110.262 Y141.894 E.11287
G1 X109.843 Y141.894 E.01314
G1 X109.843 Y145.494 E.11287
G1 X109.425 Y145.494 E.01314
G1 X109.425 Y141.894 E.11287
G1 X109.006 Y141.894 E.01314
G1 X109.006 Y145.494 E.11287
G1 X108.587 Y145.494 E.01314
G1 X108.587 Y141.894 E.11287
G1 X108.168 Y141.894 E.01314
G1 X108.168 Y145.494 E.11287
G1 X107.749 Y145.494 E.01314
G1 X107.749 Y141.894 E.11287
G1 X107.33 Y141.894 E.01314
G1 X107.33 Y145.494 E.11287
G1 X106.911 Y145.494 E.01314
G1 X106.911 Y141.894 E.11287
G1 X106.492 Y141.894 E.01314
G1 X106.492 Y145.494 E.11287
G1 X106.073 Y145.494 E.01314
G1 X106.073 Y141.894 E.11287
G1 X105.654 Y141.894 E.01314
G1 X105.654 Y145.494 E.11287
G1 X105.235 Y145.494 E.01314
G1 X105.235 Y141.894 E.11287
G1 X104.816 Y141.894 E.01314
G1 X104.816 Y145.494 E.11287
G1 X104.397 Y145.494 E.01314
G1 X104.397 Y141.894 E.11287
G1 X103.978 Y141.894 E.01314
G1 X103.978 Y145.494 E.11287
G1 X103.559 Y145.494 E.01314
G1 X103.559 Y141.894 E.11287
G1 X103.14 Y141.894 E.01314
G1 X103.14 Y145.494 E.11287
G1 X102.721 Y145.494 E.01314
G1 X102.721 Y141.894 E.11287
G1 X102.302 Y141.894 E.01314
G1 X102.302 Y145.494 E.11287
G1 X101.883 Y145.494 E.01314
G1 X101.883 Y141.894 E.11287
G1 X101.464 Y141.894 E.01314
G1 X101.464 Y145.494 E.11287
G1 X101.045 Y145.494 E.01314
G1 X101.045 Y141.894 E.11287
G1 X100.626 Y141.882 E.01314
G1 X100.626 Y145.494 E.11325
G1 X100.207 Y145.494 E.01314
G1 X100.207 Y141.796 E.11597
G1 X99.999 Y141.719 E.00693
G1 X99.788 Y141.593 E.00772
G1 X99.788 Y145.494 E.12231
G1 X99.369 Y145.494 E.01314
G1 X99.369 Y141.224 E.13388
G1 X99.174 Y140.927 E.01115
G1 X99.113 Y140.802 E.00438
G1 X99.007 Y140.486 E.01044
G1 X98.96 Y140.099 E.01222
G1 X98.96 Y55.894 E2.64017
G1 X98.95 Y145.494 E2.80934
G1 X98.531 Y145.494 E.01314
G1 X98.531 Y55.894 E2.80934
G1 X98.112 Y55.894 E.01314
G1 X98.112 Y145.494 E2.80934
G1 X97.693 Y145.494 E.01314
G1 X97.693 Y55.894 E2.80934
G1 X97.274 Y55.894 E.01314
G1 X97.274 Y145.494 E2.80934
G1 X96.855 Y145.494 E.01314
G1 X96.855 Y55.894 E2.80934
G1 X96.436 Y55.894 E.01314
G1 X96.436 Y145.494 E2.80934
G1 X96.017 Y145.494 E.01314
G1 X96.017 Y55.894 E2.80934
G1 X95.598 Y55.894 E.01314
M73 P2 R98
G1 X95.598 Y145.494 E2.80934
G1 X95.179 Y145.494 E.01314
M73 P2 R97
G1 X95.179 Y55.894 E2.80934
G1 X94.76 Y55.894 E.01314
G1 X94.76 Y145.494 E2.80934
G1 X94.341 Y145.494 E.01314
G1 X94.341 Y55.894 E2.80934
G1 X93.922 Y55.894 E.01314
G1 X93.922 Y145.494 E2.80934
G1 X93.503 Y145.494 E.01314
G1 X93.503 Y55.894 E2.80934
G1 X93.084 Y55.894 E.01314
G1 X93.084 Y145.494 E2.80934
G1 X92.665 Y145.494 E.01314
G1 X92.665 Y55.894 E2.80934
G1 X92.246 Y55.894 E.01314
G1 X92.246 Y145.494 E2.80934
G1 X91.827 Y145.494 E.01314
G1 X91.827 Y55.894 E2.80934
G1 X91.44 Y55.894 E.01214
G1 X91.409 Y55.863 E.00141
G1 X91.408 Y145.494 E2.81033
G1 X90.99 Y145.494 E.01314
G1 X90.99 Y55.444 E2.82347
G1 X90.96 Y55.415 E.0013
G1 X90.96 Y52.199 E.10083
G1 X90.571 Y52.199 E.01222
G1 X90.571 Y145.494 E2.92522
G1 X90.152 Y145.494 E.01314
M73 P3 R97
G1 X90.152 Y52.199 E2.92522
G1 X89.733 Y52.199 E.01314
M73 P3 R96
G1 X89.733 Y145.494 E2.92522
G1 X89.314 Y145.494 E.01314
G1 X89.314 Y52.199 E2.92522
G1 X88.895 Y52.199 E.01314
G1 X88.895 Y145.494 E2.92522
G1 X88.476 Y145.494 E.01314
G1 X88.476 Y52.029 E2.93054
M204 P1000
G1 E-2.24 F4200
;WIPE_START
G1 F7200
G1 X88.476 Y53.675 E-.912
;WIPE_END
G1 E-.048 F4200
G1 Z.4 F720
G1 X100.086 Y54.31 F9000
G1 Z.2 F720
G1 E3.2 F2400
M204 P800
;TYPE:Perimeter
;WIDTH:0.419999
G1 F1200
G1 X100.001 Y54.288 E.00275
G1 X92.567 Y54.288 E.2331
G1 X92.567 Y38.862 E.48367
G1 X111.993 Y38.862 E.60908
G1 X111.993 Y140.288 E3.18013
G1 X100.891 Y140.288 E.3481
G1 X100.82 Y140.28 E.00223
G1 X100.626 Y140.198 E.00661
G1 X100.567 Y140.031 E.00556
G1 X100.562 Y54.783 E2.67288
G1 X100.466 Y54.532 E.00844
G1 X100.273 Y54.358 E.00815
G1 X100.144 Y54.325 E.00417
M204 P1000
G1 X100.001 Y54.665 F9000
M204 P800
;TYPE:External perimeter
G1 F1200
G1 X92.19 Y54.665 E.24492
G1 X92.19 Y38.485 E.50731
G1 X112.37 Y38.485 E.63273
G1 X112.37 Y140.665 E3.20378
G1 X100.891 Y140.665 E.35992
G1 X100.526 Y140.601 E.01161
G1 X100.323 Y140.439 E.00813
G1 X100.267 Y140.323 E.00405
G1 X100.19 Y140.052 E.00883
G1 X100.19 Y54.854 E2.67133
G1 X100.143 Y54.73 E.00415
G1 X100.056 Y54.69 E.00301
M204 P1000
G1 X99.898 Y54.279 F9000
G1 E-2.24 F4200
;WIPE_START
G1 F7200
G1 X98.41 Y54.685 E-.912
;WIPE_END
G1 E-.048 F4200
G1 Z.4 F720
G1 X98.516 Y44.69 F9000
G1 Z.2 F720
G1 E3.2 F2400
M204 P800
;TYPE:Perimeter
G1 F1200
G1 X98.149 Y45.023 E.01553
G1 X97.689 Y45.281 E.01653
G1 X97.135 Y45.434 E.01803
G1 X96.56 Y45.451 E.01803
G1 X95.998 Y45.329 E.01804
G1 X95.444 Y45.046 E.01949
G1 X95.04 Y44.707 E.01653
G1 X94.7 Y44.244 E.01803
G1 X94.481 Y43.712 E.01803
G1 X94.395 Y43.143 E.01803
G1 X94.448 Y42.571 E.01803
G1 X94.637 Y42.027 E.01803
G1 X94.95 Y41.545 E.01803
G1 X95.369 Y41.151 E.01803
G1 X95.87 Y40.87 E.01803
G1 X96.425 Y40.716 E.01803
G1 X96.999 Y40.7 E.01803
G1 X97.562 Y40.821 E.01803
G1 X98.078 Y41.074 E.01803
G1 X98.519 Y41.443 E.01803
G1 X98.859 Y41.907 E.01803
G1 X99.079 Y42.438 E.01803
G1 X99.164 Y43.007 E.01803
G1 X99.111 Y43.58 E.01803
G1 X98.923 Y44.123 E.01803
G1 X98.61 Y44.606 E.01804
G1 X98.56 Y44.65 E.00208
M204 P1000
G1 X98.25 Y44.441 F9000
M204 P800
;TYPE:External perimeter
G1 F1200
G1 X97.87 Y44.76 E.01556
G1 X97.471 Y44.963 E.01402
G1 X96.986 Y45.073 E.01562
G1 X96.515 Y45.068 E.01476
G1 X96.042 Y44.945 E.01531
G1 X95.591 Y44.692 E.01622
G1 X95.26 Y44.391 E.01403
G1 X94.989 Y43.989 E.0152
G1 X94.822 Y43.534 E.0152
G1 X94.769 Y43.098 E.01378
G1 X94.833 Y42.572 E.01661
G1 X95.01 Y42.121 E.0152
G1 X95.29 Y41.725 E.0152
G1 X95.656 Y41.408 E.0152
G1 X96.088 Y41.187 E.0152
G1 X96.56 Y41.077 E.0152
G1 X97.045 Y41.082 E.0152
G1 X97.514 Y41.204 E.0152
G1 X97.94 Y41.434 E.01519
G1 X98.299 Y41.759 E.0152
G1 X98.57 Y42.161 E.0152
G1 X98.737 Y42.616 E.01519
G1 X98.79 Y43.098 E.0152
G1 X98.726 Y43.578 E.0152
G1 X98.549 Y44.029 E.0152
G1 X98.289 Y44.396 E.01409
M204 P1000
G1 X98.367 Y44.824 F9000
G1 E-2.24 F4200
;WIPE_START
G1 F7200
G1 X97.87 Y44.76 E-.30756
G1 X97.471 Y44.963 E-.24787
G1 X96.986 Y45.073 E-.2761
G1 X96.84 Y45.072 E-.08046
;WIPE_END
G1 E-.048 F4200
G1 Z.4 F720
G1 X109.089 Y65.72 F9000
G1 Z.2 F720
G1 E3.2 F2400
M204 P800
;TYPE:Perimeter
G1 F1200
G1 X108.689 Y65.947 E.01442
G1 X108.135 Y66.101 E.01803
G1 X107.56 Y66.117 E.01803
G1 X106.998 Y65.996 E.01804
G1 X106.444 Y65.713 E.01949
G1 X106.04 Y65.374 E.01653
G1 X105.7 Y64.91 E.01803
G1 X105.481 Y64.379 E.01803
G1 X105.395 Y63.81 E.01803
G1 X105.448 Y63.237 E.01803
G1 X105.637 Y62.694 E.01803
G1 X105.95 Y62.212 E.01803
G1 X106.369 Y61.818 E.01803
G1 X106.87 Y61.536 E.01803
G1 X107.425 Y61.383 E.01803
G1 X107.999 Y61.366 E.01803
G1 X108.562 Y61.488 E.01803
G1 X109.078 Y61.741 E.01803
G1 X109.519 Y62.109 E.01803
G1 X109.859 Y62.573 E.01803
G1 X110.079 Y63.105 E.01803
G1 X110.164 Y63.674 E.01803
G1 X110.111 Y64.246 E.01803
G1 X109.923 Y64.79 E.01803
G1 X109.631 Y65.241 E.01686
G1 X109.199 Y65.658 E.01884
G1 X109.141 Y65.691 E.00206
M204 P1000
G1 X108.884 Y65.419 F9000
M204 P800
;TYPE:External perimeter
G1 F1200
G1 X108.471 Y65.629 E.01452
G1 X107.999 Y65.74 E.0152
G1 X107.515 Y65.735 E.0152
G1 X107.042 Y65.612 E.01531
G1 X106.591 Y65.358 E.01622
G1 X106.26 Y65.058 E.01402
G1 X105.989 Y64.656 E.0152
G1 X105.822 Y64.201 E.0152
G1 X105.769 Y63.764 E.01378
G1 X105.833 Y63.239 E.01661
G1 X106.01 Y62.787 E.0152
G1 X106.29 Y62.392 E.0152
G1 X106.656 Y62.074 E.0152
G1 X107.088 Y61.854 E.0152
G1 X107.56 Y61.743 E.0152
G1 X108.045 Y61.749 E.0152
G1 X108.514 Y61.87 E.0152
G1 X108.94 Y62.1 E.0152
G1 X109.299 Y62.426 E.0152
G1 X109.57 Y62.828 E.0152
G1 X109.737 Y63.283 E.0152
G1 X109.79 Y63.764 E.0152
G1 X109.726 Y64.245 E.0152
G1 X109.549 Y64.696 E.0152
G1 X109.293 Y65.059 E.01392
G1 X108.932 Y65.383 E.01524
M204 P1000
G1 X108.91 Y65.818 F9000
G1 E-2.24 F4200
;WIPE_START
G1 F7200
G1 X108.471 Y65.629 E-.28918
G1 X107.999 Y65.74 E-.26857
G1 X107.515 Y65.735 E-.26857
G1 X107.365 Y65.696 E-.08567
;WIPE_END
G1 E-.048 F4200
G1 Z.4 F720
G1 X105.486 Y125.06 F9000
G1 Z.2 F720
G1 E3.2 F2400
M204 P800
;TYPE:Perimeter
G1 F1200
G1 X105.637 Y124.627 E.01436
G1 X105.95 Y124.145 E.01803
G1 X106.369 Y123.751 E.01803
G1 X106.87 Y123.47 E.01803
G1 X107.425 Y123.316 E.01803
G1 X107.999 Y123.3 E.01803
G1 X108.562 Y123.421 E.01803
G1 X109.078 Y123.674 E.01803
G1 X109.519 Y124.043 E.01803
G1 X109.859 Y124.507 E.01803
G1 X110.079 Y125.038 E.01803
G1 X110.164 Y125.607 E.01803
G1 X110.111 Y126.18 E.01803
G1 X109.923 Y126.723 E.01803
G1 X109.61 Y127.205 E.01803
G1 X109.19 Y127.599 E.01803
G1 X108.689 Y127.881 E.01803
G1 X108.135 Y128.034 E.01803
G1 X107.56 Y128.051 E.01803
G1 X106.998 Y127.929 E.01803
G1 X106.481 Y127.676 E.01803
G1 X106.04 Y127.307 E.01803
G1 X105.7 Y126.844 E.01803
G1 X105.481 Y126.312 E.01803
G1 X105.395 Y125.743 E.01803
G1 X105.467 Y125.117 E.01977
M204 P1000
G1 X105.841 Y125.152 F9000
M204 P800
;TYPE:External perimeter
G1 F1200
G1 X106.01 Y124.721 E.01451
G1 X106.29 Y124.325 E.0152
G1 X106.656 Y124.008 E.0152
G1 X107.088 Y123.787 E.0152
G1 X107.56 Y123.677 E.0152
G1 X108.045 Y123.682 E.0152
G1 X108.514 Y123.804 E.0152
G1 X108.94 Y124.034 E.0152
G1 X109.299 Y124.359 E.0152
G1 X109.57 Y124.761 E.0152
G1 X109.737 Y125.216 E.0152
G1 X109.79 Y125.698 E.01519
G1 X109.726 Y126.178 E.0152
G1 X109.549 Y126.629 E.0152
G1 X109.269 Y127.025 E.0152
G1 X108.903 Y127.342 E.0152
G1 X108.471 Y127.563 E.0152
G1 X107.999 Y127.673 E.0152
G1 X107.515 Y127.668 E.0152
G1 X107.046 Y127.547 E.0152
G1 X106.619 Y127.317 E.0152
G1 X106.26 Y126.991 E.0152
G1 X105.989 Y126.589 E.0152
G1 X105.822 Y126.134 E.0152
G1 X105.769 Y125.698 E.01378
G1 X105.829 Y125.21 E.01541
