; generated by PrusaSlicer 2.5.2+linux-x64-GTK3 on 2023-05-14 at 19:57:58 UTC


;
;

;
;
; 

; external perimeters extrusion width = 0.45mm
; perimeters extrusion width = 0.45mm
; infill extrusion width = 0.45mm
; solid infill extrusion width = 0.45mm
; top infill extrusion width = 0.40mm
; support material extrusion width = 0.35mm
; first layer extrusion width = 0.42mm

M73 P0 R4
M201 X2500 Y2500 Z400 E5000 ; sets maximum accelerations, mm/sec^2
M203 X180 Y180 Z12 E80 ; sets maximum feedrates, mm / sec
M204 P1250 R1250 T2500 ; sets acceleration (P, T) and retract acceleration (R), mm/sec^2
M205 X8.00 Y8.00 Z2.00 E10.00 ; sets the jerk limits, mm/sec
M205 S0 T0 ; sets the minimum extruding and travel feed rate, mm/sec
M107
;TYPE:Custom
M862.3 P "MINI" ; printer model check
G90 ; use absolute coordinates
M83 ; extruder relative mode
M104 S170 ; set extruder temp for bed leveling
M140 S60 ; set bed temp
M109 R170 ; wait for bed leveling temp
M190 S60 ; wait for bed temp
M204 T1250 ; set travel acceleration
G28 ; home all without mesh bed level
G29 ; mesh bed leveling 
M204 T2500 ; restore travel acceleration
M104 S215 ; set extruder temp
G92 E0
G1 Y-2 X179 F2400
G1 Z3 F720
M109 S215 ; wait for extruder temp

; intro line
M73 P1 R4
G1 X170 F1000
G1 Z0.2 F720
G1 X110 E8 F900
G1 X40 E10 F700
G92 E0

M221 S95 ; set flow
G21 ; set units to millimeters
G90 ; use absolute coordinates
M83 ; use relative distances for extrusion
M900 K0.2 ; Filament gcode LA 1.5
; ; Filament gcode LA 1.0
M107
;LAYER_CHANGE
;Z:0.2
;HEIGHT:0.2
;BEFORE_LAYER_CHANGE
G92 E0.0
;0.2


M73 P3 R4
G1 E-3.2 F4200
M73 P5 R4
G1 Z.2 F720
;AFTER_LAYER_CHANGE
;0.2
G1 Z.4
G1 X80.844 Y83.862 F9000
G1 Z.2 F720
G1 E3.2 F2400
M204 P800
;TYPE:Skirt/Brim
;WIDTH:0.42
G1 F1200
G1 X82.5 Y83.389 E.054
G1 X94.578 Y83.389 E.37869
G1 X96.098 Y83.782 E.04923
G1 X96.844 Y84.36 E.02959
G1 X97.688 Y85.297 E.03954
G1 X98.75 Y86.793 E.05753
M73 P6 R4
G1 X99.539 Y88.31 E.05362
G1 X100.227 Y90.313 E.06639
G1 X100.484 Y91.59 E.04084
G1 X100.624 Y93.294 E.05362
G1 X100.332 Y94.836 E.04923
G1 X99.327 Y96.043 E.04923
G1 X97.5 Y96.631 E.06018
G1 X93.7 Y96.631 E.11915
G1 X92.892 Y96.525 E.02557
G1 X81.692 Y93.532 E.36349
G1 X80.325 Y92.759 E.04923
G1 X79.505 Y91.42 E.04923
G1 X79.369 Y90.507 E.02896
G1 X79.369 Y86.52 E.125
G1 X79.762 Y85 E.04923
G1 X80.803 Y83.906 E.04735
M204 P1000
G1 X81.085 Y84.203 F9000
M204 P800
G1 F1200
G1 X81.205 Y84.089 E.00517
G1 X82.5 Y83.766 E.04186
G1 X94.578 Y83.766 E.37869
G1 X96.571 Y84.62 E.068
G1 X97.541 Y85.707 E.04568
M73 P7 R4
G1 X98.617 Y87.31 E.06052
G1 X99.339 Y88.807 E.05213
G1 X99.857 Y90.387 E.05214
G1 X100.115 Y91.664 E.04082
G1 X100.248 Y93.319 E.05206
G1 X99.95 Y94.759 E.04612
G1 X98.952 Y95.84 E.04612
G1 X97.5 Y96.254 E.04735
G1 X93.7 Y96.254 E.11915
G1 X92.989 Y96.161 E.02249
G1 X81.789 Y93.167 E.36349
G1 X80.521 Y92.422 E.04612
G1 X79.746 Y90.507 E.06479
G1 X79.746 Y86.52 E.125
G1 X80.139 Y85.103 E.04612
G1 X81.042 Y84.244 E.03907
M204 P1000
G1 X81.301 Y84.554 F9000
M204 P800
G1 F1200
G1 X81.56 Y84.337 E.0106
G1 X82.5 Y84.143 E.03008
G1 X94.578 Y84.143 E.37869
G1 X96.298 Y84.88 E.05869
G1 X97.251 Y85.948 E.04489
G1 X98.279 Y87.479 E.05781
M73 P8 R4
G1 X98.983 Y88.93 E.05057
G1 X99.488 Y90.462 E.05057
G1 X99.745 Y91.738 E.04081
G1 X99.872 Y93.344 E.05051
G1 X99.567 Y94.674 E.04278
G1 X98.581 Y95.617 E.04278
G1 X97.5 Y95.877 E.03487
G1 X93.7 Y95.877 E.11915
G1 X93.086 Y95.796 E.01941
G1 X81.886 Y92.803 E.36349
G1 X80.725 Y92.087 E.04278
G1 X80.123 Y90.507 E.05303
G1 X80.123 Y86.52 E.125
G1 X80.515 Y85.213 E.04278
G1 X81.255 Y84.592 E.0303
M204 P1000
; printing object grinder_catchment_rail_lock_pin_reinforcement.stl id:0 copy 0
G1 E-2.24 F4200
;WIPE_START
G1 F7200
G1 X81.56 Y84.337 E-.22062
G1 X82.5 Y84.143 E-.53172
G1 X82.788 Y84.143 E-.15966
;WIPE_END
G1 E-.048 F4200
G1 Z.4 F720
G1 X83.344 Y88.247 F9000
G1 Z.2 F720
G1 E3.2 F2400
M204 P800
;TYPE:Perimeter
;WIDTH:0.586099
G1 F1200
G1 X83.366 Y87.39 E.03872
G1 X84.608 Y87.389 E.05611
G1 X83.993 Y87.721 E.0316
G1 X83.39 Y88.209 E.035
M204 P1000
G1 E-2.24 F4200
;WIPE_START
G1 F7200
G1 X83.366 Y87.39 E-.45419
G1 X84.192 Y87.389 E-.45781
;WIPE_END
G1 E-.048 F4200
G1 Z.4 F720
G1 X90.458 Y87.301 F9000
G1 Z.2 F720
G1 E3.2 F2400
M204 P800
;WIDTH:0.419999
G1 F1200
M73 P9 R4
G1 X94.225 Y87.307 E.11811
G1 X94.801 Y87.951 E.0271
G1 X95.473 Y88.942 E.03755
G1 X96.008 Y90.01 E.03743
G1 X96.396 Y91.138 E.03743
G1 X96.627 Y92.285 E.03669
G1 X96.659 Y92.713 E.01344
G1 X94.425 Y92.713 E.07004
G1 X94.388 Y92.35 E.01143
G1 X94.141 Y91.365 E.03186
G1 X93.664 Y90.264 E.03763
G1 X93.114 Y89.409 E.03186
G1 X92.309 Y88.52 E.03763
G1 X91.437 Y87.836 E.03475
G1 X90.513 Y87.326 E.03309
M204 P1000
G1 E-2.24 F4200
;WIPE_START
G1 F7200
G1 X92.159 Y87.317 E-.912
;WIPE_END
G1 E-.048 F4200
G1 Z.4 F720
G1 X82.718 Y89.821 F9000
G1 Z.2 F720
G1 E3.2 F2400
M204 P800
;TYPE:External perimeter
G1 F1200
G1 X82.754 Y89.019 E.02519
G1 X82.857 Y88.528 E.01573
G1 X82.901 Y88.017 E.01607
G1 X82.909 Y86.93 E.0341
G1 X85.403 Y86.928 E.07821
;WIDTH:0.427776
G1 X86.233 Y86.9 E.02657
G1 X87.239 Y86.833 E.03228
;WIDTH:0.420732
G1 X88.357 Y86.839 E.03509
;WIDTH:0.442249
G1 X89.746 Y86.927 E.04621
;WIDTH:0.426765
G1 X90.457 Y86.924 E.0227
;WIDTH:0.419999
G1 X94.394 Y86.93 E.12345
G1 X95.098 Y87.719 E.03316
G1 X95.799 Y88.751 E.03911
G1 X96.356 Y89.863 E.039
G1 X96.761 Y91.039 E.039
G1 X97.007 Y92.259 E.039
G1 X97.062 Y93.09 E.02612
G1 X94.078 Y93.09 E.09356
G1 X94.022 Y92.442 E.02039
G1 X93.775 Y91.456 E.03186
G1 X93.347 Y90.468 E.03378
G1 X92.797 Y89.614 E.03186
G1 X92.074 Y88.815 E.03378
G1 X91.279 Y88.183 E.03185
M73 P10 R4
G1 X90.335 Y87.658 E.03388
;WIDTH:0.442249
G1 X89.333 Y87.31 E.0352
G1 X88.325 Y87.215 E.03361
;WIDTH:0.420625
G1 X87.266 Y87.208 E.03327
;WIDTH:0.427776
G1 X86.26 Y87.284 E.03228
G1 X85.957 Y87.371 E.0101
;WIDTH:0.422728
G1 X85.216 Y87.593 E.02442
;WIDTH:0.419999
G1 X84.314 Y88.058 E.03181
G1 X83.475 Y88.746 E.03402
G1 X83.17 Y89.213 E.01749
G1 X82.754 Y89.773 E.02189
M204 P1000
G1 X82.811 Y89.432 F9000
G1 E-2.24 F4200
;WIPE_START
G1 F7200
G1 X82.754 Y89.019 E-.41804
G1 X82.857 Y88.528 E-.27797
G1 X82.891 Y88.14 E-.216
;WIPE_END
G1 E-.048 F4200
G1 Z.4 F720
G1 X95.785 Y89.817 F9000
G1 Z.2 F720
G1 E3.2 F2400
M204 P800
;TYPE:Solid infill
;WIDTH:0.426687
G1 F1200
G1 X93.556 Y87.589 E.10058
G1 X93.013 Y87.588 E.01734
G1 X95.853 Y90.428 E.12815
G1 X96.13 Y91.248 E.02762
G1 X92.469 Y87.587 E.16519
G1 X91.926 Y87.586 E.01734
G1 X96.267 Y91.927 E.1959
G1 X96.357 Y92.43 E.0163
G1 X96.227 Y92.43 E.00414
G1 X93.893 Y90.096 E.10534
G1 X94.328 Y91.074 E.03418
G1 X95.684 Y92.43 E.06119
G1 X95.141 Y92.43 E.01732
G1 X94.316 Y91.605 E.03725
M204 P1000
; stop printing object grinder_catchment_rail_lock_pin_reinforcement.stl id:0 copy 0
M106 S84.15
;LAYER_CHANGE
;Z:0.35
;HEIGHT:0.15
;BEFORE_LAYER_CHANGE
G92 E0.0
;0.35


G1 E-2.24 F4200
;WIPE_START
G1 F7200
G1 X95.141 Y92.43 E-.64694
G1 X95.62 Y92.43 E-.26506
;WIPE_END
G1 E-.048 F4200
G1 Z.4 F720
;AFTER_LAYER_CHANGE
;0.35
M104 S210 ; set temperature
G1 X95.62 Y96.631 F9000
G1 Z.35 F720
G1 E3.2 F2400
;TYPE:Skirt/Brim
;WIDTH:0.42
G1 F1284
M73 P11 R4
G1 X93.7 Y96.631 E.04643
G1 X92.892 Y96.525 E.01972
G1 X81.692 Y93.532 E.28038
G1 X80.325 Y92.759 E.03797
G1 X79.505 Y91.42 E.03797
G1 X79.369 Y90.507 E.02233
G1 X79.369 Y86.52 E.09642
G1 X79.762 Y85 E.03797
G1 X80.844 Y83.862 E.03797
G1 X82.5 Y83.389 E.04165
G1 X94.578 Y83.389 E.2921
G1 X96.098 Y83.782 E.03797
G1 X96.844 Y84.36 E.02283
G1 X97.688 Y85.297 E.0305
G1 X98.75 Y86.793 E.04438
G1 X99.539 Y88.31 E.04136
G1 X100.227 Y90.313 E.05121
G1 X100.484 Y91.59 E.0315
G1 X100.624 Y93.294 E.04136
G1 X100.332 Y94.836 E.03797
G1 X99.327 Y96.043 E.03797
G1 X97.5 Y96.631 E.04642
G1 X95.68 Y96.631 E.04402
G1 X95.68 Y96.254 F9000
G1 F1284
G1 X93.7 Y96.254 E.04788
G1 X92.989 Y96.161 E.01735
M73 P12 R4
G1 X81.789 Y93.167 E.28038
G1 X80.521 Y92.422 E.03557
G1 X79.746 Y90.507 E.04997
G1 X79.746 Y86.52 E.09642
G1 X80.139 Y85.103 E.03557
G1 X81.205 Y84.089 E.03557
G1 X82.5 Y83.766 E.03229
G1 X94.578 Y83.766 E.2921
G1 X96.571 Y84.62 E.05245
G1 X97.541 Y85.707 E.03524
G1 X98.617 Y87.31 E.04668
G1 X99.339 Y88.807 E.04021
G1 X99.857 Y90.387 E.04022
G1 X100.115 Y91.664 E.03149
G1 X100.248 Y93.319 E.04016
G1 X99.95 Y94.759 E.03557
G1 X98.952 Y95.84 E.03557
G1 X97.5 Y96.254 E.03652
G1 X95.74 Y96.254 E.04257
G1 X95.74 Y95.877 F9000
G1 F1284
G1 X93.7 Y95.877 E.04933
G1 X93.086 Y95.796 E.01497
G1 X81.886 Y92.803 E.28038
G1 X80.725 Y92.087 E.033
M73 P13 R4
G1 X80.123 Y90.507 E.04091
G1 X80.123 Y86.52 E.09642
G1 X80.515 Y85.213 E.033
G1 X81.56 Y84.337 E.033
G1 X82.5 Y84.143 E.02321
G1 X94.578 Y84.143 E.2921
G1 X96.298 Y84.88 E.04527
G1 X97.251 Y85.948 E.03462
G1 X98.279 Y87.479 E.04459
G1 X98.983 Y88.93 E.03901
G1 X99.488 Y90.462 E.03901
G1 X99.745 Y91.738 E.03147
G1 X99.872 Y93.344 E.03896
G1 X99.567 Y94.674 E.033
G1 X98.581 Y95.617 E.033
G1 X97.5 Y95.877 E.0269
G1 X95.8 Y95.877 E.04112
; printing object grinder_catchment_rail_lock_pin_reinforcement.stl id:0 copy 0
G1 E-2.24 F4200
;WIPE_START
G1 F7200
G1 X94.154 Y95.877 E-.912
;WIPE_END
G1 E-.048 F4200
G1 Z.55 F720
G1 X83.143 Y88.685 F9000
G1 Z.35 F720
G1 E3.2 F2400
M204 P800
;TYPE:Perimeter
;WIDTH:0.449999
G1 F1284
G1 X83.143 Y87.198 E.03874
G1 X85.666 Y87.198 E.06574
G1 X85.087 Y87.395 E.01593
M73 P14 R4
G1 X84.131 Y87.9 E.02816
G1 X83.347 Y88.485 E.02551
G1 X83.186 Y88.643 E.00587
M204 P1000
G1 E-2.24 F4200
;WIPE_START
G1 F7200
G1 X83.143 Y87.198 E-.80107
G1 X83.343 Y87.198 E-.11093
;WIPE_END
G1 E-.048 F4200
G1 Z.55 F720
G1 X89.734 Y87.198 F9000
G1 Z.35 F720
G1 E3.2 F2400
M204 P800
G1 F1284
G1 X94.323 Y87.198 E.11959
G1 X94.871 Y87.811 E.02143
G1 X95.599 Y88.871 E.03351
G1 X96.141 Y89.954 E.03156
G1 X96.536 Y91.101 E.0316
G1 X96.762 Y92.222 E.02981
G1 X96.808 Y92.857 E.01658
G1 X94.292 Y92.857 E.06556
G1 X94.244 Y92.37 E.01277
G1 X94.006 Y91.417 E.02558
G1 X93.535 Y90.329 E.03089
G1 X93.004 Y89.504 E.02558
G1 X92.209 Y88.625 E.03089
G1 X91.356 Y87.956 E.02823
G1 X90.403 Y87.435 E.02832
G1 X89.79 Y87.218 E.01693
M204 P1000
G1 E-2.24 F4200
;WIPE_START
G1 F7200
G1 X91.436 Y87.211 E-.912
;WIPE_END
G1 E-.048 F4200
G1 Z.55 F720
G1 X82.725 Y89.784 F9000
G1 Z.35 F720
G1 E3.2 F2400
M204 P800
;TYPE:External perimeter
G1 F1284
G1 X82.725 Y86.78 E.07828
G1 X85.156 Y86.78 E.06335
;WIDTH:0.491243
G1 X85.513 Y86.801 E.01023
;WIDTH:0.532487
G1 X85.87 Y86.821 E.01115
;WIDTH:0.57373
G1 X86.227 Y86.842 E.01207
G1 X86.741 Y86.823 E.01738
;WIDTH:0.535542
G1 X87.255 Y86.804 E.01615
;WIDTH:0.497353
G1 X87.332 Y86.802 E.00225
;WIDTH:0.507903
G1 X88.855 Y86.794 E.04516
;WIDTH:0.478951
G1 X89.32 Y86.78 E.01296
;WIDTH:0.449999
G1 X94.51 Y86.78 E.13525
G1 X95.201 Y87.553 E.027
G1 X95.96 Y88.658 E.03495
G1 X96.527 Y89.792 E.03303
G1 X96.94 Y90.991 E.03304
G1 X97.177 Y92.166 E.03121
M73 P15 R4
G1 X97.258 Y93.275 E.02898
G1 X93.907 Y93.275 E.0873
G1 X93.839 Y92.471 E.02102
G1 X93.601 Y91.519 E.02558
G1 X93.098 Y90.422 E.03143
G1 X92.519 Y89.578 E.02668
G1 X91.949 Y88.952 E.02206
G1 X91.153 Y88.321 E.02646
G1 X90.263 Y87.828 E.02649
G1 X89.257 Y87.475 E.02779
;WIDTH:0.477065
G1 X88.783 Y87.377 E.01342
;WIDTH:0.504131
G1 X88.309 Y87.279 E.01424
G1 X87.289 Y87.266 E.03003
;WIDTH:0.535542
G1 X86.778 Y87.323 E.01615
;WIDTH:0.57373
G1 X86.267 Y87.38 E.01738
G1 X86.226 Y87.402 E.00154
;WIDTH:0.550535
G1 X85.911 Y87.523 E.01093
;WIDTH:0.517023
G1 X85.595 Y87.645 E.01022
;WIDTH:0.483511
G1 X85.28 Y87.766 E.00952
;WIDTH:0.449999
G1 X84.41 Y88.216 E.02551
G1 X83.571 Y88.843 E.02728
G1 X82.892 Y89.548 E.02551
G1 X82.76 Y89.735 E.00598
M204 P1000
G1 X82.822 Y89.396 F9000
G1 E-2.24 F4200
;WIPE_START
G1 F7200
G1 X82.74 Y88.09 E-.912
;WIPE_END
G1 E-.048 F4200
G1 Z.55 F720
G1 X83.365 Y88.31 F9000
G1 Z.35 F720
G1 E3.2 F2400
;TYPE:Solid infill
;WIDTH:0.533561
G1 F1284
G1 X84.292 Y87.383 E.04097
G1 E-2.24 F4200
;WIPE_START
G1 F7200
G1 X83.365 Y88.31 E-.72614
;WIPE_END
G1 E-.23386 F4200
G1 Z.55 F720
G1 X95.796 Y92.732 F9000
G1 Z.35 F720
G1 E3.2 F2400
;WIDTH:0.46641
G1 F1284
G1 X96.419 Y92.108 E.02388
G1 X96.316 Y91.597 E.01412
G1 X95.37 Y92.544 E.03625
G1 X94.756 Y92.544 E.01663
G1 X96.203 Y91.096 E.05543
G1 X96.046 Y90.64 E.01308
G1 X94.516 Y92.17 E.05859
G1 X94.389 Y91.683 E.01363
G1 X95.889 Y90.183 E.05744
G1 X95.695 Y89.762 E.01253
G1 X94.261 Y91.196 E.05492
G1 X94.075 Y90.768 E.01264
G1 X95.49 Y89.353 E.0542
G1 X95.276 Y88.953 E.01228
G1 X93.889 Y90.34 E.0531
G1 X93.848 Y90.245 E.00279
G1 X93.662 Y89.953 E.00938
G1 X95.026 Y88.589 E.05224
G1 X94.776 Y88.225 E.01196
M73 P16 R4
G1 X93.423 Y89.578 E.05182
G1 X93.249 Y89.306 E.00873
G1 X93.169 Y89.218 E.00323
G1 X94.51 Y87.877 E.05136
G1 X94.22 Y87.553 E.01178
G1 X92.876 Y88.896 E.05147
G1 X92.584 Y88.575 E.01177
G1 X93.647 Y87.511 E.04074
G1 X93.033 Y87.511 E.01663
G1 X92.271 Y88.274 E.0292
G1 X91.929 Y88.001 E.01183
G1 X92.419 Y87.511 E.01877
G1 X91.805 Y87.511 E.01663
G1 X91.444 Y87.873 E.01385
; stop printing object grinder_catchment_rail_lock_pin_reinforcement.stl id:0 copy 0
M106 S170.85
;LAYER_CHANGE
;Z:0.5
;HEIGHT:0.15
;BEFORE_LAYER_CHANGE
G92 E0.0
;0.5


G1 E-2.24 F4200
;WIPE_START
G1 F7200
G1 X91.805 Y87.511 E-.28351
G1 X92.419 Y87.511 E-.3403
G1 X92.052 Y87.879 E-.28819
;WIPE_END
G1 E-.048 F4200
G1 Z.55 F720
;AFTER_LAYER_CHANGE
;0.5
G1 X92.052 Y83.389 F9000
G1 Z.5 F720
G1 E3.2 F2400
;TYPE:Skirt/Brim
;WIDTH:0.42
G1 F1270
G1 X94.578 Y83.389 E.06109
G1 X96.098 Y83.782 E.03797
G1 X96.844 Y84.36 E.02283
G1 X97.688 Y85.297 E.0305
G1 X98.75 Y86.793 E.04438
G1 X99.539 Y88.31 E.04136
G1 X100.227 Y90.313 E.05121
G1 X100.484 Y91.59 E.0315
G1 X100.624 Y93.294 E.04136
G1 X100.332 Y94.836 E.03797
G1 X99.327 Y96.043 E.03797
G1 X97.5 Y96.631 E.04642
G1 X93.7 Y96.631 E.0919
G1 X92.892 Y96.525 E.01972
G1 X81.692 Y93.532 E.28038
G1 X80.325 Y92.759 E.03797
M73 P16 R3
G1 X79.505 Y91.42 E.03797
M73 P17 R3
G1 X79.369 Y90.507 E.02233
G1 X79.369 Y86.52 E.09642
G1 X79.762 Y85 E.03797
G1 X80.844 Y83.862 E.03797
G1 X82.5 Y83.389 E.04165
G1 X91.992 Y83.389 E.22955
G1 X91.992 Y83.766 F9000
G1 F1270
G1 X94.578 Y83.766 E.06254
G1 X96.571 Y84.62 E.05245
G1 X97.541 Y85.707 E.03524
G1 X98.617 Y87.31 E.04668
G1 X99.339 Y88.807 E.04021
G1 X99.857 Y90.387 E.04022
G1 X100.115 Y91.664 E.03149
G1 X100.248 Y93.319 E.04016
G1 X99.95 Y94.759 E.03557
G1 X98.952 Y95.84 E.03557
G1 X97.5 Y96.254 E.03652
G1 X93.7 Y96.254 E.0919
G1 X92.989 Y96.161 E.01735
G1 X81.789 Y93.167 E.28038
G1 X80.521 Y92.422 E.03557
G1 X79.746 Y90.507 E.04997
G1 X79.746 Y86.52 E.09642
M73 P18 R3
G1 X80.139 Y85.103 E.03557
G1 X81.205 Y84.089 E.03557
G1 X82.5 Y83.766 E.03229
G1 X91.932 Y83.766 E.2281
G1 X91.932 Y84.143 F9000
G1 F1270
G1 X94.578 Y84.143 E.06399
G1 X96.298 Y84.88 E.04527
G1 X97.251 Y85.948 E.03462
G1 X98.279 Y87.479 E.04459
G1 X98.983 Y88.93 E.03901
G1 X99.488 Y90.462 E.03901
G1 X99.745 Y91.738 E.03147
G1 X99.872 Y93.344 E.03896
G1 X99.567 Y94.674 E.033
G1 X98.581 Y95.617 E.033
G1 X97.5 Y95.877 E.0269
G1 X93.7 Y95.877 E.0919
G1 X93.086 Y95.796 E.01497
G1 X81.886 Y92.803 E.28038
G1 X80.725 Y92.087 E.033
G1 X80.123 Y90.507 E.04091
G1 X80.123 Y86.52 E.09642
G1 X80.515 Y85.213 E.033
G1 X81.56 Y84.337 E.033
G1 X82.5 Y84.143 E.02321
M73 P19 R3
G1 X91.872 Y84.143 E.22665
; printing object grinder_catchment_rail_lock_pin_reinforcement.stl id:0 copy 0
G1 E-2.24 F4200
;WIPE_START
G1 F7200
G1 X93.517 Y84.143 E-.912
;WIPE_END
G1 E-.048 F4200
G1 Z.7 F720
G1 X83.143 Y88.684 F9000
G1 Z.5 F720
G1 E3.2 F2400
M204 P800
;TYPE:Perimeter
;WIDTH:0.449999
G1 F1270
G1 X83.143 Y87.228 E.03795
G1 X85.575 Y87.228 E.06337
G1 X85.077 Y87.4 E.01371
G1 X84.125 Y87.904 E.02809
G1 X83.342 Y88.489 E.02545
G1 X83.186 Y88.642 E.00572
M204 P1000
G1 E-2.24 F4200
;WIPE_START
G1 F7200
G1 X83.143 Y87.228 E-.78425
G1 X83.373 Y87.228 E-.12775
;WIPE_END
G1 E-.048 F4200
G1 Z.7 F720
G1 X89.813 Y87.228 F9000
G1 Z.5 F720
G1 E3.2 F2400
M204 P800
G1 F1270
G1 X94.352 Y87.228 E.11826
G1 X94.847 Y87.782 E.01936
G1 X95.6 Y88.873 E.03454
G1 X96.142 Y89.955 E.03153
G1 X96.536 Y91.101 E.03159
G1 X96.775 Y92.29 E.03159
G1 X96.813 Y92.857 E.01481
G1 X94.292 Y92.857 E.06568
G1 X94.261 Y92.472 E.01008
