; generated by PrusaSlicer 2.5.2+linux-x64-GTK3 on 2023-05-14 at 19:54:57 UTC


;
;

;
;
; 

; external perimeters extrusion width = 0.45mm
; perimeters extrusion width = 0.45mm
; infill extrusion width = 0.45mm
; solid infill extrusion width = 0.45mm
; top infill extrusion width = 0.40mm
; support material extrusion width = 0.35mm
; first layer extrusion width = 0.42mm

; external perimeters extrusion width = 0.45mm
; perimeters extrusion width = 0.45mm
; infill extrusion width = 0.45mm
; solid infill extrusion width = 0.45mm
; top infill extrusion width = 0.40mm
; support material extrusion width = 0.35mm
; first layer extrusion width = 0.42mm

; external perimeters extrusion width = 0.45mm
; perimeters extrusion width = 0.45mm
; infill extrusion width = 0.45mm
; solid infill extrusion width = 0.45mm
; top infill extrusion width = 0.40mm
; support material extrusion width = 0.35mm
; first layer extrusion width = 0.42mm

M73 P0 R102
M201 X2500 Y2500 Z400 E5000 ; sets maximum accelerations, mm/sec^2
M203 X180 Y180 Z12 E80 ; sets maximum feedrates, mm / sec
M204 P1250 R1250 T2500 ; sets acceleration (P, T) and retract acceleration (R), mm/sec^2
M205 X8.00 Y8.00 Z2.00 E10.00 ; sets the jerk limits, mm/sec
M205 S0 T0 ; sets the minimum extruding and travel feed rate, mm/sec
M107
;TYPE:Custom
M862.3 P "MINI" ; printer model check
G90 ; use absolute coordinates
M83 ; extruder relative mode
M104 S170 ; set extruder temp for bed leveling
M140 S60 ; set bed temp
M109 R170 ; wait for bed leveling temp
M190 S60 ; wait for bed temp
M204 T1250 ; set travel acceleration
G28 ; home all without mesh bed level
G29 ; mesh bed leveling 
M204 T2500 ; restore travel acceleration
M104 S215 ; set extruder temp
G92 E0
G1 Y-2 X179 F2400
G1 Z3 F720
M109 S215 ; wait for extruder temp

; intro line
G1 X170 F1000
G1 Z0.2 F720
G1 X110 E8 F900
G1 X40 E10 F700
G92 E0

M221 S95 ; set flow
G21 ; set units to millimeters
G90 ; use absolute coordinates
M83 ; use relative distances for extrusion
M900 K0.2 ; Filament gcode LA 1.5
; ; Filament gcode LA 1.0
M107
;LAYER_CHANGE
;Z:0.2
;HEIGHT:0.2
;BEFORE_LAYER_CHANGE
G92 E0.0
;0.2


G1 E-3.2 F4200
G1 Z.2 F720
;AFTER_LAYER_CHANGE
;0.2
G1 Z.4
G1 X86.367 Y37.094 F9000
G1 Z.2 F720
G1 E3.2 F2400
M204 P800
;TYPE:Skirt/Brim
;WIDTH:0.42
G1 F1200
G1 X87.183 Y36.001 E.04278
G1 X88.599 Y35.533 E.04675
G1 X109.599 Y35.533 E.65844
G1 X110.906 Y35.925 E.04278
G1 X111.889 Y37.272 E.05227
G1 X115.735 Y51.056 E.4487
G1 X115.823 Y51.695 E.02022
G1 X115.823 Y145.669 E2.9465
G1 X115.431 Y146.976 E.04278
G1 X114.385 Y147.852 E.04278
G1 X113.446 Y148.046 E.03008
G1 X70.463 Y148.046 E1.34769
G1 X69.156 Y147.655 E.04278
G1 X68.28 Y146.609 E.04278
G1 X68.086 Y145.669 E.03008
G1 X68.096 Y132.6 E.40976
G1 X73.666 Y72.05 E1.90651
G1 X73.801 Y71.452 E.01924
M73 P0 R101
G1 X86.346 Y37.15 E1.14516
M204 P1000
; printing object grinder_catchment_rail_lock_pin.stl id:1 copy 0
G1 E-2.24 F4200
;WIPE_START
G1 F7200
G1 X87.183 Y36.001 E-.78803
G1 X87.396 Y35.931 E-.12397
;WIPE_END
G1 E-.048 F4200
G1 Z.4 F720
G1 X75.974 Y96.828 F9000
G1 Z.2 F720
G1 E3.2 F2400
M204 P800
;TYPE:Perimeter
;WIDTH:0.419999
G1 F1200
G1 X75.974 Y94.581 E.07044
G1 X76.737 Y94.648 E.024
G1 X78.256 Y95.053 E.04929
G1 X79.678 Y95.713 E.04917
G1 X80.996 Y96.638 E.05048
G1 X82.077 Y97.718 E.04791
G1 X82.99 Y99.018 E.04981
G1 X83.653 Y100.441 E.04924
G1 X84.06 Y101.958 E.04924
G1 X84.2 Y103.558 E.05035
G1 X84.2 Y128.937 E.79572
G1 X75.974 Y128.937 E.25791
G1 X75.974 Y110.22 E.58686
G1 X76.896 Y110.088 E.0292
G1 X78.28 Y109.563 E.04643
G1 X78.401 Y109.499 E.00427
G1 X79.635 Y108.647 E.04704
G1 X79.737 Y108.557 E.00427
G1 X80.732 Y107.434 E.04703
G1 X80.81 Y107.321 E.00428
G1 X81.507 Y105.993 E.04704
G1 X81.555 Y105.866 E.00427
G1 X81.914 Y104.409 E.04703
G1 X81.93 Y104.274 E.00427
G1 X81.914 Y102.638 E.05128
G1 X81.555 Y101.182 E.04703
G1 X81.507 Y101.054 E.00427
G1 X81.011 Y100.109 E.03347
G1 X80.732 Y99.614 E.01782
G1 X79.639 Y98.403 E.05114
G1 X78.483 Y97.605 E.04406
G1 X78.284 Y97.488 E.00722
G1 X76.776 Y96.93 E.05043
G1 X76.034 Y96.835 E.02346
M204 P1000
G1 X75.597 Y97.16 F9000
M204 P800
;TYPE:External perimeter
G1 F1200
G1 X75.597 Y94.17 E.09376
G1 X76.802 Y94.275 E.03793
G1 X78.385 Y94.697 E.05135
G1 X79.867 Y95.385 E.05126
G1 X81.24 Y96.348 E.05255
G1 X82.367 Y97.475 E.04997
G1 X83.317 Y98.829 E.05188
G1 X84.009 Y100.312 E.05131
G1 X84.433 Y101.892 E.05131
G1 X84.577 Y103.542 E.05191
G1 X84.577 Y129.314 E.80806
G1 X75.597 Y129.314 E.28156
G1 X75.597 Y109.887 E.60912
G1 X76.762 Y109.736 E.03683
G1 X78.146 Y109.21 E.04643
G1 X79.455 Y108.307 E.04986
G1 X80.476 Y107.146 E.04845
G1 X81.173 Y105.818 E.04704
G1 X81.553 Y104.274 E.04986
G1 X81.548 Y102.729 E.04845
G1 X81.189 Y101.272 E.04703
G1 X80.45 Y99.864 E.04986
G1 X79.422 Y98.712 E.0484
G1 X78.15 Y97.84 E.04835
G1 X76.728 Y97.304 E.04764
G1 X75.657 Y97.168 E.03388
M204 P1000
G1 X75.826 Y96.832 F9000
G1 E-2.24 F4200
;WIPE_START
G1 F7200
G1 X75.624 Y95.522 E-.912
;WIPE_END
G1 E-.048 F4200
G1 Z.4 F720
G1 X80.114 Y96.157 F9000
G1 Z.2 F720
G1 E3.2 F2400
M204 P800
;TYPE:Solid infill
;WIDTH:0.422086
G1 F1200
G1 X81.863 Y97.906 E.07797
G1 X82.744 Y99.16 E.04832
G1 X82.886 Y99.465 E.0106
G1 X79.244 Y95.824 E.16237
G1 X78.243 Y95.359 E.0348
G1 X83.355 Y100.47 E.2279
G1 X83.57 Y101.221 E.02463
G1 X77.494 Y95.146 E.27089
G1 X76.768 Y94.956 E.02367
G1 X83.766 Y101.954 E.31203
G1 X83.828 Y102.552 E.01897
G1 X81.259 Y99.983 E.11454
G1 X81.004 Y99.501 E.01718
G1 X79.911 Y98.262 E.05211
G1 X78.662 Y97.386 E.04809
G1 X76.257 Y94.981 E.10723
G1 X76.257 Y95.517 E.01691
G1 X77.706 Y96.967 E.06463
G1 X76.866 Y96.662 E.02818
G1 X76.087 Y95.884 E.03472
M204 P1000
G1 E-2.24 F4200
;WIPE_START
G1 F7200
G1 X76.866 Y96.662 E-.61031
G1 X77.378 Y96.848 E-.30169
;WIPE_END
G1 E-.048 F4200
G1 Z.4 F720
G1 X81.455 Y100.715 F9000
G1 Z.2 F720
G1 E3.2 F2400
M204 P800
G1 F1200
G1 X83.879 Y103.14 E.1081
G1 X83.917 Y103.714 E.01813
G1 X81.992 Y101.788 E.08585
G1 X82.162 Y102.494 E.0229
G1 X83.917 Y104.25 E.07828
G1 X83.917 Y104.786 E.01691
G1 X82.211 Y103.08 E.07607
G1 X82.212 Y103.617 E.01694
G1 X83.917 Y105.322 E.07603
G1 X83.917 Y105.858 E.01691
G1 X82.213 Y104.154 E.07599
G1 X82.19 Y104.471 E.01002
G1 X82.151 Y104.629 E.00511
G1 X83.917 Y106.395 E.07874
G1 X83.917 Y106.931 E.01691
G1 X82.045 Y105.059 E.08347
G1 X81.939 Y105.489 E.01397
G1 X83.917 Y107.467 E.0882
G1 X83.917 Y108.003 E.01691
G1 X81.833 Y105.919 E.09293
G1 X81.76 Y106.119 E.00672
G1 X81.669 Y106.292 E.00614
G1 X83.917 Y108.54 E.10023
G1 X83.917 Y109.076 E.01691
G1 X81.485 Y106.643 E.10845
G1 X81.3 Y106.995 E.01252
G1 X83.917 Y109.612 E.11668
G1 X83.917 Y110.148 E.01691
G1 X81.116 Y107.347 E.12491
G1 X81.057 Y107.458 E.00396
G1 X80.902 Y107.669 E.00827
G1 X83.917 Y110.684 E.13446
G1 X83.917 Y111.221 E.01691
G1 X80.65 Y107.953 E.14569
G1 X80.398 Y108.238 E.01198
G1 X83.917 Y111.757 E.15692
G1 X83.917 Y112.293 E.01691
G1 X80.146 Y108.522 E.16815
G1 X79.887 Y108.8 E.01196
G1 X83.917 Y112.829 E.17967
G1 X83.917 Y113.366 E.01691
G1 X79.579 Y109.028 E.19342
G1 X79.26 Y109.245 E.01217
G1 X83.917 Y113.902 E.20764
G1 X83.917 Y114.438 E.01691
G1 X78.941 Y109.462 E.22186
G1 X78.622 Y109.68 E.01217
G1 X83.917 Y114.974 E.23607
G1 X83.917 Y115.51 E.01691
G1 X78.272 Y109.866 E.25168
G1 X77.884 Y110.014 E.0131
G1 X83.917 Y116.047 E.26899
G1 X83.917 Y116.583 E.01691
G1 X77.496 Y110.162 E.28629
G1 X77.108 Y110.31 E.0131
G1 X83.917 Y117.119 E.3036
G1 X83.917 Y117.655 E.01691
G1 X76.678 Y110.417 E.32275
G1 X76.257 Y110.469 E.01339
G1 X76.257 Y110.531 E.00195
G1 X83.917 Y118.192 E.34155
G1 X83.917 Y118.728 E.01691
G1 X76.257 Y111.068 E.34155
G1 X76.257 Y111.604 E.01691
G1 X83.917 Y119.264 E.34155
G1 X83.917 Y119.8 E.01691
G1 X76.257 Y112.14 E.34155
G1 X76.257 Y112.676 E.01691
G1 X83.917 Y120.336 E.34155
G1 X83.917 Y120.873 E.01691
G1 X76.257 Y113.212 E.34155
G1 X76.257 Y113.749 E.01691
G1 X83.917 Y121.409 E.34155
G1 X83.917 Y121.945 E.01691
G1 X76.257 Y114.285 E.34155
G1 X76.257 Y114.821 E.01691
G1 X83.917 Y122.481 E.34155
G1 X83.917 Y123.018 E.01691
G1 X76.257 Y115.357 E.34155
G1 X76.257 Y115.894 E.01691
G1 X83.917 Y123.554 E.34155
G1 X83.917 Y124.09 E.01691
G1 X76.257 Y116.43 E.34155
G1 X76.257 Y116.966 E.01691
G1 X83.917 Y124.626 E.34155
G1 X83.917 Y125.162 E.01691
G1 X76.257 Y117.502 E.34155
G1 X76.257 Y118.038 E.01691
G1 X83.917 Y125.699 E.34155
G1 X83.917 Y126.235 E.01691
G1 X76.257 Y118.575 E.34155
G1 X76.257 Y119.111 E.01691
M73 P1 R101
G1 X83.917 Y126.771 E.34155
G1 X83.917 Y127.307 E.01691
G1 X76.257 Y119.647 E.34155
G1 X76.257 Y120.183 E.01691
G1 X83.917 Y127.844 E.34155
G1 X83.917 Y128.38 E.01691
G1 X76.257 Y120.72 E.34155
G1 X76.257 Y121.256 E.01691
G1 X83.655 Y128.654 E.32986
G1 X83.119 Y128.654 E.01691
G1 X76.257 Y121.792 E.30595
G1 X76.257 Y122.328 E.01691
G1 X82.583 Y128.654 E.28204
G1 X82.046 Y128.654 E.01691
G1 X76.257 Y122.864 E.25813
G1 X76.257 Y123.401 E.01691
G1 X81.51 Y128.654 E.23422
G1 X80.974 Y128.654 E.01691
G1 X76.257 Y123.937 E.21032
G1 X76.257 Y124.473 E.01691
G1 X80.438 Y128.654 E.18641
G1 X79.901 Y128.654 E.01691
G1 X76.257 Y125.009 E.1625
G1 X76.257 Y125.546 E.01691
G1 X79.365 Y128.654 E.13859
G1 X78.829 Y128.654 E.01691
G1 X76.257 Y126.082 E.11468
G1 X76.257 Y126.618 E.01691
G1 X78.293 Y128.654 E.09077
G1 X77.757 Y128.654 E.01691
G1 X76.257 Y127.154 E.06686
G1 X76.257 Y127.69 E.01691
G1 X77.22 Y128.654 E.04296
G1 X76.684 Y128.654 E.01691
G1 X76.087 Y128.057 E.02661
M204 P1000
; stop printing object grinder_catchment_rail_lock_pin.stl id:1 copy 0
; printing object grinder_catchment_rail_V2.stl id:0 copy 0
G1 E-2.24 F4200
;WIPE_START
G1 F7200
G1 X76.684 Y128.654 E-.46779
G1 X77.22 Y128.654 E-.29716
G1 X77.033 Y128.466 E-.14706
;WIPE_END
G1 E-.048 F4200
G1 Z.4 F720
G1 X113.446 Y145.669 F9000
G1 Z.2 F720
G1 E3.2 F2400
M204 P800
;TYPE:Support material
;WIDTH:0.42
G1 F1200
G1 X70.463 Y145.669 E1.34769
G1 X70.463 Y132.818 E.40294
G1 X88.119 Y132.818 E.55359
G1 X88.119 Y141.109 E.25997
G1 X88.4 Y141.391 E.01247
G1 X100.639 Y141.389 E.38375
G1 X100.957 Y141.347 E.01005
G1 X101.236 Y141.247 E.00929
G1 X101.486 Y141.094 E.00921
G1 X101.748 Y140.843 E.01136
G1 X101.938 Y140.542 E.01117
G1 X102.045 Y140.226 E.01045
G1 X102.079 Y139.924 E.00953
G1 X102.079 Y55.391 E2.65049
G1 X109.798 Y55.391 E.24202
G1 X110.079 Y55.109 E.01247
G1 X110.079 Y51.695 E.10707
G1 X113.446 Y51.695 E.10555
G1 X113.446 Y145.612 E2.94473
M204 P1000
G1 X112.903 Y145.499 F9000
M204 P800
G1 F1200
G1 X112.903 Y52.034 E2.93054
G1 X112.484 Y52.034 E.01314
M73 P1 R100
G1 X112.484 Y145.33 E2.92522
G1 X112.065 Y145.33 E.01314
G1 X112.065 Y52.034 E2.92522
G1 X111.646 Y52.034 E.01314
G1 X111.646 Y145.33 E2.92522
G1 X111.227 Y145.33 E.01314
G1 X111.227 Y52.034 E2.92522
G1 X110.808 Y52.034 E.01314
G1 X110.808 Y145.33 E2.92522
G1 X110.389 Y145.33 E.01314
G1 X110.389 Y55.279 E2.82347
G1 X109.97 Y55.698 E.01858
G1 X109.97 Y145.33 E2.81033
G1 X109.551 Y145.33 E.01314
G1 X109.551 Y55.73 E2.80934
G1 X109.132 Y55.73 E.01314
M73 P2 R100
G1 X109.132 Y145.33 E2.80934
G1 X108.713 Y145.33 E.01314
G1 X108.713 Y55.73 E2.80934
G1 X108.294 Y55.73 E.01314
G1 X108.294 Y145.33 E2.80934
G1 X107.875 Y145.33 E.01314
G1 X107.875 Y55.73 E2.80934
G1 X107.456 Y55.73 E.01314
G1 X107.456 Y145.33 E2.80934
G1 X107.037 Y145.33 E.01314
M73 P2 R99
G1 X107.037 Y55.73 E2.80934
G1 X106.618 Y55.73 E.01314
G1 X106.618 Y145.33 E2.80934
G1 X106.199 Y145.33 E.01314
G1 X106.199 Y55.73 E2.80934
G1 X105.78 Y55.73 E.01314
G1 X105.78 Y145.33 E2.80934
G1 X105.362 Y145.33 E.01314
G1 X105.362 Y55.73 E2.80934
G1 X104.943 Y55.73 E.01314
G1 X104.943 Y145.33 E2.80934
G1 X104.524 Y145.33 E.01314
G1 X104.524 Y55.73 E2.80934
G1 X104.105 Y55.73 E.01314
G1 X104.105 Y145.33 E2.80934
G1 X103.686 Y145.33 E.01314
G1 X103.686 Y55.73 E2.80934
G1 X103.267 Y55.73 E.01314
M73 P3 R99
G1 X103.267 Y145.33 E2.80934
G1 X102.848 Y145.33 E.01314
G1 X102.848 Y55.73 E2.80934
G1 X102.429 Y55.73 E.01314
G1 X102.429 Y145.33 E2.80934
G1 X102.01 Y145.33 E.01314
G1 X102.01 Y141.06 E.13388
G1 X101.784 Y141.29 E.01011
G1 X101.591 Y141.429 E.00746
G1 X101.591 Y145.33 E.12231
G1 X101.172 Y145.33 E.01314
G1 X101.172 Y141.631 E.11597
G1 X100.971 Y141.692 E.00658
G1 X100.753 Y141.718 E.00689
G1 X100.753 Y145.33 E.11325
G1 X100.334 Y145.33 E.01314
G1 X100.334 Y141.73 E.11287
G1 X99.915 Y141.73 E.01314
G1 X99.915 Y145.33 E.11287
G1 X99.496 Y145.33 E.01314
G1 X99.496 Y141.73 E.11287
G1 X99.077 Y141.73 E.01314
G1 X99.077 Y145.33 E.11287
G1 X98.658 Y145.33 E.01314
G1 X98.658 Y141.73 E.11287
G1 X98.239 Y141.73 E.01314
G1 X98.239 Y145.33 E.11287
G1 X97.82 Y145.33 E.01314
G1 X97.82 Y141.73 E.11287
G1 X97.401 Y141.73 E.01314
G1 X97.401 Y145.33 E.11287
G1 X96.982 Y145.33 E.01314
G1 X96.982 Y141.73 E.11287
G1 X96.563 Y141.73 E.01314
G1 X96.563 Y145.33 E.11287
G1 X96.144 Y145.33 E.01314
G1 X96.144 Y141.73 E.11287
G1 X95.725 Y141.73 E.01314
G1 X95.725 Y145.33 E.11287
G1 X95.306 Y145.33 E.01314
G1 X95.306 Y141.73 E.11287
G1 X94.887 Y141.73 E.01314
G1 X94.887 Y145.33 E.11287
G1 X94.468 Y145.33 E.01314
G1 X94.468 Y141.73 E.11287
G1 X94.049 Y141.73 E.01314
G1 X94.049 Y145.33 E.11287
G1 X93.63 Y145.33 E.01314
G1 X93.63 Y141.73 E.11287
G1 X93.211 Y141.73 E.01314
G1 X93.211 Y145.33 E.11287
G1 X92.792 Y145.33 E.01314
G1 X92.792 Y141.73 E.11287
G1 X92.373 Y141.73 E.01314
G1 X92.373 Y145.33 E.11287
G1 X91.954 Y145.33 E.01314
M73 P3 R98
G1 X91.954 Y141.73 E.11287
G1 X91.535 Y141.73 E.01314
G1 X91.535 Y145.33 E.11287
G1 X91.116 Y145.33 E.01314
G1 X91.116 Y141.73 E.11287
G1 X90.697 Y141.73 E.01314
G1 X90.697 Y145.33 E.11287
G1 X90.278 Y145.33 E.01314
G1 X90.278 Y141.73 E.11287
G1 X89.859 Y141.73 E.01314
G1 X89.859 Y145.33 E.11287
G1 X89.44 Y145.33 E.01314
G1 X89.44 Y141.73 E.11287
G1 X89.021 Y141.73 E.01314
G1 X89.021 Y145.33 E.11287
G1 X88.602 Y145.33 E.01314
G1 X88.602 Y141.73 E.11287
G1 X88.26 Y141.73 E.01075
G1 X88.183 Y141.654 E.00338
G1 X88.183 Y145.33 E.11526
G1 X87.764 Y145.33 E.01314
G1 X87.764 Y133.157 E.38165
G1 X87.345 Y133.157 E.01314
G1 X87.345 Y145.33 E.38165
G1 X86.927 Y145.33 E.01314
G1 X86.927 Y133.157 E.38165
G1 X86.508 Y133.157 E.01314
G1 X86.508 Y145.33 E.38165
G1 X86.089 Y145.33 E.01314
G1 X86.089 Y133.157 E.38165
G1 X85.67 Y133.157 E.01314
G1 X85.67 Y145.33 E.38165
G1 X85.251 Y145.33 E.01314
G1 X85.251 Y133.157 E.38165
G1 X84.832 Y133.157 E.01314
G1 X84.832 Y145.33 E.38165
G1 X84.413 Y145.33 E.01314
G1 X84.413 Y133.157 E.38165
G1 X83.994 Y133.157 E.01314
G1 X83.994 Y145.33 E.38165
G1 X83.575 Y145.33 E.01314
G1 X83.575 Y133.157 E.38165
G1 X83.156 Y133.157 E.01314
G1 X83.156 Y145.33 E.38165
G1 X82.737 Y145.33 E.01314
G1 X82.737 Y133.157 E.38165
G1 X82.318 Y133.157 E.01314
G1 X82.318 Y145.33 E.38165
G1 X81.899 Y145.33 E.01314
G1 X81.899 Y133.157 E.38165
G1 X81.48 Y133.157 E.01314
G1 X81.48 Y145.33 E.38165
G1 X81.061 Y145.33 E.01314
G1 X81.061 Y133.157 E.38165
G1 X80.642 Y133.157 E.01314
G1 X80.642 Y145.33 E.38165
G1 X80.223 Y145.33 E.01314
G1 X80.223 Y133.157 E.38165
G1 X79.804 Y133.157 E.01314
G1 X79.804 Y145.33 E.38165
G1 X79.385 Y145.33 E.01314
G1 X79.385 Y133.157 E.38165
G1 X78.966 Y133.157 E.01314
G1 X78.966 Y145.33 E.38165
G1 X78.547 Y145.33 E.01314
G1 X78.547 Y133.157 E.38165
G1 X78.128 Y133.157 E.01314
G1 X78.128 Y145.33 E.38165
G1 X77.709 Y145.33 E.01314
G1 X77.709 Y133.157 E.38165
G1 X77.29 Y133.157 E.01314
G1 X77.29 Y145.33 E.38165
G1 X76.871 Y145.33 E.01314
G1 X76.871 Y133.157 E.38165
G1 X76.452 Y133.157 E.01314
G1 X76.452 Y145.33 E.38165
G1 X76.033 Y145.33 E.01314
G1 X76.033 Y133.157 E.38165
G1 X75.614 Y133.157 E.01314
G1 X75.614 Y145.33 E.38165
G1 X75.195 Y145.33 E.01314
G1 X75.195 Y133.157 E.38165
G1 X74.776 Y133.157 E.01314
G1 X74.776 Y145.33 E.38165
G1 X74.357 Y145.33 E.01314
G1 X74.357 Y133.157 E.38165
G1 X73.938 Y133.157 E.01314
G1 X73.938 Y145.33 E.38165
G1 X73.519 Y145.33 E.01314
G1 X73.519 Y133.157 E.38165
G1 X73.1 Y133.157 E.01314
G1 X73.1 Y145.33 E.38165
G1 X72.681 Y145.33 E.01314
G1 X72.681 Y133.157 E.38165
G1 X72.262 Y133.157 E.01314
G1 X72.262 Y145.33 E.38165
G1 X71.843 Y145.33 E.01314
G1 X71.843 Y133.157 E.38165
G1 X71.424 Y133.157 E.01314
G1 X71.424 Y145.33 E.38165
