; generated by PrusaSlicer 2.5.0+linux-x64-GTK3 on 2023-05-14 at 11:06:36 UTC


;
;

;
;
; 

; external perimeters extrusion width = 0.45mm
; perimeters extrusion width = 0.45mm
; infill extrusion width = 0.45mm
; solid infill extrusion width = 0.45mm
; top infill extrusion width = 0.40mm
; support material extrusion width = 0.35mm
; first layer extrusion width = 0.42mm

M73 P0 R60
M201 X2500 Y2500 Z400 E5000 ; sets maximum accelerations, mm/sec^2
M203 X180 Y180 Z12 E80 ; sets maximum feedrates, mm / sec
M204 P1250 R1250 T2500 ; sets acceleration (P, T) and retract acceleration (R), mm/sec^2
M205 X8.00 Y8.00 Z2.00 E10.00 ; sets the jerk limits, mm/sec
M205 S0 T0 ; sets the minimum extruding and travel feed rate, mm/sec
M107
;TYPE:Custom
M862.3 P "MINI" ; printer model check
G90 ; use absolute coordinates
M83 ; extruder relative mode
M104 S170 ; set extruder temp for bed leveling
M140 S60 ; set bed temp
M109 R170 ; wait for bed leveling temp
M190 S60 ; wait for bed temp
M204 T1250 ; set travel acceleration
G28 ; home all without mesh bed level
G29 ; mesh bed leveling 
M204 T2500 ; restore travel acceleration
M104 S215 ; set extruder temp
G92 E0
G1 Y-2 X179 F2400
G1 Z3 F720
M109 S215 ; wait for extruder temp

; intro line
G1 X170 F1000
G1 Z0.2 F720
G1 X110 E8 F900
G1 X40 E10 F700
G92 E0

M221 S95 ; set flow
G21 ; set units to millimeters
G90 ; use absolute coordinates
M83 ; use relative distances for extrusion
M900 K0.2 ; Filament gcode LA 1.5
; ; Filament gcode LA 1.0
M107
;LAYER_CHANGE
;Z:0.2
;HEIGHT:0.2
;BEFORE_LAYER_CHANGE
G92 E0.0
;0.2


G1 E-3.2 F4200
M73 P0 R59
G1 Z.2 F720
;AFTER_LAYER_CHANGE
;0.2
G1 Z.4
G1 X78.746 Y51.027 F9000
G1 Z.2 F720
G1 E3.2 F2400
M204 P800
;TYPE:Skirt/Brim
;WIDTH:0.42
G1 F1200
G1 X79.596 Y49.96 E.04278
G1 X80.952 Y49.536 E.04453
G1 X101.952 Y49.536 E.65844
G1 X103.259 Y49.928 E.04278
G1 X104.135 Y50.973 E.04278
G1 X104.329 Y51.913 E.03008
G1 X104.329 Y128.913 E2.41428
G1 X103.937 Y130.22 E.04278
G1 X103.032 Y131.031 E.0381
G1 X95.481 Y134.882 E.26578
G1 X94.401 Y135.142 E.03483
G1 X76.914 Y135.142 E.54828
G1 X75.607 Y134.75 E.04278
G1 X74.73 Y133.704 E.04278
G1 X74.537 Y132.765 E.03008
G1 X74.537 Y61.968 E2.21977
G1 X74.708 Y61.083 E.02829
G1 X78.724 Y51.083 E.33787
M204 P1000
; printing object grinder_catchment_rail.stl id:0 copy 0
G1 E-2.24 F4200
;WIPE_START
G1 F7200
G1 X79.596 Y49.96 E-.78803
G1 X79.81 Y49.893 E-.12397
;WIPE_END
G1 E-.048 F4200
G1 Z.4 F720
G1 X80.472 Y65.112 F9000
G1 Z.2 F720
G1 E3.2 F2400
M204 P800
;TYPE:Support material
G1 F1200
G1 X80.753 Y65.393 E.01247
G1 X88.472 Y65.393 E.24202
G1 X88.473 Y127.954 E1.96156
G1 X88.509 Y128.246 E.00921
G1 X88.602 Y128.518 E.00901
G1 X88.802 Y128.846 E.01204
G1 X89.064 Y129.096 E.01136
G1 X89.315 Y129.249 E.00921
G1 X89.594 Y129.349 E.00929
G1 X89.938 Y129.393 E.01089
G1 X94.401 Y129.393 E.13991
G1 X94.401 Y132.765 E.10571
G1 X76.914 Y132.765 E.54828
G1 X76.914 Y61.968 E2.21977
G1 X80.472 Y61.968 E.11155
M73 P1 R59
G1 X80.472 Y65.055 E.09679
M204 P1000
G1 E-2.24 F4200
;WIPE_START
G1 F7200
G1 X80.472 Y63.41 E-.912
;WIPE_END
G1 E-.048 F4200
G1 Z.4 F720
G1 X93.966 Y132.595 F9000
G1 Z.2 F720
G1 E3.2 F2400
M204 P800
G1 F1200
G1 X93.966 Y129.732 E.08975
G1 X93.547 Y129.732 E.01314
G1 X93.547 Y132.425 E.08443
G1 X93.128 Y132.425 E.01314
G1 X93.128 Y129.732 E.08443
G1 X92.709 Y129.732 E.01314
G1 X92.709 Y132.425 E.08443
G1 X92.29 Y132.425 E.01314
G1 X92.29 Y129.732 E.08443
G1 X91.871 Y129.732 E.01314
G1 X91.871 Y132.425 E.08443
G1 X91.452 Y132.425 E.01314
G1 X91.452 Y129.732 E.08443
G1 X91.033 Y129.732 E.01314
G1 X91.033 Y132.425 E.08443
G1 X90.614 Y132.425 E.01314
G1 X90.614 Y129.732 E.08443
G1 X90.195 Y129.732 E.01314
G1 X90.195 Y132.425 E.08443
G1 X89.776 Y132.425 E.01314
G1 X89.776 Y129.718 E.08489
G1 X89.58 Y129.695 E.00618
G1 X89.357 Y129.626 E.00732
G1 X89.357 Y132.425 E.08778
G1 X88.938 Y132.425 E.01314
G1 X88.938 Y129.417 E.09431
G1 X88.767 Y129.292 E.00664
G1 X88.519 Y129.034 E.01123
G1 X88.519 Y132.425 E.10633
G1 X88.1 Y132.425 E.01314
G1 X88.1 Y65.732 E2.09111
G1 X87.681 Y65.732 E.01314
G1 X87.681 Y132.425 E2.09111
G1 X87.262 Y132.425 E.01314
G1 X87.262 Y65.732 E2.09111
G1 X86.843 Y65.732 E.01314
G1 X86.843 Y132.425 E2.09111
G1 X86.424 Y132.425 E.01314
G1 X86.424 Y65.732 E2.09111
G1 X86.005 Y65.732 E.01314
G1 X86.005 Y132.425 E2.09111
G1 X85.586 Y132.425 E.01314
G1 X85.586 Y65.732 E2.09111
G1 X85.167 Y65.732 E.01314
G1 X85.167 Y132.425 E2.09111
G1 X84.748 Y132.425 E.01314
G1 X84.748 Y65.732 E2.09111
G1 X84.329 Y65.732 E.01314
G1 X84.329 Y132.425 E2.09111
G1 X83.91 Y132.425 E.01314
M73 P2 R59
G1 X83.91 Y65.732 E2.09111
G1 X83.491 Y65.732 E.01314
M73 P2 R58
G1 X83.491 Y132.425 E2.09111
G1 X83.072 Y132.425 E.01314
G1 X83.072 Y65.732 E2.09111
G1 X82.653 Y65.732 E.01314
G1 X82.653 Y132.425 E2.09111
G1 X82.234 Y132.425 E.01314
G1 X82.234 Y65.732 E2.09111
G1 X81.815 Y65.732 E.01314
G1 X81.815 Y132.425 E2.09111
G1 X81.396 Y132.425 E.01314
G1 X81.396 Y65.732 E2.09111
G1 X80.977 Y65.732 E.01314
G1 X80.977 Y132.425 E2.09111
G1 X80.558 Y132.425 E.01314
G1 X80.558 Y65.678 E2.0928
G1 X80.139 Y65.259 E.01858
G1 X80.139 Y132.425 E2.10594
G1 X79.72 Y132.425 E.01314
G1 X79.72 Y62.308 E2.19849
G1 X79.301 Y62.308 E.01314
M73 P3 R58
G1 X79.301 Y132.425 E2.19849
G1 X78.882 Y132.425 E.01314
G1 X78.882 Y62.308 E2.19849
G1 X78.463 Y62.308 E.01314
G1 X78.463 Y132.425 E2.19849
G1 X78.044 Y132.425 E.01314
G1 X78.044 Y62.308 E2.19849
G1 X77.625 Y62.308 E.01314
G1 X77.625 Y132.595 E2.20381
M204 P1000
G1 E-2.24 F4200
;WIPE_START
G1 F7200
G1 X77.625 Y130.949 E-.912
;WIPE_END
G1 E-.048 F4200
G1 Z.4 F720
G1 X89.258 Y64.148 F9000
G1 Z.2 F720
G1 E3.2 F2400
M204 P800
;TYPE:Perimeter
;WIDTH:0.419999
G1 F1200
G1 X89.173 Y64.126 E.00276
G1 X81.739 Y64.126 E.2331
G1 X81.739 Y52.7 E.35825
G1 X101.165 Y52.7 E.60908
G1 X101.165 Y128.126 E2.36492
G1 X90.063 Y128.126 E.3481
G1 X89.992 Y128.118 E.00223
M73 P3 R57
G1 X89.798 Y128.036 E.00661
G1 X89.739 Y127.869 E.00556
G1 X89.739 Y64.692 E1.98088
G1 X89.734 Y64.619 E.00229
G1 X89.632 Y64.361 E.00871
G1 X89.45 Y64.198 E.00765
G1 X89.317 Y64.163 E.00432
M204 P1000
G1 X89.173 Y64.503 F9000
M204 P800
;TYPE:External perimeter
G1 F1200
G1 X81.362 Y64.503 E.24492
G1 X81.362 Y52.323 E.38189
G1 X101.542 Y52.323 E.63273
G1 X101.542 Y128.503 E2.38857
G1 X90.063 Y128.503 E.35992
M73 P4 R57
G1 X89.698 Y128.439 E.01161
G1 X89.495 Y128.277 E.00813
G1 X89.439 Y128.161 E.00405
G1 X89.362 Y127.89 E.00883
G1 X89.362 Y64.692 E1.98154
G1 X89.312 Y64.565 E.00427
G1 X89.228 Y64.527 E.00289
M204 P1000
G1 X89.07 Y64.117 F9000
G1 E-2.24 F4200
;WIPE_START
G1 F7200
G1 X87.582 Y64.522 E-.912
;WIPE_END
G1 E-.048 F4200
G1 Z.4 F720
G1 X83.658 Y56.298 F9000
G1 Z.2 F720
G1 E3.2 F2400
M204 P800
;TYPE:Perimeter
G1 F1200
G1 X83.809 Y55.865 E.01436
G1 X84.122 Y55.383 E.01803
G1 X84.541 Y54.989 E.01803
G1 X85.042 Y54.708 E.01803
G1 X85.597 Y54.554 E.01803
G1 X86.172 Y54.538 E.01803
G1 X86.734 Y54.659 E.01803
G1 X87.25 Y54.912 E.01803
G1 X87.691 Y55.281 E.01803
G1 X88.032 Y55.745 E.01803
G1 X88.251 Y56.276 E.01803
G1 X88.336 Y56.845 E.01803
G1 X88.283 Y57.418 E.01803
G1 X88.095 Y57.961 E.01803
G1 X87.782 Y58.443 E.01803
G1 X87.362 Y58.837 E.01803
G1 X86.861 Y59.119 E.01803
G1 X86.307 Y59.272 E.01803
G1 X85.732 Y59.288 E.01803
G1 X85.17 Y59.167 E.01803
G1 X84.653 Y58.914 E.01803
G1 X84.212 Y58.545 E.01803
G1 X83.872 Y58.082 E.01803
G1 X83.653 Y57.55 E.01803
G1 X83.567 Y56.981 E.01803
G1 X83.639 Y56.355 E.01977
M204 P1000
G1 X84.013 Y56.39 F9000
M204 P800
;TYPE:External perimeter
G1 F1200
G1 X84.182 Y55.959 E.01451
G1 X84.462 Y55.563 E.01519
G1 X84.828 Y55.246 E.0152
G1 X85.26 Y55.025 E.0152
G1 X85.732 Y54.915 E.0152
G1 X86.217 Y54.92 E.0152
G1 X86.686 Y55.042 E.0152
G1 X87.112 Y55.272 E.0152
G1 X87.472 Y55.597 E.0152
G1 X87.742 Y55.999 E.0152
G1 X87.909 Y56.454 E.01519
G1 X87.962 Y56.936 E.0152
G1 X87.898 Y57.416 E.0152
G1 X87.721 Y57.867 E.0152
G1 X87.441 Y58.263 E.0152
G1 X87.075 Y58.58 E.0152
G1 X86.643 Y58.801 E.0152
G1 X86.171 Y58.911 E.0152
G1 X85.687 Y58.906 E.0152
G1 X85.218 Y58.785 E.0152
G1 X84.791 Y58.555 E.0152
G1 X84.432 Y58.229 E.0152
G1 X84.161 Y57.827 E.0152
G1 X83.994 Y57.372 E.0152
G1 X83.941 Y56.936 E.01378
G1 X84.001 Y56.448 E.01541
M204 P1000
G1 X83.729 Y56.109 F9000
G1 E-2.24 F4200
;WIPE_START
G1 F7200
G1 X84.182 Y55.959 E-.28912
G1 X84.462 Y55.563 E-.26856
G1 X84.828 Y55.246 E-.26858
G1 X84.966 Y55.175 E-.08573
;WIPE_END
G1 E-.048 F4200
G1 Z.4 F720
G1 X95.217 Y75.963 F9000
G1 Z.2 F720
G1 E3.2 F2400
M204 P800
;TYPE:Perimeter
G1 F1200
G1 X95.582 Y75.632 E.01545
G1 X96.042 Y75.374 E.01653
G1 X96.597 Y75.221 E.01803
G1 X97.172 Y75.204 E.01803
G1 X97.734 Y75.326 E.01803
G1 X98.25 Y75.579 E.01803
G1 X98.691 Y75.947 E.01803
G1 X99.032 Y76.411 E.01803
G1 X99.251 Y76.943 E.01803
G1 X99.336 Y77.512 E.01803
G1 X99.283 Y78.084 E.01803
G1 X99.095 Y78.628 E.01803
G1 X98.782 Y79.11 E.01803
G1 X98.362 Y79.504 E.01803
G1 X97.861 Y79.785 E.01803
G1 X97.307 Y79.939 E.01803
G1 X96.732 Y79.955 E.01803
G1 X96.17 Y79.834 E.01803
G1 X95.653 Y79.581 E.01803
G1 X95.212 Y79.212 E.01803
G1 X94.872 Y78.748 E.01803
G1 X94.653 Y78.217 E.01803
G1 X94.567 Y77.648 E.01803
G1 X94.62 Y77.075 E.01803
G1 X94.809 Y76.532 E.01803
G1 X95.122 Y76.049 E.01804
G1 X95.173 Y76.003 E.00216
M204 P1000
G1 X95.465 Y76.227 F9000
M204 P800
;TYPE:External perimeter
G1 F1200
G1 X95.862 Y75.895 E.01622
G1 X96.26 Y75.692 E.01403
G1 X96.732 Y75.581 E.0152
G1 X97.217 Y75.587 E.0152
G1 X97.686 Y75.708 E.0152
G1 X98.112 Y75.938 E.01519
G1 X98.472 Y76.264 E.0152
G1 X98.742 Y76.666 E.0152
G1 X98.909 Y77.121 E.0152
G1 X98.962 Y77.602 E.01519
G1 X98.898 Y78.083 E.0152
G1 X98.721 Y78.534 E.0152
G1 X98.441 Y78.93 E.0152
G1 X98.075 Y79.247 E.0152
G1 X97.643 Y79.467 E.0152
G1 X97.171 Y79.578 E.0152
G1 X96.687 Y79.573 E.0152
G1 X96.218 Y79.451 E.0152
G1 X95.791 Y79.221 E.0152
G1 X95.432 Y78.896 E.0152
G1 X95.161 Y78.494 E.0152
G1 X94.994 Y78.039 E.0152
G1 X94.941 Y77.602 E.01378
G1 X95.005 Y77.077 E.01661
G1 X95.182 Y76.625 E.0152
G1 X95.43 Y76.276 E.01343
M204 P1000
G1 X95.347 Y75.845 F9000
G1 E-2.24 F4200
;WIPE_START
G1 F7200
G1 X95.862 Y75.895 E-.31894
G1 X96.26 Y75.692 E-.24789
G1 X96.732 Y75.581 E-.26858
G1 X96.87 Y75.583 E-.07658
;WIPE_END
G1 E-.048 F4200
G1 Z.4 F720
G1 X94.658 Y112.898 F9000
G1 Z.2 F720
G1 E3.2 F2400
M204 P800
;TYPE:Perimeter
G1 F1200
G1 X94.809 Y112.465 E.01436
G1 X95.122 Y111.983 E.01803
G1 X95.541 Y111.589 E.01803
G1 X96.042 Y111.308 E.01803
G1 X96.597 Y111.154 E.01803
G1 X97.171 Y111.138 E.01803
G1 X97.734 Y111.259 E.01803
G1 X98.25 Y111.512 E.01803
G1 X98.691 Y111.881 E.01803
G1 X99.032 Y112.345 E.01803
G1 X99.251 Y112.876 E.01803
G1 X99.336 Y113.445 E.01803
G1 X99.283 Y114.018 E.01803
G1 X99.095 Y114.561 E.01803
G1 X98.782 Y115.043 E.01803
G1 X98.362 Y115.437 E.01803
G1 X97.861 Y115.719 E.01803
G1 X97.307 Y115.872 E.01803
G1 X96.732 Y115.889 E.01803
G1 X96.17 Y115.767 E.01803
G1 X95.653 Y115.514 E.01803
G1 X95.212 Y115.145 E.01803
G1 X94.872 Y114.682 E.01803
G1 X94.653 Y114.15 E.01803
G1 X94.567 Y113.581 E.01803
G1 X94.639 Y112.955 E.01977
M204 P1000
G1 X95.013 Y112.99 F9000
M204 P800
;TYPE:External perimeter
G1 F1200
G1 X95.182 Y112.559 E.01451
G1 X95.462 Y112.163 E.0152
G1 X95.828 Y111.846 E.0152
G1 X96.26 Y111.625 E.0152
G1 X96.732 Y111.515 E.0152
G1 X97.217 Y111.52 E.0152
G1 X97.686 Y111.642 E.0152
G1 X98.112 Y111.872 E.0152
G1 X98.472 Y112.197 E.0152
G1 X98.742 Y112.599 E.0152
G1 X98.909 Y113.054 E.0152
G1 X98.962 Y113.536 E.0152
G1 X98.898 Y114.016 E.0152
G1 X98.721 Y114.467 E.0152
G1 X98.441 Y114.863 E.0152
G1 X98.075 Y115.18 E.0152
G1 X97.643 Y115.401 E.0152
G1 X97.171 Y115.511 E.0152
G1 X96.687 Y115.506 E.0152
G1 X96.218 Y115.385 E.0152
G1 X95.791 Y115.155 E.0152
G1 X95.432 Y114.829 E.0152
G1 X95.161 Y114.427 E.0152
G1 X94.994 Y113.972 E.0152
G1 X94.941 Y113.536 E.01378
G1 X95.001 Y113.048 E.01541
M204 P1000
G1 X94.729 Y112.709 F9000
G1 E-2.24 F4200
;WIPE_START
G1 F7200
G1 X95.182 Y112.559 E-.2891
G1 X95.462 Y112.163 E-.26857
G1 X95.828 Y111.846 E-.26858
G1 X95.966 Y111.775 E-.08575
;WIPE_END
G1 E-.048 F4200
G1 Z.4 F720
G1 X101.052 Y53.576 F9000
G1 Z.2 F720
G1 E3.2 F2400
M204 P800
;TYPE:Solid infill
;WIDTH:0.420163
G1 F1200
G1 X100.459 Y52.983 E.0263
G1 X99.925 Y52.983 E.01673
G1 X100.882 Y53.94 E.04244
G1 X100.882 Y54.473 E.01673
G1 X99.392 Y52.983 E.06611
G1 X98.858 Y52.983 E.01673
G1 X100.882 Y55.007 E.08978
G1 X100.882 Y55.54 E.01673
G1 X98.325 Y52.983 E.11344
G1 X97.791 Y52.983 E.01673
G1 X100.882 Y56.074 E.13711
G1 X100.882 Y56.607 E.01673
G1 X97.258 Y52.983 E.16078
G1 X96.724 Y52.983 E.01673
G1 X100.882 Y57.141 E.18444
G1 X100.882 Y57.674 E.01673
G1 X96.191 Y52.983 E.20811
G1 X95.657 Y52.983 E.01673
G1 X100.882 Y58.208 E.23178
G1 X100.882 Y58.741 E.01673
G1 X95.124 Y52.983 E.25544
G1 X94.59 Y52.983 E.01673
G1 X100.882 Y59.275 E.27911
G1 X100.882 Y59.808 E.01673
G1 X94.057 Y52.983 E.30278
G1 X93.523 Y52.983 E.01673
G1 X100.882 Y60.342 E.32644
G1 X100.882 Y60.875 E.01673
G1 X92.99 Y52.983 E.35011
G1 X92.456 Y52.983 E.01673
G1 X100.882 Y61.409 E.37378
G1 X100.882 Y61.942 E.01673
G1 X91.923 Y52.983 E.39744
G1 X91.389 Y52.983 E.01673
G1 X100.882 Y62.476 E.42111
G1 X100.882 Y63.009 E.01673
G1 X90.856 Y52.983 E.44477
G1 X90.322 Y52.983 E.01673
G1 X100.882 Y63.543 E.46844
G1 X100.882 Y64.076 E.01673
G1 X89.789 Y52.983 E.49211
G1 X89.255 Y52.983 E.01673
G1 X100.882 Y64.61 E.51577
G1 X100.882 Y65.143 E.01673
G1 X88.722 Y52.983 E.53944
G1 X88.188 Y52.983 E.01673
G1 X100.882 Y65.677 E.56311
G1 X100.882 Y66.21 E.01673
G1 X87.655 Y52.983 E.58677
G1 X87.121 Y52.983 E.01673
G1 X100.882 Y66.744 E.61044
G1 X100.882 Y67.277 E.01673
G1 X86.588 Y52.983 E.63411
G1 X86.054 Y52.983 E.01673
G1 X100.882 Y67.811 E.65777
G1 X100.882 Y68.344 E.01673
G1 X88.394 Y55.856 E.55398
G1 X88.267 Y55.589 E.00929
G1 X88.011 Y55.217 E.01414
G1 X87.883 Y55.073 E.00606
G1 X87.546 Y54.774 E.01414
G1 X87.387 Y54.664 E.00606
G1 X86.997 Y54.46 E.01379
G1 X85.521 Y52.983 E.06551
G1 X84.987 Y52.983 E.01673
G1 X86.27 Y54.266 E.05692
G1 X85.726 Y54.255 E.01709
G1 X84.454 Y52.983 E.05643
G1 X83.92 Y52.983 E.01673
G1 X85.278 Y54.341 E.06026
G1 X85.097 Y54.386 E.00587
G1 X84.878 Y54.475 E.0074
G1 X83.387 Y52.983 E.06617
G1 X82.853 Y52.983 E.01673
G1 X84.528 Y54.658 E.07431
G1 X84.227 Y54.89 E.01193
G1 X82.32 Y52.983 E.0846
G1 X82.022 Y52.983 E.00935
G1 X82.022 Y53.219 E.00739
G1 X83.952 Y55.149 E.08565
G1 X83.727 Y55.457 E.01197
G1 X82.022 Y53.752 E.07564
G1 X82.022 Y54.286 E.01673
G1 X83.532 Y55.796 E.06702
G1 X83.386 Y56.183 E.01298
G1 X82.022 Y54.819 E.06052
G1 X82.022 Y55.353 E.01673
G1 X83.307 Y56.638 E.05704
G1 X83.286 Y56.816 E.00563
G1 X83.306 Y57.17 E.01111
G1 X81.852 Y55.716 E.06448
M204 P1000
G1 E-2.24 F4200
;WIPE_START
G1 F7200
G1 X83.016 Y56.88 E-.912
;WIPE_END
G1 E-.048 F4200
G1 Z.4 F720
G1 X101.052 Y69.047 F9000
G1 Z.2 F720
G1 E3.2 F2400
M204 P800
G1 F1200
G1 X88.59 Y56.586 E.55282
G1 X88.618 Y56.816 E.00729
G1 X88.603 Y57.132 E.00992
G1 X100.882 Y69.411 E.54471
G1 X100.882 Y69.945 E.01673
G1 X88.531 Y57.594 E.54791
G1 X88.386 Y57.983 E.01302
G1 X100.882 Y70.478 E.55432
G1 X100.882 Y71.012 E.01673
G1 X88.198 Y58.328 E.56268
G1 X87.981 Y58.644 E.01204
G1 X100.882 Y71.545 E.5723
G1 X100.882 Y72.079 E.01673
G1 X87.708 Y58.905 E.5844
G1 X87.413 Y59.144 E.0119
M73 P5 R57
G1 X100.882 Y72.612 E.59748
G1 X100.882 Y73.146 E.01673
G1 X87.066 Y59.33 E.61287
G1 X86.807 Y59.44 E.00885
G1 X86.675 Y59.472 E.00426
G1 X100.882 Y73.679 E.63024
G1 X100.882 Y74.213 E.01673
G1 X86.23 Y59.561 E.64995
G1 X85.704 Y59.569 E.01651
G1 X100.882 Y74.746 E.6733
G1 X100.882 Y75.28 E.01673
G1 X85.009 Y59.407 E.70414
G1 X84.517 Y59.162 E.01724
G1 X84.358 Y59.052 E.00606
G1 X84.02 Y58.753 E.01414
G1 X83.892 Y58.609 E.00606
G1 X83.636 Y58.238 E.01414
G1 X83.471 Y57.869 E.01265
G1 X82.022 Y56.42 E.06432
G1 X82.022 Y56.953 E.01673
G1 X88.913 Y63.844 E.3057
G1 X88.379 Y63.844 E.01674
G1 X82.022 Y57.487 E.28203
G1 X82.022 Y58.02 E.01673
G1 X87.846 Y63.844 E.25836
G1 X87.312 Y63.844 E.01674
G1 X82.022 Y58.554 E.23469
G1 X82.022 Y59.087 E.01673
G1 X86.779 Y63.844 E.21102
G1 X86.245 Y63.844 E.01674
