; generated by PrusaSlicer 2.5.0+linux-x64-GTK3 on 2023-05-14 at 10:59:23 UTC


;
;

;
;
; 

; external perimeters extrusion width = 0.45mm
; perimeters extrusion width = 0.45mm
; infill extrusion width = 0.45mm
; solid infill extrusion width = 0.45mm
; top infill extrusion width = 0.40mm
; support material extrusion width = 0.35mm
; first layer extrusion width = 0.42mm

M73 P0 R60
M201 X2500 Y2500 Z400 E5000 ; sets maximum accelerations, mm/sec^2
M203 X180 Y180 Z12 E80 ; sets maximum feedrates, mm / sec
M204 P1250 R1250 T2500 ; sets acceleration (P, T) and retract acceleration (R), mm/sec^2
M205 X8.00 Y8.00 Z2.00 E10.00 ; sets the jerk limits, mm/sec
M205 S0 T0 ; sets the minimum extruding and travel feed rate, mm/sec
M107
;TYPE:Custom
M862.3 P "MINI" ; printer model check
G90 ; use absolute coordinates
M83 ; extruder relative mode
M104 S170 ; set extruder temp for bed leveling
M140 S60 ; set bed temp
M109 R170 ; wait for bed leveling temp
M190 S60 ; wait for bed temp
M204 T1250 ; set travel acceleration
G28 ; home all without mesh bed level
G29 ; mesh bed leveling 
M204 T2500 ; restore travel acceleration
M104 S215 ; set extruder temp
G92 E0
G1 Y-2 X179 F2400
G1 Z3 F720
M109 S215 ; wait for extruder temp

; intro line
G1 X170 F1000
G1 Z0.2 F720
G1 X110 E8 F900
G1 X40 E10 F700
G92 E0

M221 S95 ; set flow
G21 ; set units to millimeters
G90 ; use absolute coordinates
M83 ; use relative distances for extrusion
M900 K0.2 ; Filament gcode LA 1.5
; ; Filament gcode LA 1.0
M107
;LAYER_CHANGE
;Z:0.2
;HEIGHT:0.2
;BEFORE_LAYER_CHANGE
G92 E0.0
;0.2


G1 E-3.2 F4200
G1 Z.2 F720
;AFTER_LAYER_CHANGE
;0.2
G1 Z.4
G1 X78.966 Y50.606 F9000
G1 Z.2 F720
G1 E3.2 F2400
M204 P800
;TYPE:Skirt/Brim
;WIDTH:0.42
G1 F1200
G1 X80.012 Y49.73 E.04278
G1 X80.952 Y49.536 E.03008
G1 X101.952 Y49.536 E.65844
G1 X103.259 Y49.928 E.04278
G1 X104.158 Y51.027 E.04453
G1 X108.195 Y61.083 E.33975
G1 X108.367 Y61.968 E.02829
G1 X108.367 Y132.765 E2.21977
G1 X107.975 Y134.072 E.04278
G1 X106.929 Y134.948 E.04278
G1 X105.99 Y135.142 E.03008
G1 X88.503 Y135.142 E.54828
G1 X87.423 Y134.882 E.03483
G1 X79.872 Y131.031 E.26578
G1 X78.885 Y130.088 E.04278
G1 X78.575 Y128.913 E.0381
G1 X78.575 Y51.913 E2.41428
G1 X78.949 Y50.664 E.0409
M204 P1000
; printing object grinder_catchment_rail.stl id:0 copy 0
G1 E-2.24 F4200
;WIPE_START
G1 F7200
G1 X80.012 Y49.73 E-.78411
G1 X80.238 Y49.683 E-.12789
;WIPE_END
G1 E-.048 F4200
G1 Z.4 F720
G1 X105.99 Y132.765 F9000
G1 Z.2 F720
G1 E3.2 F2400
M204 P800
;TYPE:Support material
G1 F1200
M73 P0 R59
G1 X88.503 Y132.765 E.54828
G1 X88.503 Y129.393 E.10571
G1 X92.965 Y129.393 E.13991
G1 X93.31 Y129.349 E.01089
G1 X93.589 Y129.249 E.00929
G1 X93.839 Y129.096 E.00921
G1 X94.101 Y128.846 E.01136
G1 X94.301 Y128.518 E.01204
G1 X94.398 Y128.229 E.00955
G1 X94.43 Y127.953 E.0087
G1 X94.432 Y65.393 E1.96153
G1 X102.151 Y65.393 E.24202
G1 X102.432 Y65.112 E.01247
G1 X102.432 Y61.968 E.09856
G1 X105.99 Y61.968 E.11155
G1 X105.99 Y132.708 E2.21799
M204 P1000
G1 X105.278 Y132.595 F9000
M204 P800
M73 P1 R59
G1 F1200
G1 X105.278 Y62.308 E2.20381
G1 X104.859 Y62.308 E.01314
G1 X104.859 Y132.425 E2.19849
G1 X104.44 Y132.425 E.01314
G1 X104.44 Y62.308 E2.19849
G1 X104.021 Y62.308 E.01314
G1 X104.021 Y132.425 E2.19849
G1 X103.602 Y132.425 E.01314
G1 X103.602 Y62.308 E2.19849
G1 X103.183 Y62.308 E.01314
G1 X103.183 Y132.425 E2.19849
G1 X102.764 Y132.425 E.01314
G1 X102.764 Y65.259 E2.10594
G1 X102.345 Y65.678 E.01858
G1 X102.345 Y132.425 E2.0928
G1 X101.926 Y132.425 E.01314
G1 X101.926 Y65.732 E2.09111
G1 X101.507 Y65.732 E.01314
G1 X101.507 Y132.425 E2.09111
G1 X101.088 Y132.425 E.01314
G1 X101.088 Y65.732 E2.09111
G1 X100.669 Y65.732 E.01314
M73 P2 R59
G1 X100.669 Y132.425 E2.09111
G1 X100.25 Y132.425 E.01314
G1 X100.25 Y65.732 E2.09111
G1 X99.831 Y65.732 E.01314
G1 X99.831 Y132.425 E2.09111
G1 X99.412 Y132.425 E.01314
G1 X99.412 Y65.732 E2.09111
G1 X98.993 Y65.732 E.01314
M73 P2 R58
G1 X98.993 Y132.425 E2.09111
G1 X98.574 Y132.425 E.01314
G1 X98.574 Y65.732 E2.09111
G1 X98.155 Y65.732 E.01314
G1 X98.155 Y132.425 E2.09111
G1 X97.736 Y132.425 E.01314
G1 X97.736 Y65.732 E2.09111
G1 X97.317 Y65.732 E.01314
G1 X97.317 Y132.425 E2.09111
G1 X96.898 Y132.425 E.01314
G1 X96.898 Y65.732 E2.09111
G1 X96.479 Y65.732 E.01314
M73 P3 R58
G1 X96.479 Y132.425 E2.09111
G1 X96.06 Y132.425 E.01314
G1 X96.06 Y65.732 E2.09111
G1 X95.642 Y65.732 E.01314
G1 X95.642 Y132.425 E2.09111
G1 X95.223 Y132.425 E.01314
G1 X95.223 Y65.732 E2.09111
G1 X94.804 Y65.732 E.01314
G1 X94.804 Y132.425 E2.09111
G1 X94.385 Y132.425 E.01314
G1 X94.385 Y129.034 E.10633
G1 X94.137 Y129.292 E.01123
G1 X93.966 Y129.417 E.00664
G1 X93.966 Y132.425 E.09431
G1 X93.547 Y132.425 E.01314
G1 X93.547 Y129.626 E.08778
G1 X93.324 Y129.695 E.00732
G1 X93.128 Y129.718 E.00618
G1 X93.128 Y132.425 E.08489
G1 X92.709 Y132.425 E.01314
G1 X92.709 Y129.732 E.08443
G1 X92.29 Y129.732 E.01314
G1 X92.29 Y132.425 E.08443
G1 X91.871 Y132.425 E.01314
G1 X91.871 Y129.732 E.08443
G1 X91.452 Y129.732 E.01314
G1 X91.452 Y132.425 E.08443
G1 X91.033 Y132.425 E.01314
G1 X91.033 Y129.732 E.08443
G1 X90.614 Y129.732 E.01314
G1 X90.614 Y132.425 E.08443
G1 X90.195 Y132.425 E.01314
G1 X90.195 Y129.732 E.08443
G1 X89.776 Y129.732 E.01314
G1 X89.776 Y132.425 E.08443
G1 X89.357 Y132.425 E.01314
G1 X89.357 Y129.732 E.08443
G1 X88.938 Y129.732 E.01314
G1 X88.938 Y132.595 E.08975
M204 P1000
G1 E-2.24 F4200
;WIPE_START
G1 F7200
G1 X88.938 Y130.949 E-.912
;WIPE_END
G1 E-.048 F4200
G1 Z.4 F720
G1 X93.705 Y64.134 F9000
G1 Z.2 F720
G1 E3.2 F2400
M204 P800
;TYPE:Perimeter
;WIDTH:0.419999
G1 F1200
G1 X93.632 Y64.135 E.00227
G1 X93.418 Y64.22 E.00724
G1 X93.236 Y64.418 E.00843
G1 X93.165 Y64.692 E.00888
G1 X93.157 Y127.873 E1.98101
G1 X93.075 Y128.067 E.00661
G1 X92.907 Y128.126 E.00556
G1 X81.739 Y128.126 E.35018
G1 X81.739 Y52.7 E2.36492
G1 X101.165 Y52.7 E.60908
G1 X101.165 Y64.126 E.35825
G1 X93.765 Y64.133 E.23202
M204 P1000
G1 X93.73 Y64.503 F9000
M204 P800
;TYPE:External perimeter
G1 F1200
G1 X93.608 Y64.548 E.00408
G1 X93.542 Y64.692 E.00496
G1 X93.542 Y127.802 E1.97879
G1 X93.477 Y128.167 E.0116
G1 X93.316 Y128.37 E.00813
G1 X93.199 Y128.426 E.00405
G1 X92.929 Y128.503 E.00883
G1 X81.362 Y128.503 E.36267
G1 X81.362 Y52.323 E2.38857
G1 X101.542 Y52.323 E.63273
M73 P4 R58
G1 X101.542 Y64.503 E.38189
G1 X93.79 Y64.503 E.24304
M204 P1000
G1 X93.615 Y64.443 F9000
M73 P4 R57
G1 E-2.24 F4200
;WIPE_START
G1 F7200
G1 X93.608 Y64.548 E-.10393
G1 X93.542 Y64.692 E-.08772
G1 X93.542 Y65.992 E-.72035
;WIPE_END
G1 E-.048 F4200
G1 Z.4 F720
G1 X95.644 Y54.932 F9000
G1 Z.2 F720
G1 E3.2 F2400
M204 P800
;TYPE:Perimeter
G1 F1200
G1 X96.042 Y54.708 E.01434
G1 X96.597 Y54.554 E.01803
G1 X97.171 Y54.538 E.01803
G1 X97.734 Y54.659 E.01803
G1 X98.25 Y54.912 E.01803
G1 X98.691 Y55.281 E.01803
G1 X99.031 Y55.745 E.01803
G1 X99.251 Y56.276 E.01803
G1 X99.332 Y56.808 E.01686
G1 X99.285 Y57.407 E.01884
G1 X99.095 Y57.961 E.01836
G1 X98.782 Y58.443 E.01803
G1 X98.362 Y58.837 E.01803
G1 X97.894 Y59.101 E.01686
G1 X97.317 Y59.269 E.01884
G1 X96.732 Y59.288 E.01836
G1 X96.17 Y59.167 E.01803
G1 X95.653 Y58.914 E.01803
G1 X95.212 Y58.545 E.01803
G1 X94.872 Y58.082 E.01803
G1 X94.653 Y57.55 E.01803
G1 X94.567 Y56.981 E.01803
G1 X94.62 Y56.409 E.01803
G1 X94.809 Y55.865 E.01803
G1 X95.122 Y55.383 E.01803
G1 X95.541 Y54.989 E.01803
G1 X95.591 Y54.961 E.00181
M204 P1000
G1 X95.848 Y55.236 F9000
M204 P800
;TYPE:External perimeter
G1 F1200
G1 X96.26 Y55.025 E.01451
G1 X96.732 Y54.915 E.0152
G1 X97.217 Y54.92 E.0152
G1 X97.686 Y55.042 E.0152
G1 X98.112 Y55.272 E.0152
G1 X98.471 Y55.597 E.0152
G1 X98.742 Y55.999 E.0152
G1 X98.909 Y56.454 E.0152
G1 X98.958 Y56.895 E.01392
G1 X98.898 Y57.416 E.01644
G1 X98.721 Y57.867 E.0152
G1 X98.441 Y58.263 E.0152
G1 X98.075 Y58.58 E.0152
G1 X97.68 Y58.783 E.01392
G1 X97.172 Y58.911 E.01644
G1 X96.687 Y58.906 E.0152
G1 X96.218 Y58.785 E.0152
G1 X95.791 Y58.555 E.0152
G1 X95.432 Y58.229 E.0152
G1 X95.161 Y57.827 E.0152
G1 X94.994 Y57.372 E.01519
G1 X94.941 Y56.936 E.01378
G1 X95.005 Y56.41 E.01661
G1 X95.182 Y55.959 E.0152
G1 X95.462 Y55.563 E.0152
G1 X95.8 Y55.271 E.014
M204 P1000
G1 X95.821 Y54.837 F9000
G1 E-2.24 F4200
;WIPE_START
G1 F7200
G1 X96.26 Y55.025 E-.28913
G1 X96.732 Y54.915 E-.26858
G1 X97.217 Y54.92 E-.26858
G1 X97.366 Y54.959 E-.08571
;WIPE_END
G1 E-.048 F4200
G1 Z.4 F720
G1 X83.658 Y76.965 F9000
G1 Z.2 F720
G1 E3.2 F2400
M204 P800
;TYPE:Perimeter
G1 F1200
G1 X83.809 Y76.532 E.01436
G1 X84.122 Y76.05 E.01803
G1 X84.541 Y75.656 E.01803
G1 X85.042 Y75.374 E.01803
G1 X85.597 Y75.221 E.01803
G1 X86.171 Y75.204 E.01803
G1 X86.734 Y75.326 E.01803
G1 X87.25 Y75.579 E.01803
G1 X87.691 Y75.947 E.01803
G1 X88.031 Y76.411 E.01803
G1 X88.251 Y76.943 E.01803
G1 X88.336 Y77.512 E.01803
G1 X88.283 Y78.084 E.01803
G1 X88.095 Y78.628 E.01803
G1 X87.782 Y79.11 E.01803
G1 X87.362 Y79.503 E.01803
G1 X86.861 Y79.785 E.01803
G1 X86.307 Y79.939 E.01803
G1 X85.732 Y79.955 E.01803
G1 X85.206 Y79.843 E.01686
G1 X84.663 Y79.586 E.01884
G1 X84.212 Y79.212 E.01836
G1 X83.872 Y78.748 E.01803
G1 X83.653 Y78.217 E.01803
G1 X83.567 Y77.648 E.01803
G1 X83.639 Y77.021 E.01977
M204 P1000
G1 X84.013 Y77.056 F9000
M204 P800
;TYPE:External perimeter
G1 F1200
G1 X84.182 Y76.625 E.01451
G1 X84.462 Y76.23 E.0152
G1 X84.828 Y75.912 E.0152
G1 X85.26 Y75.692 E.0152
G1 X85.732 Y75.581 E.0152
G1 X86.217 Y75.587 E.0152
G1 X86.686 Y75.708 E.0152
G1 X87.112 Y75.938 E.0152
G1 X87.471 Y76.264 E.01519
G1 X87.742 Y76.666 E.0152
G1 X87.909 Y77.121 E.0152
G1 X87.962 Y77.602 E.0152
G1 X87.898 Y78.083 E.0152
G1 X87.721 Y78.534 E.0152
G1 X87.441 Y78.93 E.0152
G1 X87.075 Y79.247 E.0152
G1 X86.643 Y79.467 E.0152
G1 X86.171 Y79.578 E.0152
G1 X85.687 Y79.573 E.0152
G1 X85.257 Y79.462 E.01392
G1 X84.791 Y79.221 E.01644
G1 X84.432 Y78.896 E.0152
G1 X84.161 Y78.494 E.0152
G1 X83.994 Y78.039 E.0152
G1 X83.941 Y77.602 E.01378
G1 X84.001 Y77.115 E.01541
M204 P1000
G1 X83.729 Y76.775 F9000
G1 E-2.24 F4200
;WIPE_START
G1 F7200
G1 X84.182 Y76.625 E-.28912
G1 X84.462 Y76.23 E-.26859
G1 X84.828 Y75.912 E-.26857
G1 X84.966 Y75.842 E-.08573
;WIPE_END
G1 E-.048 F4200
G1 Z.4 F720
G1 X84.563 Y115.439 F9000
G1 Z.2 F720
G1 E3.2 F2400
M204 P800
;TYPE:Perimeter
G1 F1200
G1 X84.212 Y115.145 E.01434
G1 X83.872 Y114.682 E.01803
G1 X83.653 Y114.15 E.01803
G1 X83.567 Y113.581 E.01803
G1 X83.62 Y113.009 E.01803
G1 X83.809 Y112.465 E.01803
G1 X84.1 Y112.014 E.01686
G1 X84.533 Y111.597 E.01884
G1 X85.042 Y111.308 E.01836
G1 X85.597 Y111.154 E.01803
G1 X86.171 Y111.138 E.01803
G1 X86.697 Y111.25 E.01686
G1 X87.241 Y111.507 E.01884
G1 X87.691 Y111.881 E.01837
G1 X88.031 Y112.345 E.01803
G1 X88.251 Y112.876 E.01803
G1 X88.332 Y113.408 E.01686
G1 X88.285 Y114.007 E.01884
G1 X88.095 Y114.561 E.01836
G1 X87.782 Y115.043 E.01803
G1 X87.362 Y115.437 E.01803
G1 X86.861 Y115.719 E.01803
G1 X86.307 Y115.872 E.01803
G1 X85.732 Y115.889 E.01803
G1 X85.17 Y115.767 E.01803
G1 X84.653 Y115.514 E.01803
G1 X84.609 Y115.477 E.00181
M204 P1000
G1 X84.775 Y115.14 F9000
M204 P800
;TYPE:External perimeter
G1 F1200
G1 X84.432 Y114.829 E.01453
G1 X84.161 Y114.427 E.0152
G1 X83.994 Y113.972 E.0152
G1 X83.941 Y113.536 E.01378
G1 X84.005 Y113.01 E.01661
G1 X84.182 Y112.559 E.0152
G1 X84.438 Y112.196 E.01392
G1 X84.828 Y111.846 E.01644
G1 X85.26 Y111.625 E.0152
G1 X85.732 Y111.515 E.0152
G1 X86.217 Y111.52 E.0152
G1 X86.646 Y111.631 E.01392
G1 X87.112 Y111.871 E.01644
G1 X87.471 Y112.197 E.0152
G1 X87.742 Y112.599 E.0152
G1 X87.909 Y113.054 E.0152
G1 X87.958 Y113.495 E.01392
G1 X87.898 Y114.016 E.01644
G1 X87.721 Y114.467 E.0152
G1 X87.441 Y114.863 E.0152
G1 X87.075 Y115.18 E.0152
G1 X86.643 Y115.401 E.0152
G1 X86.171 Y115.511 E.0152
G1 X85.687 Y115.506 E.0152
G1 X85.218 Y115.385 E.0152
G1 X84.825 Y115.173 E.01398
M204 P1000
G1 X84.412 Y115.307 F9000
G1 E-2.24 F4200
;WIPE_START
G1 F7200
G1 X84.432 Y114.829 E-.2894
G1 X84.161 Y114.427 E-.26858
G1 X83.994 Y113.972 E-.26858
G1 X83.976 Y113.819 E-.08544
;WIPE_END
G1 E-.048 F4200
G1 Z.4 F720
G1 X101.052 Y53.576 F9000
G1 Z.2 F720
G1 E3.2 F2400
M204 P800
;TYPE:Solid infill
;WIDTH:0.420341
G1 F1200
G1 X100.458 Y52.983 E.02633
G1 X99.924 Y52.983 E.01675
G1 X100.882 Y53.94 E.04249
G1 X100.882 Y54.474 E.01675
G1 X99.391 Y52.983 E.06618
G1 X98.857 Y52.983 E.01675
G1 X100.882 Y55.008 E.08987
G1 X100.882 Y55.542 E.01675
G1 X98.323 Y52.983 E.11356
G1 X97.789 Y52.983 E.01675
G1 X100.882 Y56.075 E.13725
G1 X100.882 Y56.609 E.01675
G1 X97.256 Y52.983 E.16093
G1 X96.722 Y52.983 E.01675
G1 X100.882 Y57.143 E.18462
G1 X100.882 Y57.677 E.01675
G1 X99.56 Y56.355 E.05867
G1 X99.613 Y56.779 E.01342
G1 X99.615 Y56.943 E.00516
G1 X100.882 Y58.21 E.05624
G1 X100.882 Y58.744 E.01675
G1 X99.567 Y57.429 E.05837
G1 X99.517 Y57.644 E.00693
G1 X99.443 Y57.839 E.00655
G1 X100.882 Y59.278 E.06384
G1 X100.882 Y59.812 E.01675
G1 X99.281 Y58.211 E.07103
G1 X99.066 Y58.529 E.01206
G1 X100.882 Y60.345 E.08059
G1 X100.882 Y60.879 E.01675
G1 X98.816 Y58.813 E.0917
G1 X98.531 Y59.062 E.01187
G1 X100.882 Y61.413 E.10433
G1 X100.882 Y61.947 E.01675
G1 X98.194 Y59.259 E.1193
G1 X97.9 Y59.405 E.0103
G1 X97.826 Y59.425 E.00239
G1 X100.882 Y62.48 E.13561
G1 X100.882 Y63.014 E.01675
G1 X97.404 Y59.536 E.15435
G1 X97.315 Y59.56 E.00288
G1 X96.902 Y59.568 E.01297
G1 X101.052 Y63.718 E.18417
M204 P1000
G1 E-2.24 F4200
;WIPE_START
G1 F7200
G1 X99.888 Y62.554 E-.912
;WIPE_END
G1 E-.048 F4200
G1 Z.4 F720
G1 X96.019 Y52.813 F9000
G1 Z.2 F720
G1 E3.2 F2400
M204 P800
G1 F1200
G1 X97.521 Y54.316 E.06668
G1 X97.177 Y54.255 E.01095
G1 X96.926 Y54.255 E.00787
G1 X95.654 Y52.983 E.05645
G1 X95.121 Y52.983 E.01675
G1 X96.439 Y54.302 E.05852
G1 X96.019 Y54.415 E.01366
G1 X94.587 Y52.983 E.06357
G1 X94.053 Y52.983 E.01675
G1 X95.659 Y54.589 E.07129
G1 X95.517 Y54.664 E.00506
G1 X95.333 Y54.796 E.00711
G1 X93.519 Y52.983 E.08047
G1 X92.986 Y52.983 E.01675
G1 X95.05 Y55.047 E.0916
G1 X94.892 Y55.217 E.00729
G1 X94.808 Y55.339 E.00464
G1 X92.452 Y52.983 E.10457
G1 X91.918 Y52.983 E.01675
G1 X94.597 Y55.662 E.11891
G1 X94.44 Y56.039 E.01281
G1 X91.384 Y52.983 E.13563
G1 X90.851 Y52.983 E.01675
G1 X94.329 Y56.461 E.15437
G1 X94.286 Y56.952 E.01546
G1 X90.317 Y52.983 E.17614
G1 X89.783 Y52.983 E.01675
G1 X94.361 Y57.561 E.20319
G1 X94.58 Y58.143 E.01951
G1 X94.946 Y58.679 E.02038
G1 X95.357 Y59.052 E.01741
G1 X95.517 Y59.162 E.00608
G1 X95.916 Y59.372 E.01415
G1 X96.287 Y59.487 E.0122
G1 X100.643 Y63.843 E.19333
G1 X100.11 Y63.843 E.01675
G1 X89.249 Y52.983 E.482
G1 X88.716 Y52.983 E.01675
G1 X99.576 Y63.843 E.48201
G1 X99.042 Y63.844 E.01675
G1 X88.182 Y52.983 E.48201
G1 X87.648 Y52.983 E.01675
G1 X98.509 Y63.844 E.48201
G1 X97.975 Y63.844 E.01675
G1 X87.114 Y52.983 E.48202
G1 X86.581 Y52.983 E.01675
G1 X97.441 Y63.844 E.48202
G1 X96.908 Y63.844 E.01675
G1 X86.047 Y52.983 E.48203
G1 X85.513 Y52.983 E.01675
G1 X96.374 Y63.844 E.48203
G1 X95.84 Y63.844 E.01675
G1 X84.979 Y52.983 E.48203
G1 X84.446 Y52.983 E.01675
G1 X95.307 Y63.844 E.48204
G1 X94.773 Y63.844 E.01675
G1 X83.912 Y52.983 E.48204
G1 X83.378 Y52.983 E.01675
G1 X94.239 Y63.844 E.48204
G1 X93.706 Y63.844 E.01675
G1 X82.844 Y52.983 E.48205
G1 X82.311 Y52.983 E.01675
G1 X93.3 Y63.972 E.48772
G1 X93.15 Y64.071 E.00564
G1 X93.025 Y64.231 E.00637
G1 X82.022 Y53.228 E.48835
G1 X82.022 Y53.761 E.01675
G1 X92.888 Y64.628 E.48228
G1 X92.888 Y65.162 E.01675
G1 X82.022 Y54.295 E.48227
G1 X82.022 Y54.829 E.01675
G1 X92.888 Y65.695 E.48227
G1 X92.888 Y66.229 E.01675
G1 X82.022 Y55.363 E.48227
G1 X82.022 Y55.896 E.01675
G1 X92.888 Y66.763 E.48227
G1 X92.888 Y67.296 E.01675
G1 X82.022 Y56.43 E.48226
G1 X82.022 Y56.964 E.01675
G1 X92.888 Y67.83 E.48226
G1 X92.888 Y68.364 E.01675
G1 X82.022 Y57.498 E.48226
G1 X82.022 Y58.032 E.01675
G1 X92.888 Y68.898 E.48226
G1 X92.888 Y69.431 E.01675
M73 P5 R57
G1 X82.022 Y58.565 E.48225
G1 X82.022 Y59.099 E.01675
G1 X92.888 Y69.965 E.48225
G1 X92.888 Y70.499 E.01675
G1 X82.022 Y59.633 E.48225
G1 X82.022 Y60.167 E.01675
G1 X92.887 Y71.032 E.48225
G1 X92.887 Y71.566 E.01675
G1 X82.022 Y60.7 E.48225
G1 X82.022 Y61.234 E.01675
G1 X92.887 Y72.1 E.48224
