; generated by PrusaSlicer 2.5.2+linux-x64-GTK3 on 2023-05-16 at 07:33:54 UTC


;
;

;
;
; 

; external perimeters extrusion width = 0.45mm
; perimeters extrusion width = 0.45mm
; infill extrusion width = 0.45mm
; solid infill extrusion width = 0.45mm
; top infill extrusion width = 0.40mm
; support material extrusion width = 0.35mm
; first layer extrusion width = 0.42mm

; external perimeters extrusion width = 0.45mm
; perimeters extrusion width = 0.45mm
; infill extrusion width = 0.45mm
; solid infill extrusion width = 0.45mm
; top infill extrusion width = 0.40mm
; support material extrusion width = 0.35mm
; first layer extrusion width = 0.42mm

; external perimeters extrusion width = 0.45mm
; perimeters extrusion width = 0.45mm
; infill extrusion width = 0.45mm
; solid infill extrusion width = 0.45mm
; top infill extrusion width = 0.40mm
; support material extrusion width = 0.35mm
; first layer extrusion width = 0.42mm

M73 P0 R103
M201 X2500 Y2500 Z400 E5000 ; sets maximum accelerations, mm/sec^2
M203 X180 Y180 Z12 E80 ; sets maximum feedrates, mm / sec
M204 P2000 R1250 T2500 ; sets acceleration (P, T) and retract acceleration (R), mm/sec^2
M205 X8.00 Y8.00 Z2.00 E10.00 ; sets the jerk limits, mm/sec
M205 S0 T0 ; sets the minimum extruding and travel feed rate, mm/sec
M107
;TYPE:Custom
M862.3 P "MINI" ; printer model check
G90 ; use absolute coordinates
M83 ; extruder relative mode
M104 S170 ; set extruder temp for bed leveling
M140 S60 ; set bed temp
M109 R170 ; wait for bed leveling temp
M190 S60 ; wait for bed temp
M204 T1250 ; set travel acceleration
G28 ; home all without mesh bed level
G29 ; mesh bed leveling 
M204 T2500 ; restore travel acceleration
M104 S215 ; set extruder temp
G92 E0
G1 Y-2 X179 F2400
G1 Z3 F720
M109 S215 ; wait for extruder temp

; intro line
G1 X170 F1000
G1 Z0.2 F720
G1 X110 E8 F900
G1 X40 E10 F700
G92 E0

M221 S95 ; set flow
G21 ; set units to millimeters
G90 ; use absolute coordinates
M83 ; use relative distances for extrusion
M900 K0.2 ; Filament gcode LA 1.5
; ; Filament gcode LA 1.0
M107
;LAYER_CHANGE
;Z:0.2
;HEIGHT:0.2
;BEFORE_LAYER_CHANGE
G92 E0.0
;0.2


G1 E-3.2 F4200
G1 Z.2 F720
;AFTER_LAYER_CHANGE
;0.2
G1 Z.4
G1 X74.71 Y36.435 F9000
G1 Z.2 F720
G1 E3.2 F2400
M204 P600
;TYPE:Skirt/Brim
;WIDTH:0.42
G1 F1200
G1 X76.26 Y33.256 E.11091
G1 X77.185 Y32.253 E.04278
G1 X78.397 Y31.921 E.03939
G1 X99.397 Y31.921 E.65844
G1 X100.704 Y32.312 E.04278
G1 X101.651 Y33.542 E.04867
G1 X112.474 Y65.836 E1.06791
G1 X112.582 Y66.32 E.01555
G1 X119.678 Y128.116 E1.95029
G1 X119.694 Y141.238 E.41144
G1 X119.302 Y142.545 E.04278
G1 X118.256 Y143.422 E.04278
G1 X117.532 Y143.606 E.02344
G1 X92.036 Y145.923 E.8027
G1 X74.334 Y145.933 E.55503
G1 X73.027 Y145.542 E.04278
G1 X72.15 Y144.496 E.04278
G1 X71.957 Y143.556 E.03008
G1 X71.957 Y42.628 E3.16452
G1 X72.197 Y41.586 E.03353
G1 X74.683 Y36.489 E.17782
M204 P1000
; printing object grinder_catchment_rails-Lock pin reinforcement.stl id:1 copy 0
G1 E-2.24 F4200
;WIPE_START
G1 F7200
G1 X75.405 Y35.01 E-.912
;WIPE_END
G1 E-.048 F4200
G1 Z.4 F720
G1 X103.519 Y119.196 F9000
G1 Z.2 F720
G1 E3.2 F2400
M204 P600
;TYPE:Perimeter
;WIDTH:0.419999
G1 F1200
G1 X103.86 Y118.93 E.01357
G1 X103.87 Y118.834 E.00302
G1 X103.895 Y117.624 E.03796
G1 X103.894 Y112.347 E.16544
G1 X104.573 Y113.549 E.04328
G1 X105.426 Y114.535 E.04087
G1 X106.36 Y115.28 E.03748
G1 X107.612 Y115.933 E.04426
G1 X108.758 Y116.273 E.03748
G1 X109.321 Y116.338 E.01779
G1 X109.321 Y118.19 E.05805
G1 X108.655 Y118.61 E.02471
G1 X107.588 Y119.064 E.03633
G1 X106.463 Y119.341 E.03633
G1 X105.308 Y119.434 E.03633
G1 X104.148 Y119.34 E.03649
G1 X103.578 Y119.21 E.01836
M204 P1000
G1 E-2.24 F4200
;WIPE_START
G1 F7200
G1 X103.86 Y118.93 E-.22038
G1 X103.87 Y118.834 E-.0533
G1 X103.894 Y117.682 E-.63832
;WIPE_END
G1 E-.048 F4200
G1 Z.4 F720
G1 X103.891 Y106.957 F9000
G1 Z.2 F720
G1 E3.2 F2400
M204 P600
G1 F1200
G1 X103.895 Y104.409 E.07987
G1 X104.914 Y104.407 E.03196
G1 X105.871 Y104.38 E.03002
G1 X105.137 Y105.008 E.03031
G1 X104.9 Y105.301 E.01182
G1 X104.279 Y106.15 E.03298
G1 X103.917 Y106.903 E.02618
M204 P1000
G1 E-2.24 F4200
;WIPE_START
G1 F7200
G1 X103.902 Y105.257 E-.912
;WIPE_END
G1 E-.048 F4200
G1 Z.4 F720
G1 X103.293 Y119.044 F9000
G1 Z.2 F720
G1 E3.2 F2400
M204 P600
;TYPE:External perimeter
;WIDTH:0.487517
G1 F1200
G1 X103.393 Y118.935 E.00547
;WIDTH:0.453758
G1 X103.493 Y118.826 E.00505
;WIDTH:0.419999
G1 X103.518 Y117.624 E.03771
G1 X103.517 Y112.119 E.17259
;WIDTH:0.42745
G1 X103.494 Y111.034 E.0347
;WIDTH:0.425223
G1 X103.433 Y109.851 E.03767
;WIDTH:0.420132
G1 X103.427 Y109.615 E.0074
;WIDTH:0.443265
G1 X103.513 Y107.624 E.06633
;WIDTH:0.419999
G1 X103.518 Y104.033 E.1126
G1 X105.57 Y104.028 E.06434
G1 X106.53 Y103.943 E.0302
G1 X107.103 Y103.999 E.01808
G1 X106.719 Y104.327 E.01584
G1 X106.29 Y104.518 E.01472
G1 X105.382 Y105.294 E.03746
G1 X104.619 Y106.314 E.03991
G1 X104.101 Y107.391 E.03748
G1 X104.024 Y107.702 E.01004
;WIDTH:0.443265
G1 X103.897 Y108.198 E.01706
G1 X103.839 Y108.633 E.0146
;WIDTH:0.414948
G1 X103.802 Y109.83 E.03705
;WIDTH:0.425223
G1 X103.875 Y111.013 E.03767
;WIDTH:0.427451
G1 X104.181 Y112.012 E.0334
;WIDTH:0.419999
G1 X104.253 Y112.233 E.00731
G1 X104.86 Y113.305 E.03861
G1 X105.661 Y114.24 E.03861
G1 X106.595 Y114.985 E.03748
G1 X107.719 Y115.572 E.03974
G1 X108.9 Y115.919 E.03861
G1 X109.698 Y115.996 E.02513
G1 X109.698 Y118.398 E.0753
G1 X108.83 Y118.945 E.03219
G1 X107.708 Y119.423 E.03824
G1 X106.524 Y119.714 E.03824
G1 X105.164 Y119.801 E.04273
G1 X104.04 Y119.702 E.03538
;WIDTH:0.453088
G1 X103.627 Y119.591 E.01456
;WIDTH:0.486177
G1 X103.215 Y119.48 E.01574
G1 X102.573 Y119.355 E.02412
;WIDTH:0.442304
G1 X102.069 Y119.252 E.01707
;WIDTH:0.419936
G1 X101.687 Y119.119 E.01267
G1 X101.234 Y118.834 E.01679
G1 X101.753 Y118.834 E.01626
G1 X102.137 Y118.881 E.01214
;WIDTH:0.44336
G1 X102.654 Y118.964 E.01743
;WIDTH:0.487517
G1 X103.234 Y119.037 E.02159
M204 P1000
G1 E-2.24 F4200
;WIPE_START
G1 F7200
G1 X103.393 Y118.935 E-.10479
G1 X103.493 Y118.826 E-.08197
G1 X103.518 Y117.624 E-.66653
G1 X103.518 Y117.518 E-.05871
;WIPE_END
G1 E-.048 F4200
G1 Z.4 F720
G1 X108.089 Y116.252 F9000
G1 Z.2 F720
G1 E3.2 F2400
M204 P600
;TYPE:Solid infill
;WIDTH:0.446851
G1 F1200
G1 X108.982 Y117.145 E.04243
G1 X108.982 Y117.716 E.01919
G1 X107.528 Y116.262 E.06907
G1 X106.378 Y115.683 E.04323
G1 X108.807 Y118.113 E.1154
G1 X108.451 Y118.328 E.01397
G1 X104.234 Y114.111 E.20032
G1 X104.234 Y114.682 E.01919
G1 X108.051 Y118.499 E.18128
G1 X107.65 Y118.669 E.01463
G1 X104.234 Y115.253 E.16224
G1 X104.234 Y115.825 E.01919
G1 X107.216 Y118.806 E.14162
G1 X106.757 Y118.919 E.01586
G1 X104.234 Y116.396 E.11984
G1 X104.234 Y116.967 E.01919
G1 X106.282 Y119.015 E.09726
G1 X105.753 Y119.058 E.01781
G1 X104.235 Y117.539 E.07215
G1 X104.225 Y118.1 E.01886
G1 X105.21 Y119.086 E.04681
G1 X104.589 Y119.035 E.02094
G1 X104.047 Y118.493 E.02575
M204 P1000
G1 E-2.24 F4200
;WIPE_START
G1 F7200
G1 X104.589 Y119.035 E-.42481
G1 X105.21 Y119.086 E-.34544
G1 X105.029 Y118.905 E-.14176
;WIPE_END
G1 E-.048 F4200
G1 Z.4 F720
G1 X104.648 Y104.577 F9000
G1 Z.2 F720
G1 E3.2 F2400
M204 P600
;WIDTH:0.422272
G1 F1200
G1 X104.869 Y104.799 E.00987
G1 X104.63 Y105.096 E.01204
G1 X104.282 Y104.748 E.01553
G1 X104.233 Y104.748 E.00153
G1 X104.233 Y105.235 E.01537
G1 X104.522 Y105.524 E.01289
M204 P1000
; stop printing object grinder_catchment_rails-Lock pin reinforcement.stl id:1 copy 0
; printing object grinder_catchment_rails-Rail.stl id:2 copy 0
G1 E-2.24 F4200
;WIPE_START
G1 F7200
G1 X104.233 Y105.235 E-.22647
G1 X104.233 Y104.748 E-.27004
G1 X104.282 Y104.748 E-.02683
G1 X104.63 Y105.096 E-.27279
G1 X104.761 Y104.933 E-.11587
;WIPE_END
G1 E-.048 F4200
G1 Z.4 F720
G1 X117.316 Y141.238 F9000
G1 Z.2 F720
G1 E3.2 F2400
M204 P600
;TYPE:Support material
;WIDTH:0.42
G1 F1200
G1 X98.752 Y141.238 E.58209
G1 X98.752 Y140.778 E.01444
G1 X99.595 Y140.778 E.02646
G1 X99.877 Y140.496 E.01247
G1 X99.877 Y130.705 E.307
G1 X104.465 Y130.705 E.14388
G1 X104.465 Y128.387 E.07267
G1 X117.316 Y128.387 E.40294
G1 X117.316 Y141.182 E.40116
M204 P1000
G1 X116.774 Y141.069 F9000
M204 P600
G1 F1200
G1 X116.774 Y128.727 E.38697
G1 X116.355 Y128.727 E.01314
G1 X116.355 Y140.899 E.38165
G1 X115.936 Y140.899 E.01314
G1 X115.936 Y128.727 E.38165
G1 X115.517 Y128.727 E.01314
G1 X115.517 Y140.899 E.38165
G1 X115.098 Y140.899 E.01314
G1 X115.098 Y128.727 E.38165
G1 X114.679 Y128.727 E.01314
G1 X114.679 Y140.899 E.38165
G1 X114.26 Y140.899 E.01314
G1 X114.26 Y128.727 E.38165
G1 X113.841 Y128.727 E.01314
G1 X113.841 Y140.899 E.38165
G1 X113.422 Y140.899 E.01314
G1 X113.422 Y128.727 E.38165
G1 X113.003 Y128.727 E.01314
G1 X113.003 Y140.899 E.38165
G1 X112.584 Y140.899 E.01314
G1 X112.584 Y128.727 E.38165
G1 X112.165 Y128.727 E.01314
G1 X112.165 Y140.899 E.38165
G1 X111.746 Y140.899 E.01314
G1 X111.746 Y128.727 E.38165
G1 X111.327 Y128.727 E.01314
G1 X111.327 Y140.899 E.38165
G1 X110.908 Y140.899 E.01314
G1 X110.908 Y128.727 E.38165
G1 X110.489 Y128.727 E.01314
G1 X110.489 Y140.899 E.38165
G1 X110.07 Y140.899 E.01314
G1 X110.07 Y128.727 E.38165
G1 X109.651 Y128.727 E.01314
G1 X109.651 Y140.899 E.38165
G1 X109.232 Y140.899 E.01314
G1 X109.232 Y128.727 E.38165
G1 X108.813 Y128.727 E.01314
G1 X108.813 Y140.899 E.38165
G1 X108.394 Y140.899 E.01314
M73 P0 R102
G1 X108.394 Y128.727 E.38165
G1 X107.976 Y128.727 E.01314
G1 X107.976 Y140.899 E.38165
G1 X107.557 Y140.899 E.01314
G1 X107.557 Y128.727 E.38165
G1 X107.138 Y128.727 E.01314
G1 X107.138 Y140.899 E.38165
G1 X106.719 Y140.899 E.01314
G1 X106.719 Y128.727 E.38165
G1 X106.3 Y128.727 E.01314
G1 X106.3 Y140.899 E.38165
G1 X105.881 Y140.899 E.01314
G1 X105.881 Y128.727 E.38165
G1 X105.462 Y128.727 E.01314
G1 X105.462 Y140.899 E.38165
G1 X105.043 Y140.899 E.01314
M73 P1 R102
G1 X105.043 Y128.727 E.38165
G1 X104.805 Y128.727 E.00746
G1 X104.805 Y131.044 E.07267
G1 X104.624 Y131.044 E.00568
G1 X104.624 Y140.899 E.30898
G1 X104.205 Y140.899 E.01314
G1 X104.205 Y131.044 E.30898
G1 X103.786 Y131.044 E.01314
G1 X103.786 Y140.899 E.30898
G1 X103.367 Y140.899 E.01314
G1 X103.367 Y131.044 E.30898
G1 X102.948 Y131.044 E.01314
G1 X102.948 Y140.899 E.30898
G1 X102.529 Y140.899 E.01314
G1 X102.529 Y131.044 E.30898
G1 X102.11 Y131.044 E.01314
G1 X102.11 Y140.899 E.30898
G1 X101.691 Y140.899 E.01314
G1 X101.691 Y131.044 E.30898
G1 X101.272 Y131.044 E.01314
G1 X101.272 Y140.899 E.30898
G1 X100.853 Y140.899 E.01314
G1 X100.853 Y131.044 E.30898
G1 X100.434 Y131.044 E.01314
G1 X100.434 Y140.899 E.30898
G1 X100.015 Y140.899 E.01314
G1 X100.015 Y140.598 E.00943
M204 P1000
G1 E-2.24 F4200
;WIPE_START
G1 F7200
G1 X100.015 Y140.899 E-.16669
G1 X100.434 Y140.899 E-.23218
G1 X100.434 Y139.973 E-.51313
;WIPE_END
G1 E-.048 F4200
G1 Z.4 F720
G1 X77.917 Y47.496 F9000
G1 Z.2 F720
G1 E3.2 F2400
M204 P600
G1 F1200
G1 X78.198 Y47.778 E.01247
G1 X85.917 Y47.778 E.24202
G1 X85.918 Y139.329 E2.87052
G1 X85.953 Y139.625 E.00936
G1 X86.046 Y139.9 E.00909
G1 X86.231 Y140.21 E.01132
G1 X86.512 Y140.482 E.01228
G1 X86.749 Y140.629 E.00872
G1 X87.042 Y140.735 E.00977
G1 X87.383 Y140.778 E.01079
G1 X91.821 Y140.778 E.13913
G1 X91.821 Y143.556 E.08712
G1 X74.334 Y143.556 E.54828
G1 X74.334 Y42.628 E3.16452
G1 X77.917 Y42.628 E.11233
G1 X77.917 Y47.44 E.15087
M204 P1000
G1 E-2.24 F4200
;WIPE_START
G1 F7200
G1 X77.917 Y45.794 E-.912
;WIPE_END
G1 E-.048 F4200
G1 Z.4 F720
G1 X91.216 Y143.386 F9000
G1 Z.2 F720
G1 E3.2 F2400
M204 P600
G1 F1200
G1 X91.216 Y141.117 E.07116
G1 X90.797 Y141.117 E.01314
G1 X90.797 Y143.217 E.06583
G1 X90.378 Y143.217 E.01314
G1 X90.378 Y141.117 E.06583
G1 X89.96 Y141.117 E.01314
G1 X89.96 Y143.217 E.06583
G1 X89.541 Y143.217 E.01314
G1 X89.541 Y141.117 E.06583
G1 X89.122 Y141.117 E.01314
G1 X89.122 Y143.217 E.06583
G1 X88.703 Y143.217 E.01314
G1 X88.703 Y141.117 E.06583
G1 X88.284 Y141.117 E.01314
G1 X88.284 Y143.217 E.06583
G1 X87.865 Y143.217 E.01314
G1 X87.865 Y141.117 E.06583
G1 X87.446 Y141.117 E.01314
G1 X87.446 Y143.217 E.06583
G1 X87.027 Y143.217 E.01314
G1 X87.027 Y141.079 E.06702
G1 X86.608 Y140.937 E.01387
G1 X86.608 Y143.217 E.07147
G1 X86.189 Y143.217 E.01314
G1 X86.189 Y140.654 E.08036
G1 X85.959 Y140.414 E.01041
G1 X85.77 Y140.112 E.01118
G1 X85.77 Y143.217 E.09736
G1 X85.351 Y143.217 E.01314
G1 X85.351 Y48.117 E2.98178
G1 X84.932 Y48.117 E.01314
G1 X84.932 Y143.217 E2.98178
G1 X84.513 Y143.217 E.01314
G1 X84.513 Y48.117 E2.98178
G1 X84.094 Y48.117 E.01314
G1 X84.094 Y143.217 E2.98178
G1 X83.675 Y143.217 E.01314
G1 X83.675 Y48.117 E2.98178
G1 X83.256 Y48.117 E.01314
G1 X83.256 Y143.217 E2.98178
G1 X82.837 Y143.217 E.01314
G1 X82.837 Y48.117 E2.98178
G1 X82.418 Y48.117 E.01314
M73 P1 R101
G1 X82.418 Y143.217 E2.98178
G1 X81.999 Y143.217 E.01314
G1 X81.999 Y48.117 E2.98178
G1 X81.58 Y48.117 E.01314
M73 P2 R101
G1 X81.58 Y143.217 E2.98178
G1 X81.161 Y143.217 E.01314
G1 X81.161 Y48.117 E2.98178
G1 X80.742 Y48.117 E.01314
G1 X80.742 Y143.217 E2.98178
G1 X80.323 Y143.217 E.01314
G1 X80.323 Y48.117 E2.98178
G1 X79.904 Y48.117 E.01314
G1 X79.904 Y143.217 E2.98178
G1 X79.485 Y143.217 E.01314
G1 X79.485 Y48.117 E2.98178
G1 X79.066 Y48.117 E.01314
G1 X79.066 Y143.217 E2.98178
G1 X78.647 Y143.217 E.01314
G1 X78.647 Y48.117 E2.98178
G1 X78.228 Y48.117 E.01314
G1 X78.228 Y143.217 E2.98178
G1 X77.809 Y143.217 E.01314
G1 X77.809 Y47.869 E2.98956
G1 X77.577 Y47.637 E.01028
G1 X77.577 Y42.968 E.14641
G1 X77.39 Y42.968 E.00587
G1 X77.39 Y143.217 E3.14324
G1 X76.971 Y143.217 E.01314
M73 P2 R100
G1 X76.971 Y42.968 E3.14324
G1 X76.552 Y42.968 E.01314
G1 X76.552 Y143.217 E3.14324
G1 X76.133 Y143.217 E.01314
M73 P3 R100
G1 X76.133 Y42.968 E3.14324
G1 X75.714 Y42.968 E.01314
G1 X75.714 Y143.217 E3.14324
G1 X75.295 Y143.217 E.01314
G1 X75.295 Y42.968 E3.14324
G1 X74.876 Y42.968 E.01314
G1 X74.876 Y143.386 E3.14856
M204 P1000
G1 E-2.24 F4200
;WIPE_START
G1 F7200
G1 X74.876 Y141.741 E-.912
;WIPE_END
G1 E-.048 F4200
G1 Z.4 F720
G1 X86.703 Y46.533 F9000
G1 Z.2 F720
G1 E3.2 F2400
M204 P600
;TYPE:Perimeter
;WIDTH:0.419999
G1 F1200
G1 X86.618 Y46.511 E.00276
G1 X79.184 Y46.511 E.2331
G1 X79.184 Y35.085 E.35825
G1 X98.61 Y35.085 E.60908
G1 X98.61 Y139.511 E3.27419
G1 X87.507 Y139.511 E.3481
G1 X87.437 Y139.503 E.00223
G1 X87.243 Y139.42 E.00661
G1 X87.184 Y139.253 E.00555
G1 X87.184 Y47.076 E2.89015
G1 X87.179 Y47.003 E.00229
G1 X87.077 Y46.745 E.00871
G1 X86.895 Y46.583 E.00765
G1 X86.761 Y46.548 E.00432
M204 P1000
G1 X86.618 Y46.888 F9000
M204 P600
;TYPE:External perimeter
G1 F1200
G1 X78.807 Y46.888 E.24492
G1 X78.807 Y34.708 E.38189
G1 X98.987 Y34.708 E.63273
G1 X98.987 Y139.888 E3.29784
G1 X87.507 Y139.888 E.35992
G1 X87.143 Y139.823 E.0116
G1 X86.94 Y139.662 E.00813
G1 X86.884 Y139.545 E.00405
G1 X86.807 Y139.275 E.00883
G1 X86.807 Y47.076 E2.89081
G1 X86.757 Y46.949 E.00427
M73 P3 R99
G1 X86.673 Y46.912 E.00289
M204 P1000
G1 X86.515 Y46.501 F9000
G1 E-2.24 F4200
;WIPE_START
G1 F7200
G1 X85.027 Y46.907 E-.912
;WIPE_END
G1 E-.048 F4200
G1 Z.4 F720
G1 X81.103 Y38.683 F9000
G1 Z.2 F720
G1 E3.2 F2400
M204 P600
;TYPE:Perimeter
G1 F1200
G1 X81.254 Y38.25 E.01436
G1 X81.567 Y37.767 E.01803
G1 X81.986 Y37.374 E.01803
G1 X82.487 Y37.092 E.01803
G1 X83.042 Y36.939 E.01803
G1 X83.616 Y36.922 E.01803
G1 X84.178 Y37.044 E.01803
G1 X84.695 Y37.296 E.01803
G1 X85.136 Y37.665 E.01803
G1 X85.476 Y38.129 E.01803
G1 X85.696 Y38.661 E.01803
G1 X85.781 Y39.229 E.01803
G1 X85.728 Y39.802 E.01803
G1 X85.54 Y40.345 E.01803
G1 X85.227 Y40.828 E.01803
G1 X84.807 Y41.221 E.01803
G1 X84.306 Y41.503 E.01803
G1 X83.752 Y41.657 E.01803
G1 X83.177 Y41.673 E.01803
G1 X82.615 Y41.551 E.01803
G1 X82.098 Y41.299 E.01803
G1 X81.657 Y40.93 E.01803
G1 X81.317 Y40.466 E.01803
G1 X81.098 Y39.934 E.01803
G1 X81.012 Y39.366 E.01803
G1 X81.084 Y38.739 E.01977
M204 P1000
G1 X81.458 Y38.774 F9000
M204 P600
;TYPE:External perimeter
G1 F1200
G1 X81.627 Y38.343 E.01451
G1 X81.907 Y37.948 E.01519
G1 X82.273 Y37.63 E.0152
G1 X82.705 Y37.41 E.0152
G1 X83.177 Y37.299 E.0152
G1 X83.662 Y37.305 E.0152
G1 X84.131 Y37.426 E.0152
G1 X84.557 Y37.656 E.0152
