; generated by PrusaSlicer 2.5.2+linux-x64-GTK3 on 2023-05-16 at 07:31:52 UTC


;
;

;
;
; 

; external perimeters extrusion width = 0.45mm
; perimeters extrusion width = 0.45mm
; infill extrusion width = 0.45mm
; solid infill extrusion width = 0.45mm
; top infill extrusion width = 0.40mm
; support material extrusion width = 0.35mm
; first layer extrusion width = 0.42mm

; external perimeters extrusion width = 0.45mm
; perimeters extrusion width = 0.45mm
; infill extrusion width = 0.45mm
; solid infill extrusion width = 0.45mm
; top infill extrusion width = 0.40mm
; support material extrusion width = 0.35mm
; first layer extrusion width = 0.42mm

; external perimeters extrusion width = 0.45mm
; perimeters extrusion width = 0.45mm
; infill extrusion width = 0.45mm
; solid infill extrusion width = 0.45mm
; top infill extrusion width = 0.40mm
; support material extrusion width = 0.35mm
; first layer extrusion width = 0.42mm

M73 P0 R103
M201 X2500 Y2500 Z400 E5000 ; sets maximum accelerations, mm/sec^2
M203 X180 Y180 Z12 E80 ; sets maximum feedrates, mm / sec
M204 P2000 R1250 T2500 ; sets acceleration (P, T) and retract acceleration (R), mm/sec^2
M205 X8.00 Y8.00 Z2.00 E10.00 ; sets the jerk limits, mm/sec
M205 S0 T0 ; sets the minimum extruding and travel feed rate, mm/sec
M107
;TYPE:Custom
M862.3 P "MINI" ; printer model check
G90 ; use absolute coordinates
M83 ; extruder relative mode
M104 S170 ; set extruder temp for bed leveling
M140 S60 ; set bed temp
M109 R170 ; wait for bed leveling temp
M190 S60 ; wait for bed temp
M204 T1250 ; set travel acceleration
G28 ; home all without mesh bed level
G29 ; mesh bed leveling 
M204 T2500 ; restore travel acceleration
M104 S215 ; set extruder temp
G92 E0
G1 Y-2 X179 F2400
G1 Z3 F720
M109 S215 ; wait for extruder temp

; intro line
G1 X170 F1000
G1 Z0.2 F720
G1 X110 E8 F900
G1 X40 E10 F700
G92 E0

M221 S95 ; set flow
G21 ; set units to millimeters
G90 ; use absolute coordinates
M83 ; use relative distances for extrusion
M900 K0.2 ; Filament gcode LA 1.5
; ; Filament gcode LA 1.0
M107
;LAYER_CHANGE
;Z:0.2
;HEIGHT:0.2
;BEFORE_LAYER_CHANGE
G92 E0.0
;0.2


G1 E-3.2 F4200
G1 Z.2 F720
;AFTER_LAYER_CHANGE
;0.2
G1 Z.4
G1 X101.89 Y56.887 F9000
G1 Z.2 F720
G1 E3.2 F2400
M204 P600
;TYPE:Skirt/Brim
;WIDTH:0.42
G1 F1200
G1 X112.727 Y38.222 E.67671
G1 X113.721 Y37.288 E.04278
G1 X114.782 Y37.039 E.03417
G1 X135.782 Y37.039 E.65844
G1 X137.089 Y37.43 E.04278
G1 X137.919 Y38.374 E.03939
G1 X141.982 Y46.704 E.29061
G1 X142.222 Y47.746 E.03353
G1 X142.222 Y148.674 E3.16452
G1 X141.83 Y149.981 E.04278
G1 X140.785 Y150.858 E.04278
G1 X139.845 Y151.051 E.03008
G1 X122.358 Y151.051 E.54828
G1 X96.647 Y148.724 E.80945
G1 X95.381 Y148.215 E.04278
G1 X94.603 Y147.095 E.04278
G1 X94.485 Y146.356 E.02344
G1 X94.496 Y133.283 E.4099
G1 X101.579 Y57.858 E2.3753
G1 X101.871 Y56.944 E.0301
M204 P1000
; printing object grinder_catchment_rails-Lock pin.stl id:0 copy 0
G1 E-2.24 F4200
;WIPE_START
G1 F7200
G1 X102.697 Y55.52 E-.912
;WIPE_END
G1 E-.048 F4200
G1 Z.4 F720
G1 X112.143 Y58.867 F9000
G1 Z.2 F720
G1 E3.2 F2400
M204 P600
;TYPE:Perimeter
;WIDTH:0.419999
G1 F1200
G1 X111.573 Y59.443 E.02541
G1 X111.212 Y60.08 E.02294
G1 X111.023 Y60.73 E.02123
G1 X110.991 Y61.438 E.02221
G1 X111.129 Y62.132 E.02221
G1 X111.428 Y62.775 E.02221
G1 X111.781 Y63.235 E.01818
G1 X112.222 Y63.755 E.02139
G1 X112.551 Y64.281 E.01946
G1 X112.758 Y64.747 E.01599
G1 X112.758 Y93.293 E.89504
G1 X104.732 Y93.293 E.25164
G1 X104.732 Y73.777 E.61193
G1 X105.648 Y73.647 E.029
M73 P0 R102
G1 X107.026 Y73.125 E.04621
G1 X107.146 Y73.062 E.00424
G1 X108.378 Y72.216 E.04685
G1 X108.48 Y72.126 E.00426
G1 X109.474 Y71.011 E.04685
G1 X109.552 Y70.899 E.00426
G1 X110.252 Y69.579 E.04685
G1 X110.301 Y69.448 E.00437
G1 X110.674 Y67.924 E.04921
G1 X110.69 Y67.79 E.00425
G1 X110.682 Y66.292 E.04694
G1 X110.665 Y66.16 E.00417
G1 X110.448 Y65.276 E.02854
G1 X110.279 Y64.657 E.02012
G1 X109.474 Y63.15 E.05356
G1 X108.38 Y61.946 E.05102
G1 X107.147 Y61.099 E.04689
G1 X107.028 Y61.037 E.00423
G1 X105.658 Y60.517 E.04594
G1 X105.528 Y60.484 E.0042
G1 X104.732 Y60.384 E.02514
G1 X104.732 Y58.867 E.04755
G1 X112.083 Y58.867 E.23048
M204 P1000
G1 X113.135 Y58.779 F9000
M204 P600
;TYPE:External perimeter
G1 F1200
G1 X112.86 Y58.87 E.00909
G1 X112.333 Y59.194 E.01939
G1 X111.897 Y59.636 E.01947
G1 X111.572 Y60.194 E.02026
G1 X111.399 Y60.755 E.01842
G1 X111.363 Y61.373 E.01939
G1 X111.474 Y61.981 E.01939
G1 X111.727 Y62.545 E.01939
G1 X112.069 Y62.991 E.0176
G1 X112.527 Y63.532 E.02223
G1 X112.885 Y64.104 E.02114
G1 X113.135 Y64.667 E.01934
G1 X113.135 Y93.67 E.90937
G1 X104.355 Y93.67 E.27529
G1 X104.355 Y73.444 E.63419
G1 X105.515 Y73.294 E.03665
G1 X106.893 Y72.772 E.04621
G1 X108.198 Y71.875 E.04967
G1 X109.193 Y70.76 E.04685
G1 X109.918 Y69.402 E.04826
G1 X110.313 Y67.79 E.05206
G1 X110.305 Y66.295 E.04687
G1 X110.081 Y65.367 E.02993
G1 X109.944 Y64.831 E.01733
G1 X109.193 Y63.401 E.05066
G1 X108.165 Y62.256 E.04824
G1 X106.934 Y61.41 E.04684
G1 X105.524 Y60.869 E.04734
G1 X104.355 Y60.716 E.03696
G1 X104.355 Y58.49 E.0698
G1 X113.135 Y58.49 E.27529
G1 X113.135 Y58.719 E.00716
M204 P1000
G1 X112.851 Y58.837 F9000
G1 E-2.24 F4200
;WIPE_START
G1 F7200
G1 X112.86 Y58.87 E-.17409
G1 X112.333 Y59.194 E-.3427
G1 X111.897 Y59.636 E-.34403
G1 X111.851 Y59.716 E-.05117
;WIPE_END
G1 E-.048 F4200
G1 Z.4 F720
G1 X111.374 Y59.447 F9000
G1 Z.2 F720
G1 E3.2 F2400
M204 P600
;TYPE:Solid infill
;WIDTH:0.424337
G1 F1200
G1 X111.133 Y59.207 E.01078
G1 X110.594 Y59.207 E.01711
G1 X111.049 Y59.662 E.02041
G1 X110.969 Y59.797 E.00498
G1 X110.873 Y60.026 E.00787
G1 X110.054 Y59.207 E.03673
G1 X109.515 Y59.207 E.01711
G1 X110.743 Y60.435 E.05509
G1 X110.686 Y60.677 E.00789
G1 X110.671 Y60.902 E.00715
G1 X108.976 Y59.207 E.07604
G1 X108.436 Y59.207 E.01711
G1 X110.652 Y61.422 E.09938
G1 X110.756 Y62.066 E.02069
G1 X107.897 Y59.207 E.12826
G1 X107.357 Y59.207 E.01711
G1 X111.279 Y63.128 E.17589
G1 X111.496 Y63.421 E.01156
G1 X111.947 Y63.956 E.02219
G1 X112.251 Y64.441 E.01815
G1 X112.41 Y64.798 E.0124
G1 X106.818 Y59.207 E.2508
G1 X106.279 Y59.207 E.01711
G1 X112.419 Y65.347 E.2754
G1 X112.419 Y65.886 E.01711
G1 X110.087 Y63.555 E.10459
G1 X109.851 Y63.101 E.01622
G1 X109.747 Y62.946 E.00593
G1 X108.728 Y61.803 E.04855
G1 X108.597 Y61.684 E.00561
G1 X107.38 Y60.847 E.04685
G1 X105.739 Y59.207 E.07358
G1 X105.2 Y59.207 E.01711
G1 X106.446 Y60.453 E.05588
G1 X105.77 Y60.196 E.02292
G1 X105.61 Y60.156 E.00524
G1 X104.902 Y59.448 E.03174
M204 P1000
G1 E-2.24 F4200
;WIPE_START
G1 F7200
G1 X105.61 Y60.156 E-.55463
G1 X105.77 Y60.196 E-.09151
G1 X106.219 Y60.366 E-.26586
;WIPE_END
G1 E-.048 F4200
G1 Z.4 F720
G1 X110.274 Y64.281 F9000
G1 Z.2 F720
G1 E3.2 F2400
M204 P600
G1 F1200
G1 X112.419 Y66.426 E.09621
G1 X112.419 Y66.965 E.01711
G1 X110.819 Y65.365 E.07176
G1 X110.995 Y66.081 E.02338
G1 X112.419 Y67.505 E.06384
G1 X112.419 Y68.044 E.01711
G1 X111.023 Y66.648 E.0626
G1 X111.026 Y67.191 E.01721
G1 X112.419 Y68.584 E.06246
G1 X112.419 Y69.123 E.01711
G1 X111.029 Y67.733 E.06232
G1 X111.006 Y67.996 E.00836
G1 X110.956 Y68.2 E.00665
G1 X112.419 Y69.662 E.06561
G1 X112.419 Y70.202 E.01711
G1 X110.85 Y68.633 E.07037
G1 X110.744 Y69.066 E.01415
G1 X112.419 Y70.741 E.07512
G1 X112.419 Y71.281 E.01711
G1 X110.638 Y69.5 E.07988
G1 X110.556 Y69.729 E.00774
G1 X110.477 Y69.878 E.00533
G1 X112.419 Y71.82 E.0871
G1 X112.419 Y72.359 E.01711
G1 X110.29 Y70.231 E.09548
G1 X110.103 Y70.583 E.01265
G1 X112.419 Y72.899 E.10386
G1 X112.419 Y73.438 E.01711
G1 X109.917 Y70.936 E.11224
G1 X109.847 Y71.066 E.00468
G1 X109.704 Y71.263 E.00772
G1 X112.419 Y73.978 E.12176
G1 X112.419 Y74.517 E.01711
G1 X109.45 Y71.548 E.13317
G1 X109.196 Y71.833 E.01212
G1 X112.419 Y75.056 E.14457
G1 X112.419 Y75.596 E.01711
G1 X108.941 Y72.118 E.15597
G1 X108.682 Y72.398 E.01211
G1 X112.419 Y76.135 E.1676
G1 X112.419 Y76.675 E.01711
G1 X108.373 Y72.629 E.18145
G1 X108.052 Y72.847 E.01232
G1 X112.419 Y77.214 E.19588
G1 X112.419 Y77.753 E.01711
G1 X107.73 Y73.065 E.2103
G1 X107.408 Y73.282 E.01232
G1 X112.419 Y78.293 E.22473
G1 X112.419 Y78.832 E.01711
G1 X107.06 Y73.473 E.24036
G1 X106.669 Y73.622 E.01326
G1 X112.419 Y79.372 E.25789
G1 X112.419 Y79.911 E.01711
G1 X106.278 Y73.77 E.27542
G1 X105.887 Y73.919 E.01326
G1 X112.419 Y80.45 E.29295
G1 X112.419 Y80.99 E.01711
G1 X105.458 Y74.029 E.31222
G1 X105.072 Y74.077 E.01233
G1 X105.072 Y74.182 E.00335
G1 X112.419 Y81.529 E.32953
G1 X112.419 Y82.069 E.01711
G1 X105.072 Y74.722 E.32953
G1 X105.072 Y75.261 E.01711
G1 X112.419 Y82.608 E.32953
G1 X112.419 Y83.147 E.01711
G1 X105.072 Y75.8 E.32953
G1 X105.072 Y76.34 E.01711
G1 X112.419 Y83.687 E.32953
G1 X112.419 Y84.226 E.01711
G1 X105.072 Y76.879 E.32953
G1 X105.072 Y77.419 E.01711
G1 X112.419 Y84.766 E.32953
G1 X112.419 Y85.305 E.01711
G1 X105.072 Y77.958 E.32953
G1 X105.072 Y78.497 E.01711
G1 X112.419 Y85.844 E.32953
G1 X112.419 Y86.384 E.01711
G1 X105.072 Y79.037 E.32953
G1 X105.072 Y79.576 E.01711
G1 X112.419 Y86.923 E.32953
G1 X112.419 Y87.463 E.01711
G1 X105.072 Y80.116 E.32953
G1 X105.072 Y80.655 E.01711
G1 X112.419 Y88.002 E.32953
G1 X112.419 Y88.541 E.01711
G1 X105.072 Y81.194 E.32953
G1 X105.072 Y81.734 E.01711
G1 X112.419 Y89.081 E.32953
G1 X112.419 Y89.62 E.01711
G1 X105.072 Y82.273 E.32953
G1 X105.072 Y82.813 E.01711
G1 X112.419 Y90.16 E.32953
G1 X112.419 Y90.699 E.01711
M73 P1 R102
G1 X105.072 Y83.352 E.32953
G1 X105.072 Y83.891 E.01711
G1 X112.419 Y91.239 E.32953
G1 X112.419 Y91.778 E.01711
G1 X105.072 Y84.431 E.32953
G1 X105.072 Y84.97 E.01711
G1 X112.419 Y92.317 E.32953
G1 X112.419 Y92.857 E.01711
G1 X105.072 Y85.51 E.32953
G1 X105.072 Y86.049 E.01711
G1 X111.977 Y92.954 E.3097
G1 X111.437 Y92.954 E.01711
G1 X105.072 Y86.588 E.2855
G1 X105.072 Y87.128 E.01711
G1 X110.898 Y92.954 E.26131
G1 X110.358 Y92.954 E.01711
G1 X105.072 Y87.667 E.23712
G1 X105.072 Y88.207 E.01711
G1 X109.819 Y92.954 E.21292
G1 X109.28 Y92.954 E.01711
G1 X105.072 Y88.746 E.18873
G1 X105.072 Y89.285 E.01711
G1 X108.74 Y92.954 E.16454
G1 X108.201 Y92.954 E.01711
G1 X105.072 Y89.825 E.14034
G1 X105.072 Y90.364 E.01711
G1 X107.661 Y92.954 E.11615
G1 X107.122 Y92.954 E.01711
G1 X105.072 Y90.904 E.09196
G1 X105.072 Y91.443 E.01711
G1 X106.583 Y92.954 E.06776
G1 X106.043 Y92.954 E.01711
G1 X105.072 Y91.982 E.04357
G1 X105.072 Y92.522 E.01711
G1 X105.674 Y93.124 E.02699
M204 P1000
; stop printing object grinder_catchment_rails-Lock pin.stl id:0 copy 0
; printing object grinder_catchment_rails-Rail.stl id:2 copy 0
G1 E-2.24 F4200
;WIPE_START
G1 F7200
G1 X105.072 Y92.522 E-.47157
G1 X105.072 Y91.982 E-.29892
G1 X105.252 Y92.163 E-.14151
;WIPE_END
G1 E-.048 F4200
G1 Z.4 F720
G1 X109.713 Y135.823 F9000
G1 Z.2 F720
G1 E3.2 F2400
M204 P600
;TYPE:Support material
;WIDTH:0.42
G1 F1200
G1 X114.302 Y135.823 E.14388
G1 X114.302 Y145.614 E.307
G1 X114.583 Y145.896 E.01247
G1 X115.427 Y145.896 E.02646
G1 X115.427 Y146.356 E.01444
G1 X96.862 Y146.356 E.58209
G1 X96.862 Y133.505 E.40294
G1 X109.713 Y133.505 E.40294
G1 X109.713 Y135.767 E.0709
M204 P1000
G1 X114.164 Y146.187 F9000
M204 P600
G1 F1200
G1 X114.164 Y145.956 E.00723
G1 X113.963 Y145.755 E.00891
G1 X113.963 Y136.162 E.30077
G1 X113.745 Y136.162 E.00683
G1 X113.745 Y146.017 E.30898
G1 X113.326 Y146.017 E.01314
G1 X113.326 Y136.162 E.30898
G1 X112.907 Y136.162 E.01314
G1 X112.907 Y146.017 E.30898
G1 X112.488 Y146.017 E.01314
G1 X112.488 Y136.162 E.30898
G1 X112.069 Y136.162 E.01314
G1 X112.069 Y146.017 E.30898
G1 X111.65 Y146.017 E.01314
G1 X111.65 Y136.162 E.30898
G1 X111.231 Y136.162 E.01314
G1 X111.231 Y146.017 E.30898
G1 X110.812 Y146.017 E.01314
G1 X110.812 Y136.162 E.30898
G1 X110.393 Y136.162 E.01314
G1 X110.393 Y146.017 E.30898
G1 X109.974 Y146.017 E.01314
G1 X109.974 Y136.162 E.30898
G1 X109.555 Y136.162 E.01314
G1 X109.555 Y146.017 E.30898
G1 X109.136 Y146.017 E.01314
G1 X109.136 Y133.845 E.38165
G1 X108.717 Y133.845 E.01314
G1 X108.717 Y146.017 E.38165
G1 X108.298 Y146.017 E.01314
G1 X108.298 Y133.845 E.38165
G1 X107.879 Y133.845 E.01314
G1 X107.879 Y146.017 E.38165
G1 X107.46 Y146.017 E.01314
G1 X107.46 Y133.845 E.38165
G1 X107.041 Y133.845 E.01314
G1 X107.041 Y146.017 E.38165
G1 X106.622 Y146.017 E.01314
G1 X106.622 Y133.845 E.38165
G1 X106.203 Y133.845 E.01314
G1 X106.203 Y146.017 E.38165
G1 X105.784 Y146.017 E.01314
G1 X105.784 Y133.845 E.38165
G1 X105.365 Y133.845 E.01314
G1 X105.365 Y146.017 E.38165
G1 X104.946 Y146.017 E.01314
G1 X104.946 Y133.845 E.38165
G1 X104.527 Y133.845 E.01314
G1 X104.527 Y146.017 E.38165
G1 X104.108 Y146.017 E.01314
G1 X104.108 Y133.845 E.38165
G1 X103.69 Y133.845 E.01314
G1 X103.69 Y146.017 E.38165
G1 X103.271 Y146.017 E.01314
G1 X103.271 Y133.845 E.38165
G1 X102.852 Y133.845 E.01314
G1 X102.852 Y146.017 E.38165
G1 X102.433 Y146.017 E.01314
G1 X102.433 Y133.845 E.38165
G1 X102.014 Y133.845 E.01314
G1 X102.014 Y146.017 E.38165
G1 X101.595 Y146.017 E.01314
G1 X101.595 Y133.845 E.38165
G1 X101.176 Y133.845 E.01314
G1 X101.176 Y146.017 E.38165
G1 X100.757 Y146.017 E.01314
G1 X100.757 Y133.845 E.38165
G1 X100.338 Y133.845 E.01314
G1 X100.338 Y146.017 E.38165
G1 X99.919 Y146.017 E.01314
G1 X99.919 Y133.845 E.38165
G1 X99.5 Y133.845 E.01314
G1 X99.5 Y146.017 E.38165
G1 X99.081 Y146.017 E.01314
M73 P1 R101
G1 X99.081 Y133.845 E.38165
G1 X98.662 Y133.845 E.01314
G1 X98.662 Y146.017 E.38165
G1 X98.243 Y146.017 E.01314
G1 X98.243 Y133.845 E.38165
G1 X97.824 Y133.845 E.01314
G1 X97.824 Y146.017 E.38165
G1 X97.405 Y146.017 E.01314
G1 X97.405 Y133.675 E.38697
M204 P1000
G1 E-2.24 F4200
;WIPE_START
G1 F7200
G1 X97.405 Y135.321 E-.912
;WIPE_END
G1 E-.048 F4200
G1 Z.4 F720
G1 X139.845 Y148.674 F9000
G1 Z.2 F720
G1 E3.2 F2400
M204 P600
G1 F1200
G1 X122.358 Y148.674 E.54828
G1 X122.358 Y145.896 E.08712
G1 X126.797 Y145.896 E.13917
G1 X127.139 Y145.852 E.01079
G1 X127.43 Y145.747 E.00972
G1 X127.667 Y145.6 E.00872
G1 X127.948 Y145.328 E.01228
G1 X128.133 Y145.018 E.01132
G1 X128.226 Y144.743 E.00909
G1 X128.261 Y144.447 E.00936
G1 X128.262 Y52.896 E2.87051
G1 X135.981 Y52.896 E.24202
G1 X136.262 Y52.614 E.01247
G1 X136.262 Y47.746 E.15264
G1 X139.845 Y47.746 E.11233
G1 X139.845 Y148.618 E3.16275
M204 P1000
G1 X139.303 Y148.504 F9000
M204 P600
G1 F1200
G1 X139.303 Y48.086 E3.14856
G1 X138.884 Y48.086 E.01314
G1 X138.884 Y148.335 E3.14324
G1 X138.465 Y148.335 E.01314
G1 X138.465 Y48.086 E3.14324
G1 X138.046 Y48.086 E.01314
M73 P2 R101
G1 X138.046 Y148.335 E3.14324
G1 X137.627 Y148.335 E.01314
G1 X137.627 Y48.086 E3.14324
G1 X137.208 Y48.086 E.01314
G1 X137.208 Y148.335 E3.14324
G1 X136.789 Y148.335 E.01314
G1 X136.789 Y48.086 E3.14324
G1 X136.602 Y48.086 E.00587
G1 X136.602 Y52.755 E.14641
G1 X136.37 Y52.987 E.01028
G1 X136.37 Y148.335 E2.98956
G1 X135.951 Y148.335 E.01314
G1 X135.951 Y53.235 E2.98178
G1 X135.532 Y53.235 E.01314
M73 P2 R100
G1 X135.532 Y148.335 E2.98178
G1 X135.113 Y148.335 E.01314
G1 X135.113 Y53.235 E2.98178
G1 X134.694 Y53.235 E.01314
G1 X134.694 Y148.335 E2.98178
G1 X134.275 Y148.335 E.01314
G1 X134.275 Y53.235 E2.98178
G1 X133.856 Y53.235 E.01314
G1 X133.856 Y148.335 E2.98178
G1 X133.437 Y148.335 E.01314
G1 X133.437 Y53.235 E2.98178
G1 X133.018 Y53.235 E.01314
G1 X133.018 Y148.335 E2.98178
G1 X132.599 Y148.335 E.01314
M73 P3 R100
G1 X132.599 Y53.235 E2.98178
G1 X132.18 Y53.235 E.01314
G1 X132.18 Y148.335 E2.98178
G1 X131.761 Y148.335 E.01314
G1 X131.761 Y53.235 E2.98178
G1 X131.342 Y53.235 E.01314
G1 X131.342 Y148.335 E2.98178
G1 X130.923 Y148.335 E.01314
G1 X130.923 Y53.235 E2.98178
G1 X130.504 Y53.235 E.01314
G1 X130.504 Y148.335 E2.98178
G1 X130.085 Y148.335 E.01314
M73 P3 R99
G1 X130.085 Y53.235 E2.98178
G1 X129.666 Y53.235 E.01314
G1 X129.666 Y148.335 E2.98178
G1 X129.247 Y148.335 E.01314
G1 X129.247 Y53.235 E2.98178
G1 X128.828 Y53.235 E.01314
G1 X128.828 Y148.335 E2.98178
G1 X128.409 Y148.335 E.01314
G1 X128.409 Y145.23 E.09736
G1 X128.22 Y145.532 E.01118
G1 X127.99 Y145.772 E.01041
G1 X127.99 Y148.335 E.08036
G1 X127.571 Y148.335 E.01314
G1 X127.571 Y146.055 E.07147
G1 X127.152 Y146.197 E.01387
G1 X127.152 Y148.335 E.06702
